v2/tools/blender-substrate/grade/luts/substrate-act0.cube
TITLE "Substrate Act 0 — Hero"
# GRADE.md steps 1-7 (point-wise). Halation/grain/vignette excluded.
LUT_3D_SIZE 9
DOMAIN_MIN 0.0 0.0 0.0
DOMAIN_MAX 1.0 1.0 1.0
0.060000 0.060001 0.074100
0.133109 0.061258 0.077697
0.227904 0.062831 0.081298
0.335055 0.064455 0.084904
0.447888 0.065909 0.092128
0.561081 0.067047 0.092128
0.670150 0.067807 0.095745
0.771275 0.068207 0.095745
0.861280 0.068322 0.095745
0.062584 0.135620 0.084904
0.136009 0.136846 0.088514
0.231560 0.138312 0.092128
0.339933 0.139742 0.095745
0.454341 0.140938 0.095745
0.569264 0.141790 0.095745
0.680019 0.142274 0.095745
0.782624 0.142439 0.095745
0.873811 0.142374 0.095745
0.064870 0.234131 0.095745
0.139100 0.235293 0.095745
0.235975 0.236610 0.095745
0.346094 0.237812 0.095745
0.462455 0.238735 0.095745
0.579282 0.239312 0.095745
0.691664 0.239564 0.092128
0.795474 0.239566 0.088514
0.887407 0.239417 0.084904
0.065216 0.346559 0.095745
0.140683 0.347578 0.095745
0.239252 0.348669 0.092128
0.351262 0.349592 0.092128
0.469405 0.350230 0.088514
0.587618 0.350570 0.084904
0.700794 0.350675 0.081298
0.804741 0.350637 0.077697
0.896226 0.350548 0.074100
0.063264 0.465744 0.088514
0.140136 0.466487 0.084904
0.240367 0.467214 0.081298
0.353892 0.467750 0.077697
0.473032 0.468045 0.077697
0.591446 0.468148 0.074100
0.703924 0.468159 0.074100
0.806782 0.468159 0.074100
0.897282 0.468159 0.074100
0.060641 0.584664 0.077697
0.138746 0.584952 0.074100
0.240161 0.585123 0.074100
0.354328 0.585138 0.074100
0.473454 0.585138 0.074100
0.591567 0.585138 0.074100
0.703924 0.585138 0.074100
0.806851 0.585115 0.074100
0.897522 0.585055 0.074100
0.060000 0.696715 0.074100
0.138551 0.696715 0.074100
0.240153 0.696715 0.074100
0.354329 0.696715 0.074100
0.473805 0.696605 0.074100
0.592710 0.696353 0.074100
0.705997 0.696051 0.074100
0.809692 0.695770 0.074100
0.900813 0.695551 0.074100
0.060114 0.799182 0.074100
0.139178 0.799025 0.074100
0.241910 0.798674 0.074100
0.357768 0.798148 0.074100
0.478868 0.797524 0.074100
0.598926 0.796899 0.074100
0.712940 0.796353 0.077697
0.817031 0.795932 0.077697
0.908317 0.795645 0.077697
0.064923 0.888307 0.074100
0.145352 0.887725 0.074100
0.249516 0.886925 0.074100
0.366574 0.886018 0.074100
0.488510 0.885121 0.077697
0.609031 0.884337 0.077697
0.723197 0.883730 0.077697
0.827216 0.883317 0.077697
0.918303 0.883081 0.077697
0.060269 0.060416 0.142961
0.133395 0.061667 0.146597
0.228251 0.063216 0.153867
0.335514 0.064794 0.157499
0.448503 0.066187 0.161130
0.561873 0.067251 0.164759
0.671122 0.067934 0.168385
0.772412 0.068263 0.168385
0.862555 0.068314 0.168385
0.062813 0.136031 0.153867
0.136286 0.137235 0.157499
0.231927 0.138658 0.161130
0.340430 0.140029 0.164759
0.454994 0.141154 0.168385
0.570079 0.141930 0.168385
0.680984 0.142340 0.168385
0.783712 0.142440 0.168385
0.874989 0.142321 0.168385
0.064973 0.234527 0.164759
0.139279 0.235649 0.168385
0.236267 0.236909 0.168385
0.346521 0.238042 0.168385
0.463021 0.238890 0.168385
0.579972 0.239394 0.164759
0.692446 0.239584 0.164759
0.796311 0.239537 0.161130
0.888259 0.239352 0.161130
0.065151 0.346911 0.168385
0.140709 0.347880 0.168385
0.239394 0.348906 0.164759
0.351521 0.349758 0.164759
0.469762 0.350328 0.161130
0.588031 0.350611 0.157499
0.701212 0.350675 0.153867
0.805114 0.350615 0.150233
0.896512 0.350520 0.150233
0.063085 0.466007 0.161130
0.140046 0.466696 0.157499
0.240374 0.467360 0.157499
0.353972 0.467834 0.153867
0.473136 0.468081 0.150233
0.591509 0.468155 0.150233
0.703924 0.468159 0.150233
0.806782 0.468159 0.150233
0.897282 0.468159 0.150233
0.060513 0.584775 0.150233
0.138686 0.585016 0.150233
0.240154 0.585136 0.150233
0.354328 0.585138 0.150233
0.473454 0.585138 0.150233
0.591567 0.585138 0.150233
0.703924 0.585138 0.150233
0.806905 0.585100 0.150233
0.897612 0.585035 0.150233
0.060000 0.696715 0.150233
0.138551 0.696715 0.150233
0.240153 0.696715 0.150233
0.354353 0.696708 0.150233
0.473971 0.696559 0.150233
0.592981 0.696286 0.150233
0.706338 0.695979 0.150233
0.810076 0.695703 0.150233
0.901221 0.695496 0.150233
0.060248 0.799143 0.150233
0.139446 0.798949 0.150233
0.242323 0.798565 0.150233
0.358308 0.798016 0.150233
0.479503 0.797385 0.150233
0.599623 0.796767 0.150233
0.713671 0.796239 0.150233
0.817773 0.795841 0.150233
0.909057 0.795580 0.150233
0.065654 0.888120 0.150233
0.146175 0.887524 0.150233
0.250431 0.886718 0.150233
0.367559 0.885816 0.150233
0.489535 0.884939 0.150233
0.610066 0.884184 0.150233
0.724218 0.883612 0.150233
0.828208 0.883237 0.150233
0.919259 0.883037 0.150233
0.060615 0.060952 0.232913
0.133768 0.062188 0.236438
0.228708 0.063699 0.243462
0.336119 0.065214 0.246961
0.449308 0.066522 0.250450
0.562907 0.067489 0.253930
0.672385 0.068073 0.257400
0.773883 0.068307 0.257400
0.864197 0.068277 0.260859
0.063098 0.136553 0.246961
0.136636 0.137721 0.246961
0.232397 0.139087 0.250450
0.341070 0.140378 0.253930
0.455834 0.141409 0.257400
0.571125 0.142085 0.257400
0.682218 0.142401 0.260859
0.785098 0.142418 0.260859
0.876485 0.142232 0.257400
0.065090 0.235020 0.257400
0.139496 0.236089 0.257400
0.236629 0.237273 0.257400
0.347057 0.238315 0.260859
0.463735 0.239066 0.260859
0.580841 0.239479 0.257400
0.693427 0.239590 0.257400
0.797352 0.239483 0.253930
0.889311 0.239257 0.253930
0.065051 0.347342 0.260859
0.140728 0.348246 0.257400
0.239561 0.349188 0.257400
0.351838 0.349950 0.257400
0.470197 0.350434 0.253930
0.588532 0.350648 0.250450
0.701710 0.350665 0.246961
0.805542 0.350582 0.246961
0.896816 0.350486 0.246961
0.062851 0.466320 0.253930
0.139926 0.466942 0.253930
0.240375 0.467527 0.250450
0.354061 0.467926 0.246961
0.473247 0.468115 0.246961
0.591556 0.468158 0.243462
0.703924 0.468159 0.243462
0.806782 0.468159 0.243462
0.897282 0.468159 0.243462
0.060365 0.584895 0.246961
0.138624 0.585077 0.246961
0.240153 0.585138 0.243462
0.354328 0.585138 0.243462
0.473454 0.585138 0.243462
0.591567 0.585138 0.243462
0.703944 0.585132 0.243462
0.807001 0.585078 0.243462
0.897753 0.585010 0.243462
0.060000 0.696715 0.243462
0.138551 0.696715 0.243462
0.240153 0.696715 0.243462
0.354438 0.696684 0.243462
0.474235 0.696491 0.243462
0.593376 0.696197 0.243462
0.706821 0.695886 0.243462
0.810612 0.695622 0.243462
0.901784 0.695433 0.243462
0.060496 0.799074 0.243462
0.139863 0.798837 0.243462
0.242921 0.798414 0.243462
0.359063 0.797842 0.243462
0.480375 0.797207 0.243462
0.600569 0.796602 0.243462
0.714655 0.796099 0.243462
0.818767 0.795734 0.243462
0.910045 0.795508 0.243462
0.066669 0.887871 0.243462
0.147303 0.887261 0.243462
0.251671 0.886451 0.243462
0.368882 0.885561 0.243462
0.490900 0.884711 0.243462
0.611437 0.883998 0.243462
0.725564 0.883474 0.243462
0.829511 0.883148 0.243462
0.920510 0.882996 0.243462
0.061001 0.061549 0.327898
0.134190 0.062762 0.334452
0.229231 0.064223 0.337724
0.336814 0.065661 0.340993
0.450230 0.066868 0.347524
0.564083 0.067722 0.350787
0.673814 0.068192 0.350787
0.775537 0.068321 0.354049
0.866036 0.068201 0.354049
0.063403 0.137123 0.340993
0.137020 0.138248 0.344260
0.232920 0.139543 0.347524
0.341785 0.140740 0.350787
0.456773 0.141663 0.354049
0.572292 0.142227 0.354049
0.683588 0.142437 0.357310
0.786630 0.142362 0.357310
0.878129 0.142104 0.354049
0.065197 0.235548 0.350787
0.139719 0.236555 0.354049
0.237019 0.237651 0.354049
0.347642 0.238589 0.354049
0.464515 0.239232 0.357310
0.581786 0.239545 0.354049
0.694488 0.239572 0.354049
0.798468 0.239402 0.354049
0.890426 0.239135 0.350787
0.064919 0.347795 0.357310
0.140729 0.348625 0.357310
0.239729 0.349473 0.354049
0.352169 0.350135 0.354049
0.470654 0.350528 0.350787
0.589050 0.350671 0.350787
0.702212 0.350642 0.347524
0.805950 0.350541 0.347524
0.897068 0.350452 0.347524
0.062583 0.466637 0.350787
0.139785 0.467186 0.350787
0.240366 0.467686 0.350787
0.354143 0.468007 0.347524
0.473343 0.468139 0.347524
0.591567 0.468159 0.344260
0.703924 0.468159 0.344260
0.806782 0.468159 0.344260
0.897282 0.468159 0.344260
0.060224 0.584999 0.347524
0.138575 0.585120 0.344260
0.240153 0.585138 0.344260
0.354328 0.585138 0.344260
0.473454 0.585138 0.344260
0.591567 0.585138 0.344260
0.704004 0.585118 0.344260
0.807146 0.585050 0.344260
0.897948 0.584984 0.344260
0.060000 0.696715 0.344260
0.138551 0.696715 0.344260
0.240153 0.696715 0.344260
0.354607 0.696639 0.344260
0.474600 0.696405 0.344260
0.593884 0.696093 0.344260
0.707423 0.695785 0.344260
0.811270 0.695537 0.344260
0.902470 0.695371 0.344260
0.060877 0.798972 0.344260
0.140428 0.798693 0.344260
0.243681 0.798233 0.344260
0.359992 0.797642 0.344260
0.481427 0.797009 0.344260
0.601697 0.796423 0.344260
0.715818 0.795953 0.344260
0.819936 0.795628 0.344260
0.911200 0.795443 0.340993
0.067907 0.887582 0.344260
0.148661 0.886962 0.344260
0.253144 0.886153 0.344260
0.370436 0.885281 0.344260
0.492493 0.884468 0.344260
0.613024 0.883804 0.340993
0.727115 0.883337 0.340993
0.831005 0.883069 0.340993
0.921939 0.882970 0.340993
0.061399 0.062164 0.426391
0.134634 0.063345 0.429746
0.229787 0.064747 0.433110
0.337554 0.066095 0.439868
0.451208 0.067192 0.443263
0.565324 0.067926 0.450085
0.675313 0.068276 0.453514
0.777263 0.068295 0.453514
0.867945 0.068082 0.456955
0.063702 0.137700 0.439868
0.137407 0.138774 0.439868
0.233457 0.139989 0.446668
0.342526 0.141084 0.450085
0.457747 0.141890 0.453514
0.573498 0.142336 0.453514
0.684998 0.142437 0.456955
0.788198 0.142271 0.456955
0.879802 0.141941 0.456955
0.065283 0.236070 0.450085
0.139929 0.237008 0.453514
0.237404 0.238010 0.453514
0.348230 0.238840 0.456955
0.465301 0.239372 0.456955
0.582737 0.239583 0.456955
0.695547 0.239526 0.456955
0.799571 0.239297 0.453514
0.891513 0.238995 0.453514
0.064759 0.348230 0.456955
0.140710 0.348984 0.456955
0.239882 0.349735 0.456955
0.352487 0.350297 0.456955
0.471095 0.350600 0.453514
0.589542 0.350675 0.453514
0.702669 0.350608 0.450085
0.806291 0.350499 0.450085
0.897229 0.350427 0.450085
0.062302 0.466932 0.453514
0.139634 0.467407 0.453514
0.240347 0.467823 0.453514
0.354210 0.468070 0.450085
0.473411 0.468153 0.450085
0.591567 0.468159 0.450085
0.703924 0.468159 0.450085
0.806782 0.468159 0.450085
0.897282 0.468159 0.450085
0.060109 0.585075 0.450085
0.138552 0.585137 0.450085
0.240153 0.585138 0.450085
0.354328 0.585138 0.450085
0.473454 0.585138 0.450085
0.591567 0.585138 0.450085
0.704115 0.585095 0.450085
0.807344 0.585020 0.450085
0.898197 0.584960 0.450085
0.060000 0.696715 0.450085
0.138551 0.696715 0.450085
0.240175 0.696710 0.450085
0.354871 0.696575 0.450085
0.475061 0.696306 0.450085
0.594487 0.695984 0.450085
0.708119 0.695684 0.446668
0.812019 0.695457 0.446668
0.903245 0.695320 0.446668
0.061392 0.798842 0.450085
0.141127 0.798525 0.450085
0.244576 0.798035 0.450085
0.361052 0.797432 0.446668
0.482606 0.796806 0.446668
0.602946 0.796247 0.446668
0.717095 0.795816 0.446668
0.821212 0.795535 0.443263
0.912457 0.795394 0.443263
0.069309 0.887274 0.446668
0.150179 0.886647 0.446668
0.254771 0.885845 0.446668
0.372136 0.884999 0.446668
0.494219 0.884229 0.443263
0.614734 0.883620 0.443263
0.728774 0.883215 0.443263
0.832595 0.883010 0.443263
0.923453 0.882968 0.439868
0.061786 0.062763 0.529066
0.135073 0.063906 0.536723
0.230345 0.065240 0.540586
0.338299 0.066494 0.548376
0.452191 0.067477 0.552302
0.566566 0.068087 0.560213
0.676805 0.068317 0.564197
0.778972 0.068229 0.564197
0.869825 0.067926 0.568198
0.063979 0.138249 0.544470
0.137777 0.139268 0.548376
0.233981 0.140399 0.552302
0.343254 0.141388 0.560213
0.458705 0.142077 0.564197
0.574681 0.142406 0.568198
0.686374 0.142402 0.568198
0.789719 0.142147 0.568198
0.881415 0.141751 0.572217
0.065341 0.236556 0.560213
0.140115 0.237424 0.564197
0.237766 0.238331 0.568198
0.348790 0.239052 0.568198
0.466053 0.239475 0.568198
0.583643 0.239589 0.572217
0.696548 0.239456 0.572217
0.800601 0.239175 0.568198
0.892512 0.238845 0.568198
0.064579 0.348626 0.568198
0.140671 0.349303 0.572217
0.240012 0.349961 0.572217
0.352776 0.350426 0.568198
0.471495 0.350647 0.568198
0.589979 0.350663 0.568198
0.703056 0.350568 0.568198
0.806542 0.350462 0.564197
0.897282 0.350418 0.564197
0.062022 0.467187 0.568198
0.139482 0.467593 0.568198
0.240321 0.467931 0.568198
0.354260 0.468112 0.564197
0.473447 0.468158 0.564197
0.591567 0.468159 0.564197
0.703924 0.468159 0.564197
0.806782 0.468159 0.564197
0.897282 0.468159 0.564197
0.060034 0.585120 0.564197
0.138551 0.585138 0.564197
0.240153 0.585138 0.564197
0.354328 0.585138 0.564197
0.473454 0.585138 0.564197
0.591599 0.585131 0.564197
0.704278 0.585068 0.564197
0.807590 0.584992 0.564197
0.898493 0.584942 0.564197
0.060000 0.696715 0.564197
0.138551 0.696715 0.564197
0.240288 0.696682 0.564197
0.355221 0.696497 0.564197
0.475600 0.696202 0.564197
0.595162 0.695876 0.564197
0.708881 0.695591 0.560213
0.812829 0.695389 0.560213
0.904076 0.695283 0.560213
0.062024 0.798693 0.564197
0.141934 0.798345 0.564197
0.245567 0.797831 0.564197
0.362197 0.797222 0.560213
0.483858 0.796611 0.560213
0.604258 0.796083 0.560213
0.718427 0.795695 0.556248
0.822534 0.795461 0.556248
0.913754 0.795366 0.552302
0.070812 0.886962 0.560213
0.151787 0.886335 0.560213
0.256475 0.885545 0.560213
0.373899 0.884730 0.556248
0.495995 0.884008 0.556248
0.616481 0.883458 0.552302
0.730460 0.883118 0.552302
0.834202 0.882976 0.552302
0.924976 0.882991 0.552302
0.062146 0.063320 0.646686
0.135490 0.064420 0.650898
0.230881 0.065683 0.655114
0.339018 0.066842 0.663553
0.453137 0.067711 0.671997
0.567756 0.068202 0.676219
0.678227 0.068317 0.680440
0.780593 0.068128 0.684660
0.871600 0.067742 0.688878
0.064223 0.138751 0.663553
0.138114 0.139712 0.667775
0.234469 0.140759 0.671997
0.343939 0.141644 0.680440
0.459606 0.142220 0.684660
0.575791 0.142438 0.688878
0.687661 0.142335 0.688878
0.791134 0.142001 0.693093
0.882905 0.141545 0.693093
0.065372 0.236989 0.680440
0.140269 0.237788 0.684660
0.238089 0.238603 0.688878
0.349302 0.239221 0.688878
0.466742 0.239542 0.693093
0.584470 0.239568 0.693093
0.697454 0.239368 0.693093
0.801519 0.239045 0.693093
0.893385 0.238696 0.693093
0.064389 0.348969 0.693093
0.140615 0.349574 0.693093
0.240115 0.350144 0.693093
0.353025 0.350522 0.693093
0.471841 0.350670 0.693093
0.590348 0.350639 0.693093
0.703360 0.350527 0.688878
0.806700 0.350434 0.688878
0.897282 0.350418 0.688878
0.061759 0.467398 0.693093
0.139337 0.467740 0.693093
0.240291 0.468011 0.693093
0.354293 0.468138 0.688878
0.473454 0.468159 0.688878
0.591567 0.468159 0.688878
0.703924 0.468159 0.688878
0.806782 0.468159 0.688878
0.897282 0.468159 0.688878
0.060002 0.585137 0.688878
0.138551 0.585138 0.688878
0.240153 0.585138 0.688878
0.354328 0.585138 0.688878
0.473454 0.585138 0.688878
0.591683 0.585116 0.688878
0.704483 0.585040 0.688878
0.807874 0.584968 0.688878
0.898822 0.584933 0.688878
0.060000 0.696715 0.688878
0.138552 0.696715 0.688878
0.240488 0.696636 0.688878
0.355641 0.696412 0.688878
0.476193 0.696099 0.688878
0.595878 0.695775 0.684660
0.709673 0.695509 0.684660
0.813662 0.695336 0.680440
0.904926 0.695261 0.680440
0.062737 0.798533 0.688878
0.142808 0.798161 0.688878
0.246607 0.797632 0.684660
0.363375 0.797024 0.684660
0.485129 0.796432 0.680440
0.605575 0.795939 0.680440
0.719754 0.795595 0.676219
0.823845 0.795409 0.676219
0.915035 0.795359 0.671997
0.072347 0.886661 0.684660
0.153412 0.886038 0.684660
0.258181 0.885267 0.680440
0.375648 0.884486 0.680440
0.497744 0.883813 0.676219
0.618189 0.883324 0.671997
0.732099 0.883047 0.671997
0.835756 0.882966 0.671997
0.926441 0.883037 0.667775
0.062467 0.063816 0.755510
0.135868 0.064873 0.759586
0.231375 0.066066 0.767694
0.339683 0.067132 0.771724
0.454012 0.067894 0.779735
0.568853 0.068274 0.787674
0.679531 0.068284 0.791615
0.782072 0.068003 0.795536
0.873212 0.067544 0.799436
0.064429 0.139190 0.771724
0.138410 0.140095 0.775738
0.234908 0.141061 0.783714
0.344558 0.141849 0.787674
0.460424 0.142320 0.791615
0.576796 0.142438 0.799436
0.688820 0.142247 0.799436
0.792400 0.141843 0.803315
0.884231 0.141337 0.803315
0.065378 0.237359 0.791615
0.140391 0.238094 0.791615
0.238368 0.238823 0.795536
0.349753 0.239347 0.799436
0.467351 0.239578 0.803315
0.585196 0.239527 0.803315
0.698242 0.239271 0.803315
0.802307 0.238916 0.803315
0.894118 0.238556 0.803315
0.064199 0.349254 0.803315
0.140549 0.349795 0.803315
0.240194 0.350286 0.803315
0.353233 0.350588 0.803315
0.472130 0.350676 0.803315
0.590645 0.350609 0.803315
0.703582 0.350490 0.803315
0.806772 0.350420 0.803315
0.897282 0.350418 0.803315
0.061522 0.467565 0.803315
0.139208 0.467853 0.803315
0.240262 0.468066 0.803315
0.354313 0.468151 0.803315
0.473454 0.468159 0.803315
0.591567 0.468159 0.803315
0.703924 0.468159 0.803315
0.806782 0.468159 0.803315
0.897286 0.468159 0.803315
0.060000 0.585138 0.803315
0.138551 0.585138 0.803315
0.240153 0.585138 0.803315
0.354328 0.585138 0.803315
0.473454 0.585138 0.803315
0.591809 0.585096 0.803315
0.704720 0.585014 0.803315
0.808180 0.584950 0.799436
0.899169 0.584932 0.799436
0.060000 0.696715 0.803315
0.138598 0.696705 0.803315
0.240753 0.696580 0.803315
0.356101 0.696326 0.803315
0.476807 0.696002 0.799436
0.596599 0.695687 0.799436
0.710460 0.695441 0.795536
0.814482 0.695298 0.795536
0.905757 0.695255 0.791615
0.063490 0.798375 0.799436
0.143701 0.797985 0.799436
0.247646 0.797446 0.799436
0.364531 0.796845 0.795536
0.486361 0.796276 0.795536
0.606843 0.795819 0.791615
0.721023 0.795517 0.787674
0.825093 0.795377 0.787674
0.916248 0.795370 0.783714
0.073843 0.886385 0.795536
0.154984 0.885769 0.795536
0.259816 0.885018 0.791615
0.377313 0.884274 0.787674
0.499397 0.883650 0.787674
0.619794 0.883218 0.783714
0.733631 0.883001 0.783714
0.837200 0.882978 0.779735
0.927796 0.883099 0.779735
0.062742 0.064243 0.844252
0.136200 0.065257 0.847778
0.231812 0.066384 0.854734
0.340274 0.067365 0.861571
0.454789 0.068030 0.868298
0.569823 0.068311 0.874924
0.680682 0.068228 0.878202
0.783372 0.067868 0.881458
0.874621 0.067346 0.884693
0.064596 0.139560 0.858167
0.138660 0.140413 0.864948
0.235287 0.141305 0.868298
0.345099 0.142005 0.874924
0.461138 0.142384 0.878202
0.577671 0.142414 0.884693
0.689825 0.142147 0.884693
0.793492 0.141685 0.887909
0.885366 0.141139 0.887909
0.065366 0.237665 0.874924
0.140484 0.238342 0.878202
0.238600 0.238995 0.881458
0.350135 0.239437 0.884693
0.467869 0.239590 0.887909
0.585813 0.239475 0.887909
0.698903 0.239174 0.891107
0.802957 0.238796 0.891107
0.894709 0.238433 0.891107
0.064020 0.349484 0.887909
0.140480 0.349968 0.887909
0.240251 0.350392 0.891107
0.353400 0.350630 0.891107
0.472361 0.350669 0.891107
0.590874 0.350578 0.891107
0.703734 0.350462 0.891107
0.806782 0.350418 0.891107
0.897282 0.350418 0.891107
0.061318 0.467692 0.891107
0.139097 0.467934 0.891107
0.240236 0.468102 0.891107
0.354323 0.468157 0.891107
0.473454 0.468159 0.891107
0.591567 0.468159 0.891107
0.703924 0.468159 0.891107
0.806782 0.468159 0.891107
0.897304 0.468161 0.891107
0.060000 0.585138 0.891107
0.138551 0.585138 0.891107
0.240153 0.585138 0.891107
0.354328 0.585138 0.891107
0.473470 0.585135 0.891107
0.591963 0.585075 0.887909
0.704968 0.584992 0.887909
0.808488 0.584938 0.887909
0.899512 0.584938 0.884693
0.060000 0.696715 0.891107
0.138710 0.696680 0.891107
0.241054 0.696521 0.887909
0.356570 0.696245 0.887909
0.477407 0.695917 0.887909
0.597288 0.695612 0.884693
0.711203 0.695389 0.881458
0.815251 0.695274 0.881458
0.906533 0.695261 0.878202
0.064234 0.798226 0.887909
0.144566 0.797824 0.884693
0.248632 0.797282 0.884693
0.365613 0.796690 0.881458
0.487504 0.796145 0.881458
0.608010 0.795722 0.878202
0.722184 0.795461 0.874924
0.826229 0.795362 0.871623
0.917350 0.795394 0.871623
0.075237 0.886141 0.881458
0.156438 0.885535 0.881458
0.261318 0.884806 0.878202
0.378831 0.884096 0.874924
0.500896 0.883518 0.874924
0.621241 0.883139 0.871623
0.735004 0.882976 0.868298
0.838488 0.883004 0.868298
0.928999 0.883170 0.864948
