v2/tools/blender-substrate/grade/luts/substrate-act2.cube
TITLE "Substrate Act 2 — Work"
# GRADE.md steps 1-7 (point-wise). Halation/grain/vignette excluded.
LUT_3D_SIZE 9
DOMAIN_MIN 0.0 0.0 0.0
DOMAIN_MAX 1.0 1.0 1.0
0.060000 0.060001 0.071280
0.132812 0.061253 0.074838
0.225615 0.062795 0.078397
0.330183 0.064386 0.081957
0.440499 0.065823 0.085519
0.551678 0.066966 0.089081
0.659545 0.067748 0.092644
0.760474 0.068178 0.092644
0.851379 0.068320 0.092644
0.062606 0.136305 0.081957
0.135736 0.137526 0.085519
0.229283 0.138962 0.089081
0.335044 0.140365 0.092644
0.446900 0.141550 0.092644
0.559788 0.142411 0.092644
0.669339 0.142917 0.092644
0.771770 0.143108 0.092644
0.863895 0.143064 0.092644
0.064870 0.234103 0.092644
0.138797 0.235260 0.092644
0.233628 0.236552 0.092644
0.341076 0.237736 0.092644
0.454826 0.238657 0.092644
0.569579 0.239248 0.092644
0.680749 0.239523 0.089081
0.784407 0.239547 0.085519
0.877316 0.239411 0.081957
0.065226 0.345291 0.092644
0.140370 0.346308 0.092644
0.236841 0.347384 0.089081
0.346119 0.348298 0.089081
0.461613 0.348942 0.085519
0.577753 0.349299 0.081957
0.689761 0.349420 0.078397
0.793627 0.349394 0.074838
0.886164 0.349306 0.074838
0.063320 0.463236 0.085519
0.139850 0.463983 0.081957
0.237940 0.464708 0.078397
0.348708 0.465249 0.078397
0.465219 0.465559 0.074838
0.581641 0.465676 0.071280
0.693064 0.465693 0.071280
0.795856 0.465693 0.071280
0.887374 0.465693 0.071280
0.060699 0.581296 0.074838
0.138456 0.581599 0.071280
0.237719 0.581788 0.071280
0.349158 0.581813 0.071280
0.465693 0.581813 0.071280
0.581813 0.581813 0.071280
0.693064 0.581813 0.071280
0.795893 0.581801 0.071280
0.887561 0.581749 0.071280
0.060000 0.693064 0.071280
0.138233 0.693064 0.071280
0.237705 0.693064 0.071280
0.349158 0.693064 0.071280
0.465940 0.692986 0.071280
0.582766 0.692762 0.071280
0.694896 0.692477 0.071280
0.798511 0.692202 0.071280
0.890661 0.691981 0.071280
0.060072 0.795834 0.071280
0.138754 0.795695 0.071280
0.239265 0.795374 0.071280
0.352295 0.794881 0.071280
0.470712 0.794286 0.071280
0.588724 0.793680 0.071280
0.701623 0.793138 0.071280
0.805674 0.792711 0.074838
0.898022 0.792411 0.074838
0.064701 0.885929 0.071280
0.144773 0.885358 0.071280
0.246725 0.884585 0.071280
0.360971 0.883706 0.071280
0.480256 0.882830 0.074838
0.598773 0.882052 0.074838
0.711864 0.881436 0.074838
0.815878 0.881006 0.074838
0.908049 0.880750 0.074838
0.060276 0.060427 0.142583
0.133105 0.061672 0.146151
0.225969 0.063190 0.149719
0.330649 0.064736 0.153286
0.441118 0.066112 0.156852
0.552475 0.067181 0.160419
0.660524 0.067886 0.163984
0.761623 0.068243 0.163984
0.852672 0.068319 0.167549
0.062840 0.136727 0.153286
0.136019 0.137924 0.156852
0.229656 0.139318 0.160419
0.335548 0.140662 0.163984
0.447559 0.141776 0.163984
0.560610 0.142560 0.167549
0.670314 0.142992 0.167549
0.772872 0.143116 0.163984
0.865093 0.143015 0.163984
0.064976 0.234509 0.163984
0.138980 0.235626 0.163984
0.233924 0.236861 0.167549
0.341507 0.237975 0.167549
0.455398 0.238821 0.163984
0.570277 0.239339 0.163984
0.681544 0.239549 0.160419
0.785261 0.239522 0.160419
0.878190 0.239348 0.156852
0.065160 0.345654 0.167549
0.140398 0.346620 0.163984
0.236985 0.347629 0.163984
0.346383 0.348472 0.160419
0.461976 0.349047 0.156852
0.578177 0.349345 0.156852
0.690197 0.349424 0.153286
0.794023 0.349372 0.149719
0.886476 0.349277 0.149719
0.063138 0.463508 0.160419
0.139760 0.464201 0.156852
0.237947 0.464862 0.153286
0.348790 0.465341 0.149719
0.465331 0.465599 0.149719
0.581719 0.465685 0.146151
0.693064 0.465693 0.146151
0.795856 0.465693 0.146151
0.887374 0.465693 0.146151
0.060563 0.581415 0.149719
0.138391 0.581670 0.146151
0.237710 0.581806 0.146151
0.349158 0.581813 0.146151
0.465693 0.581813 0.146151
0.581813 0.581813 0.146151
0.693064 0.581813 0.146151
0.795936 0.581789 0.146151
0.887643 0.581730 0.146151
0.060000 0.693064 0.146151
0.138233 0.693064 0.146151
0.237705 0.693064 0.146151
0.349162 0.693062 0.146151
0.466087 0.692945 0.146151
0.583021 0.692698 0.146151
0.695227 0.692405 0.146151
0.798889 0.692134 0.146151
0.891065 0.691924 0.146151
0.060187 0.795800 0.146151
0.139008 0.795623 0.146151
0.239666 0.795266 0.146151
0.352826 0.794750 0.146151
0.471343 0.794146 0.146151
0.589421 0.793545 0.146151
0.702358 0.793020 0.146151
0.806423 0.792615 0.146151
0.898772 0.792341 0.149719
0.065435 0.885740 0.146151
0.145603 0.885156 0.146151
0.247649 0.884375 0.146151
0.361968 0.883501 0.146151
0.481297 0.882642 0.146151
0.599826 0.881892 0.149719
0.712908 0.881311 0.149719
0.816894 0.880919 0.149719
0.909030 0.880700 0.149719
0.060626 0.060968 0.231511
0.133482 0.062199 0.235049
0.226428 0.063678 0.238584
0.331253 0.065163 0.245647
0.441918 0.066456 0.249175
0.553500 0.067430 0.252700
0.661778 0.068035 0.256221
0.763087 0.068297 0.256221
0.854313 0.068290 0.256221
0.063126 0.137253 0.242116
0.136372 0.138416 0.245647
0.230127 0.139752 0.249175
0.336185 0.141017 0.252700
0.448394 0.142039 0.256221
0.561650 0.142724 0.256221
0.671542 0.143061 0.256221
0.774255 0.143101 0.256221
0.866590 0.142931 0.256221
0.065093 0.235006 0.252700
0.139198 0.236069 0.256221
0.234286 0.237230 0.256221
0.342041 0.238254 0.256221
0.456108 0.239004 0.256221
0.571142 0.239431 0.256221
0.682525 0.239562 0.256221
0.786307 0.239472 0.252700
0.879252 0.239255 0.252700
0.065061 0.346089 0.256221
0.140418 0.346990 0.256221
0.237153 0.347916 0.256221
0.346698 0.348670 0.252700
0.462412 0.349160 0.252700
0.578683 0.349388 0.249175
0.690708 0.349417 0.245647
0.794473 0.349340 0.245647
0.886807 0.349240 0.242116
0.062902 0.463827 0.252700
0.139639 0.464452 0.249175
0.237947 0.465034 0.249175
0.348881 0.465438 0.245647
0.465450 0.465638 0.245647
0.581784 0.465691 0.242116
0.693064 0.465693 0.242116
0.795856 0.465693 0.242116
0.887374 0.465693 0.242116
0.060407 0.581543 0.245647
0.138323 0.581737 0.242116
0.237705 0.581813 0.242116
0.349158 0.581813 0.242116
0.465693 0.581813 0.242116
0.581813 0.581813 0.242116
0.693068 0.581812 0.242116
0.796017 0.581769 0.242116
0.887772 0.581706 0.242116
0.060000 0.693064 0.242116
0.138233 0.693064 0.242116
0.237705 0.693064 0.242116
0.349218 0.693046 0.242116
0.466323 0.692883 0.242116
0.583394 0.692612 0.242116
0.695691 0.692314 0.242116
0.799410 0.692052 0.242116
0.891618 0.691859 0.242116
0.060410 0.795737 0.242116
0.139403 0.795517 0.242116
0.240243 0.795120 0.242116
0.353561 0.794579 0.242116
0.472199 0.793969 0.242116
0.590356 0.793378 0.242116
0.703335 0.792877 0.242116
0.807415 0.792504 0.242116
0.899759 0.792264 0.242116
0.066443 0.885493 0.242116
0.146726 0.884893 0.242116
0.248884 0.884108 0.242116
0.363288 0.883244 0.242116
0.482664 0.882411 0.242116
0.601203 0.881700 0.242116
0.714264 0.881166 0.242116
0.818211 0.880823 0.242116
0.910296 0.880652 0.242116
0.061014 0.061569 0.329021
0.133907 0.062775 0.332454
0.226952 0.064206 0.339317
0.331943 0.065615 0.342747
0.442829 0.066810 0.346177
0.554662 0.067673 0.353036
0.663191 0.068165 0.353036
0.764727 0.068321 0.356466
0.856142 0.068221 0.356466
0.063431 0.137826 0.342747
0.136756 0.138945 0.346177
0.230648 0.140211 0.349607
0.336894 0.141385 0.353036
0.449323 0.142300 0.356466
0.562803 0.142874 0.356466
0.672900 0.143105 0.356466
0.775778 0.143053 0.359897
0.868229 0.142808 0.356466
0.065200 0.235536 0.353036
0.139422 0.236537 0.356466
0.234673 0.237611 0.356466
0.342619 0.238534 0.356466
0.456878 0.239178 0.359897
0.572079 0.239505 0.356466
0.683582 0.239551 0.356466
0.787425 0.239396 0.356466
0.880375 0.239136 0.353036
0.064930 0.346544 0.359897
0.140421 0.347371 0.356466
0.237320 0.348205 0.356466
0.347027 0.348861 0.356466
0.462868 0.349260 0.353036
0.579207 0.349415 0.353036
0.691223 0.349397 0.349607
0.794903 0.349299 0.349607
0.887089 0.349203 0.349607
0.062633 0.464149 0.353036
0.139497 0.464701 0.353036
0.237937 0.465199 0.353036
0.348964 0.465525 0.349607
0.465554 0.465667 0.349607
0.581813 0.465693 0.346177
0.693064 0.465693 0.346177
0.795856 0.465693 0.346177
0.887374 0.465693 0.346177
0.060258 0.581653 0.349607
0.138267 0.581787 0.346177
0.237705 0.581813 0.346177
0.349158 0.581813 0.346177
0.465693 0.581813 0.346177
0.581813 0.581813 0.346177
0.693107 0.581802 0.346177
0.796144 0.581744 0.346177
0.887953 0.581680 0.346177
0.060000 0.693064 0.346177
0.138233 0.693064 0.346177
0.237705 0.693064 0.346177
0.349355 0.693010 0.346177
0.466658 0.692803 0.346177
0.583874 0.692512 0.346177
0.696270 0.692214 0.346177
0.800049 0.691966 0.346177
0.892289 0.691795 0.346177
0.060764 0.795642 0.346177
0.139943 0.795379 0.346177
0.240979 0.794945 0.346177
0.354466 0.794382 0.346177
0.473230 0.793772 0.346177
0.591467 0.793198 0.346177
0.704487 0.792728 0.346177
0.808577 0.792393 0.346177
0.900911 0.792194 0.342747
0.067669 0.885206 0.346177
0.148073 0.884595 0.346177
0.250348 0.883810 0.346177
0.364836 0.882963 0.346177
0.484253 0.882164 0.346177
0.602793 0.881501 0.342747
0.715822 0.881022 0.342747
0.819715 0.880736 0.342747
0.911737 0.880619 0.342747
0.061413 0.062186 0.432486
0.134352 0.063361 0.435989
0.227507 0.064733 0.439498
0.332677 0.066055 0.446537
0.443795 0.067143 0.450066
0.555886 0.067886 0.457146
0.664672 0.068259 0.460697
0.766438 0.068305 0.460697
0.858041 0.068111 0.464256
0.063729 0.138404 0.446537
0.137143 0.139471 0.450066
0.231183 0.140659 0.453602
0.337628 0.141732 0.457146
0.450285 0.142534 0.460697
0.563995 0.142992 0.460697
0.674295 0.143114 0.464256
0.777334 0.142969 0.464256
0.869896 0.142651 0.464256
0.065285 0.236059 0.457146
0.139632 0.236992 0.460697
0.235056 0.237973 0.460697
0.343200 0.238789 0.464256
0.457655 0.239323 0.464256
0.573022 0.239549 0.464256
0.684636 0.239511 0.464256
0.788529 0.239296 0.464256
0.881469 0.238998 0.460697
0.064771 0.346981 0.464256
0.140403 0.347732 0.464256
0.237471 0.348471 0.464256
0.347342 0.349027 0.464256
0.463307 0.349338 0.460697
0.579703 0.349424 0.460697
0.691695 0.349365 0.460697
0.795269 0.349255 0.457146
0.887282 0.349174 0.457146
0.062351 0.464447 0.464256
0.139345 0.464925 0.460697
0.237917 0.465340 0.460697
0.349033 0.465592 0.457146
0.465631 0.465684 0.457146
0.581813 0.465693 0.457146
0.693064 0.465693 0.457146
0.795856 0.465693 0.457146
0.887374 0.465693 0.457146
0.060134 0.581736 0.457146
0.138236 0.581811 0.457146
0.237705 0.581813 0.457146
0.349158 0.581813 0.457146
0.465693 0.581813 0.457146
0.581813 0.581813 0.457146
0.693195 0.581784 0.457146
0.796323 0.581716 0.457146
0.888187 0.581656 0.457146
0.060000 0.693064 0.457146
0.138233 0.693064 0.457146
0.237711 0.693062 0.457146
0.349585 0.692954 0.457146
0.467087 0.692710 0.457146
0.584450 0.692405 0.457146
0.696943 0.692113 0.457146
0.800780 0.691885 0.453602
0.893049 0.691741 0.453602
0.061252 0.795519 0.457146
0.140617 0.795217 0.457146
0.241848 0.794751 0.457146
0.355502 0.794175 0.457146
0.474387 0.793570 0.453602
0.592700 0.793020 0.453602
0.705753 0.792586 0.453602
0.809846 0.792295 0.450066
0.902164 0.792140 0.450066
0.069059 0.884900 0.453602
0.149581 0.884282 0.453602
0.251965 0.883503 0.453602
0.366528 0.882679 0.453602
0.485977 0.881921 0.453602
0.604505 0.881311 0.450066
0.717489 0.880893 0.450066
0.821316 0.880670 0.450066
0.913264 0.880610 0.450066
0.061801 0.062787 0.541284
0.134793 0.063924 0.545093
0.228065 0.065230 0.548917
0.333417 0.066459 0.556603
0.444767 0.067435 0.560465
0.557113 0.068057 0.568226
0.666147 0.068311 0.572123
0.768132 0.068248 0.576032
0.859912 0.067962 0.576032
0.064006 0.138955 0.552753
0.137512 0.139966 0.556603
0.231704 0.141072 0.564340
0.338349 0.142041 0.568226
0.451231 0.142728 0.572123
0.565163 0.143070 0.576032
0.675658 0.143087 0.576032
0.778845 0.142852 0.579950
0.871504 0.142465 0.579950
0.065343 0.236547 0.568226
0.139816 0.237409 0.572123
0.235414 0.238296 0.576032
0.343754 0.239006 0.576032
0.458399 0.239433 0.579950
0.573920 0.239562 0.579950
0.685634 0.239446 0.579950
0.789562 0.239177 0.579950
0.882475 0.238849 0.576032
0.064592 0.347379 0.579950
0.140364 0.348053 0.579950
0.237599 0.348699 0.579950
0.347627 0.349161 0.579950
0.463707 0.349389 0.579950
0.580146 0.349415 0.576032
0.692097 0.349325 0.576032
0.795546 0.349214 0.576032
0.887369 0.349159 0.576032
0.062070 0.464705 0.579950
0.139192 0.465114 0.576032
0.237890 0.465452 0.576032
0.349084 0.465639 0.576032
0.465677 0.465691 0.576032
0.581813 0.465693 0.576032
0.693064 0.465693 0.576032
0.795856 0.465693 0.576032
0.887374 0.465693 0.576032
0.060049 0.581787 0.576032
0.138233 0.581813 0.576032
0.237705 0.581813 0.576032
0.349158 0.581813 0.576032
0.465693 0.581813 0.576032
0.581822 0.581811 0.576032
0.693334 0.581760 0.572123
0.796550 0.581688 0.572123
0.888468 0.581638 0.572123
0.060000 0.693064 0.576032
0.138233 0.693064 0.576032
0.237792 0.693042 0.576032
0.349903 0.692882 0.572123
0.467596 0.692610 0.572123
0.585098 0.692299 0.572123
0.697683 0.692019 0.572123
0.801572 0.691815 0.568226
0.893866 0.691701 0.568226
0.061857 0.795376 0.572123
0.141400 0.795041 0.572123
0.242815 0.794551 0.572123
0.356624 0.793967 0.572123
0.475621 0.793375 0.568226
0.593998 0.792854 0.568226
0.707076 0.792461 0.564340
0.811164 0.792215 0.564340
0.903460 0.792107 0.564340
0.070551 0.884589 0.572123
0.151180 0.883971 0.568226
0.253662 0.883203 0.568226
0.368287 0.882408 0.568226
0.487753 0.881696 0.564340
0.606257 0.881143 0.564340
0.719185 0.880788 0.560465
0.822936 0.880627 0.560465
0.914802 0.880625 0.560465
0.062163 0.063346 0.651769
0.135211 0.064440 0.655803
0.228601 0.065677 0.663875
0.334131 0.066812 0.667913
0.445704 0.067677 0.675989
0.558290 0.068181 0.684063
0.667556 0.068320 0.688098
0.769742 0.068155 0.692131
0.861680 0.067784 0.692131
0.064249 0.139458 0.667913
0.137850 0.140411 0.671951
0.232190 0.141434 0.680026
0.339027 0.142301 0.684063
0.452122 0.142876 0.688098
0.566261 0.143109 0.692131
0.676933 0.143027 0.696163
0.780252 0.142711 0.696163
0.872991 0.142263 0.696163
0.065373 0.236981 0.684063
0.139970 0.237774 0.688098
0.235734 0.238570 0.692131
0.344260 0.239179 0.696163
0.459080 0.239506 0.696163
0.574741 0.239547 0.696163
0.686538 0.239363 0.696163
0.790485 0.239049 0.696163
0.883359 0.238700 0.696163
0.064401 0.347723 0.696163
0.140309 0.348326 0.696163
0.237701 0.348885 0.696163
0.347874 0.349261 0.696163
0.464054 0.349416 0.696163
0.580522 0.349393 0.696163
0.692417 0.349283 0.696163
0.795730 0.349183 0.696163
0.887374 0.349158 0.696163
0.061804 0.464919 0.696163
0.139046 0.465264 0.696163
0.237858 0.465535 0.696163
0.349118 0.465667 0.696163
0.465693 0.465693 0.696163
0.581813 0.465693 0.696163
0.693064 0.465693 0.696163
0.795856 0.465693 0.696163
0.887374 0.465693 0.696163
0.060006 0.581810 0.696163
0.138233 0.581813 0.696163
0.237705 0.581813 0.696163
0.349158 0.581813 0.696163
0.465693 0.581813 0.696163
0.581880 0.581800 0.696163
0.693518 0.581734 0.696163
0.796817 0.581664 0.692131
0.888783 0.581627 0.692131
0.060000 0.693064 0.696163
0.138233 0.693064 0.696163
0.237963 0.693003 0.696163
0.350293 0.692803 0.696163
0.468162 0.692510 0.692131
0.585790 0.692200 0.692131
0.698456 0.691936 0.688098
0.802391 0.691759 0.688098
0.894705 0.691677 0.688098
0.062547 0.795221 0.692131
0.142253 0.794861 0.692131
0.243835 0.794354 0.692131
0.357783 0.793770 0.688098
0.476877 0.793195 0.688098
0.595306 0.792707 0.684063
0.708399 0.792356 0.684063
0.812475 0.792157 0.680026
0.904743 0.792095 0.680026
0.072079 0.884290 0.688098
0.152801 0.883675 0.688098
0.255364 0.882924 0.688098
0.370035 0.882162 0.684063
0.489506 0.881497 0.684063
0.607975 0.881003 0.680026
0.720838 0.880710 0.675989
0.824507 0.880610 0.675989
0.916285 0.880664 0.675989
0.062486 0.063846 0.756072
0.135593 0.064896 0.763936
0.229095 0.066063 0.767854
0.334793 0.067108 0.775656
0.446571 0.067866 0.783414
0.559376 0.068261 0.787275
0.668850 0.068295 0.794958
0.771214 0.068038 0.798779
0.863290 0.067591 0.798779
0.064454 0.139899 0.775656
0.138146 0.140795 0.779541
0.232627 0.141738 0.783414
0.339641 0.142510 0.791123
0.452931 0.142982 0.794958
0.567256 0.143114 0.798779
0.678084 0.142944 0.802587
0.781514 0.142557 0.802587
0.874315 0.142058 0.806380
0.065378 0.237352 0.791123
0.140092 0.238081 0.794958
0.236010 0.238793 0.798779
0.344705 0.239309 0.802587
0.459683 0.239546 0.802587
0.575463 0.239510 0.806380
0.687326 0.239269 0.806380
0.791278 0.238921 0.806380
0.884102 0.238560 0.806380
0.064211 0.348010 0.802587
0.140243 0.348548 0.806380
0.237778 0.349030 0.806380
0.348080 0.349330 0.806380
0.464343 0.349424 0.806380
0.580826 0.349364 0.806380
0.692657 0.349245 0.806380
0.795828 0.349164 0.806380
0.887374 0.349158 0.806380
0.061564 0.465089 0.806380
0.138914 0.465379 0.806380
0.237827 0.465593 0.806380
0.349139 0.465683 0.806380
0.465693 0.465693 0.806380
0.581813 0.465693 0.806380
0.693064 0.465693 0.806380
0.795856 0.465693 0.806380
0.887375 0.465693 0.806380
0.060000 0.581813 0.806380
0.138233 0.581813 0.806380
0.237705 0.581813 0.806380
0.349158 0.581813 0.806380
0.465693 0.581813 0.806380
0.581984 0.581784 0.806380
0.693735 0.581709 0.802587
0.797107 0.581646 0.802587
0.889118 0.581624 0.802587
0.060000 0.693064 0.806380
0.138256 0.693058 0.806380
0.238201 0.692953 0.806380
0.350728 0.692721 0.802587
0.468752 0.692416 0.802587
0.586491 0.692111 0.798779
0.699228 0.691867 0.798779
0.803200 0.691718 0.794958
0.895528 0.691667 0.794958
0.063281 0.795066 0.802587
0.143130 0.794687 0.802587
0.244858 0.794171 0.798779
0.358926 0.793592 0.798779
0.478099 0.793038 0.794958
0.596568 0.792583 0.794958
0.709667 0.792274 0.791123
0.813725 0.792120 0.787275
0.905961 0.792101 0.787275
0.073573 0.884014 0.798779
0.154372 0.883406 0.794958
0.257000 0.882674 0.794958
0.371704 0.881947 0.791123
0.491166 0.881329 0.791123
0.609592 0.880891 0.787275
0.722386 0.880657 0.783414
0.825971 0.880615 0.783414
0.917660 0.880720 0.779541
0.062763 0.064275 0.846901
0.135926 0.065282 0.850460
0.229533 0.066384 0.857523
0.335382 0.067345 0.864516
0.447342 0.068008 0.871446
0.560339 0.068304 0.874889
0.669993 0.068246 0.881734
0.772510 0.067908 0.885138
0.864700 0.067396 0.888530
0.064620 0.140270 0.861028
0.138396 0.141115 0.867989
0.233004 0.141984 0.871446
0.340178 0.142669 0.878318
0.453638 0.143050 0.881734
0.568124 0.143095 0.885138
0.679083 0.142849 0.888530
0.782604 0.142402 0.891911
0.875452 0.141861 0.891911
0.065365 0.237659 0.878318
0.140184 0.238329 0.881734
0.236240 0.238967 0.885138
0.345083 0.239401 0.888530
0.460196 0.239561 0.891911
0.576077 0.239461 0.891911
0.687989 0.239174 0.895283
0.791935 0.238801 0.895283
0.884703 0.238435 0.895283
0.064031 0.348241 0.891911
0.140173 0.348722 0.891911
0.237834 0.349138 0.891911
0.348246 0.349375 0.895283
0.464575 0.349419 0.895283
0.581062 0.349333 0.895283
0.692824 0.349213 0.891911
0.795856 0.349158 0.891911
0.887374 0.349158 0.891911
0.061357 0.465219 0.895283
0.138801 0.465463 0.895283
0.237799 0.465631 0.895283
0.349151 0.465690 0.891911
0.465693 0.465693 0.891911
0.581813 0.465693 0.891911
0.693064 0.465693 0.891911
0.795856 0.465693 0.891911
0.887386 0.465694 0.891911
0.060000 0.581813 0.891911
0.138233 0.581813 0.891911
0.237705 0.581813 0.891911
0.349158 0.581813 0.891911
0.465695 0.581813 0.891911
0.582117 0.581765 0.891911
0.693967 0.581687 0.891911
0.797403 0.581633 0.891911
0.889451 0.581629 0.888530
0.060000 0.693064 0.891911
0.138346 0.693039 0.891911
0.238480 0.692897 0.891911
0.351176 0.692643 0.891911
0.469333 0.692332 0.891911
0.587166 0.692037 0.888530
0.699960 0.691813 0.885138
0.803962 0.691691 0.885138
0.896300 0.691670 0.881734
0.064011 0.794920 0.891911
0.143982 0.794529 0.888530
0.245833 0.794007 0.888530
0.359999 0.793437 0.885138
0.479236 0.792905 0.885138
0.597733 0.792483 0.881734
0.710831 0.792214 0.878318
0.814868 0.792101 0.874889
0.907071 0.792120 0.874889
0.074968 0.883770 0.885138
0.155829 0.883171 0.885138
0.258506 0.882460 0.881734
0.373229 0.881767 0.878318
0.492676 0.881194 0.878318
0.611054 0.880806 0.874889
0.723778 0.880627 0.871446
0.827280 0.880635 0.867989
0.918884 0.880786 0.867989
