v2/tools/blender-substrate/grade/luts/substrate-act1.cube
TITLE "Substrate Act 1 — Statement"
# GRADE.md steps 1-7 (point-wise). Halation/grain/vignette excluded.
LUT_3D_SIZE 5
DOMAIN_MIN 0.0 0.0 0.0
DOMAIN_MAX 1.0 1.0 1.0
0.070000 0.070001 0.097900
0.222786 0.075368 0.108878
0.419741 0.081021 0.119919
0.625703 0.085808 0.127308
0.814232 0.089384 0.131010
0.084157 0.242814 0.127308
0.245243 0.249626 0.134716
0.450015 0.256059 0.134716
0.662077 0.261404 0.134716
0.852865 0.265867 0.131010
0.093187 0.467994 0.131010
0.264847 0.474392 0.131010
0.476464 0.480101 0.127308
0.688696 0.485197 0.127308
0.874137 0.490206 0.131010
0.101532 0.695290 0.131010
0.280584 0.699932 0.134716
0.494382 0.704364 0.138425
0.707088 0.708345 0.142137
0.891392 0.712359 0.145852
0.119388 0.887894 0.142137
0.307981 0.890015 0.145852
0.527823 0.891924 0.149569
0.741299 0.894254 0.153287
0.922710 0.897233 0.160727
0.071523 0.071864 0.252412
0.225029 0.077192 0.266555
0.422734 0.082644 0.277010
0.629433 0.087123 0.287321
0.818447 0.090398 0.294117
0.085392 0.245235 0.290726
0.247445 0.251840 0.294117
0.453006 0.257965 0.300856
0.665466 0.263018 0.300856
0.856093 0.267302 0.300856
0.093880 0.470300 0.300856
0.266472 0.476424 0.300856
0.478389 0.481895 0.300856
0.690310 0.486929 0.304206
0.875457 0.491938 0.310867
0.102696 0.696897 0.307542
0.282209 0.701533 0.310867
0.496767 0.705795 0.314179
0.709785 0.709722 0.320771
0.893976 0.713783 0.324050
0.122807 0.888647 0.320771
0.312299 0.890728 0.324050
0.532436 0.892719 0.327320
0.745696 0.895218 0.330580
0.926584 0.898384 0.337073
0.073198 0.073959 0.429406
0.227509 0.079170 0.442230
0.426113 0.084315 0.455166
0.633694 0.088385 0.464960
0.823269 0.091288 0.474846
0.086603 0.247765 0.468244
0.249729 0.254085 0.474846
0.456171 0.259826 0.481494
0.669033 0.264550 0.484836
0.859390 0.268665 0.488192
0.094494 0.472588 0.484836
0.268070 0.478404 0.488192
0.480224 0.483651 0.491561
0.691922 0.488661 0.494944
0.876774 0.493669 0.498341
0.103866 0.698501 0.498341
0.284047 0.703078 0.501754
0.499558 0.707163 0.505181
0.712907 0.711079 0.508625
0.896974 0.715228 0.512084
0.126955 0.889292 0.508625
0.317316 0.891380 0.512084
0.537665 0.893508 0.515561
0.750596 0.896227 0.515561
0.930848 0.899616 0.519054
0.074866 0.076037 0.624207
0.230031 0.081071 0.640091
0.429562 0.085860 0.660095
0.637993 0.089503 0.676173
0.828048 0.092044 0.684226
0.087723 0.250185 0.676173
0.251940 0.256199 0.688253
0.459227 0.261564 0.696307
0.672393 0.265999 0.700333
0.862346 0.270007 0.704358
0.095126 0.474738 0.704358
0.269646 0.480283 0.708380
0.481963 0.485384 0.712399
0.693532 0.490393 0.716416
0.878107 0.495400 0.720428
0.105041 0.700104 0.716416
0.286267 0.704543 0.724436
0.502654 0.708515 0.724436
0.716264 0.712467 0.724436
0.900155 0.716726 0.728439
0.131422 0.889942 0.728439
0.322533 0.892079 0.728439
0.542973 0.894376 0.728439
0.755473 0.897329 0.728439
0.935013 0.900937 0.732437
0.076424 0.077939 0.821568
0.232447 0.082778 0.836233
0.432834 0.087223 0.853998
0.641977 0.090486 0.867781
0.832352 0.092728 0.877903
0.088755 0.252398 0.867781
0.254006 0.258135 0.877903
0.462028 0.263186 0.884561
0.675366 0.267410 0.891156
0.864815 0.271386 0.894431
0.095847 0.476735 0.891156
0.271223 0.482081 0.894431
0.483695 0.487116 0.897693
0.695140 0.492125 0.900942
0.879517 0.497135 0.904180
0.106263 0.701696 0.900942
0.288733 0.705975 0.904180
0.505835 0.709894 0.904180
0.719598 0.713907 0.904180
0.903250 0.718278 0.900942
0.135743 0.890679 0.904180
0.327466 0.892888 0.904180
0.547894 0.895352 0.900942
0.759910 0.898514 0.900942
0.938722 0.902307 0.900942
