v2/tools/blender-substrate/grade/luts/substrate-act5.cube
TITLE "Substrate Act 5 — Contact"
# GRADE.md steps 1-7 (point-wise). Halation/grain/vignette excluded.
LUT_3D_SIZE 5
DOMAIN_MIN 0.0 0.0 0.0
DOMAIN_MAX 1.0 1.0 1.0
0.050000 0.050001 0.069000
0.225821 0.052959 0.075706
0.454508 0.056114 0.085765
0.686153 0.057990 0.089118
0.883866 0.058403 0.089118
0.054996 0.231361 0.089118
0.234345 0.233929 0.089118
0.470043 0.236052 0.089118
0.709013 0.236804 0.085765
0.911300 0.236576 0.079059
0.053051 0.470872 0.082412
0.238796 0.472319 0.075706
0.480699 0.473060 0.069000
0.720719 0.473129 0.069000
0.920221 0.473129 0.069000
0.050000 0.710058 0.069000
0.238625 0.710058 0.069000
0.481812 0.709791 0.069000
0.723773 0.709079 0.069000
0.924843 0.708534 0.069000
0.057049 0.907194 0.069000
0.250818 0.905591 0.069000
0.499292 0.903639 0.072353
0.743237 0.902243 0.072353
0.944117 0.901699 0.075706
0.050636 0.050984 0.219882
0.226665 0.053850 0.229941
0.456020 0.056728 0.236647
0.688539 0.058231 0.243350
0.886960 0.058318 0.246693
0.055203 0.232275 0.243350
0.235023 0.234597 0.246693
0.471379 0.236368 0.246693
0.710827 0.236804 0.243350
0.913201 0.236396 0.236647
0.052617 0.471440 0.240000
0.238798 0.472609 0.236647
0.480866 0.473109 0.233294
0.720719 0.473129 0.229941
0.920221 0.473129 0.229941
0.050000 0.710058 0.229941
0.238630 0.710057 0.229941
0.482460 0.709628 0.229941
0.724794 0.708892 0.229941
0.925984 0.708416 0.229941
0.059159 0.906684 0.229941
0.253300 0.905068 0.229941
0.501940 0.903217 0.229941
0.745779 0.902010 0.229941
0.946429 0.901660 0.229941
0.051439 0.052227 0.414904
0.227791 0.054914 0.421652
0.458027 0.057387 0.431829
0.691634 0.058392 0.442082
0.890895 0.058066 0.445517
0.055374 0.233343 0.438656
0.235818 0.235329 0.442082
0.472995 0.236646 0.445517
0.712974 0.236708 0.445517
0.915348 0.236119 0.442082
0.052053 0.472031 0.442082
0.238767 0.472873 0.442082
0.480958 0.473129 0.438656
0.720719 0.473129 0.438656
0.920221 0.473129 0.438656
0.050000 0.710058 0.438656
0.238884 0.709991 0.438656
0.483578 0.709391 0.438656
0.726347 0.708674 0.435238
0.927661 0.708314 0.435238
0.062253 0.906007 0.435238
0.256794 0.904417 0.435238
0.505548 0.902735 0.431829
0.749164 0.901795 0.431829
0.949451 0.901701 0.428429
0.052208 0.053416 0.632385
0.228939 0.055865 0.644265
0.460073 0.057888 0.656150
0.694724 0.058386 0.668028
0.894740 0.057665 0.671983
0.055435 0.234277 0.664070
0.236522 0.235912 0.671983
0.474482 0.236789 0.675936
0.714894 0.236521 0.675936
0.917136 0.235816 0.675936
0.051506 0.472475 0.675936
0.238714 0.473031 0.675936
0.480961 0.473129 0.675936
0.720719 0.473129 0.675936
0.920239 0.473130 0.675936
0.050000 0.710058 0.675936
0.239532 0.709844 0.671983
0.485024 0.709142 0.671983
0.728173 0.708492 0.668028
0.929570 0.708276 0.664070
0.065757 0.905326 0.668028
0.260602 0.903805 0.664070
0.509356 0.902332 0.660111
0.752644 0.901679 0.656150
0.952488 0.901846 0.652189
0.052820 0.054363 0.822996
0.229916 0.056571 0.833327
0.461824 0.058185 0.846893
0.697321 0.058251 0.856935
0.897906 0.057216 0.863577
0.055403 0.234960 0.856935
0.237044 0.236291 0.863577
0.475637 0.236810 0.866885
0.716332 0.236309 0.870184
0.918354 0.235562 0.870184
0.051071 0.472748 0.870184
0.238666 0.473100 0.870184
0.480961 0.473129 0.870184
0.720719 0.473129 0.870184
0.920321 0.473140 0.870184
0.050093 0.710037 0.870184
0.240401 0.709674 0.870184
0.486517 0.708934 0.866885
0.729939 0.708375 0.860261
0.931372 0.708300 0.856935
0.069042 0.904758 0.860261
0.264065 0.903327 0.856935
0.512724 0.902058 0.850252
0.755645 0.901662 0.846893
0.955046 0.902050 0.843522
