v2/tools/blender-substrate/grade/luts/substrate-act0.cube
TITLE "Substrate Act 0 — Hero"
# GRADE.md steps 1-7 (point-wise). Halation/grain/vignette excluded.
LUT_3D_SIZE 5
DOMAIN_MIN 0.0 0.0 0.0
DOMAIN_MAX 1.0 1.0 1.0
0.060000 0.060001 0.074100
0.227904 0.062831 0.081298
0.447888 0.065909 0.092128
0.670150 0.067807 0.095745
0.861280 0.068322 0.095745
0.064870 0.234131 0.095745
0.235975 0.236610 0.095745
0.462455 0.238735 0.095745
0.691664 0.239564 0.092128
0.887407 0.239417 0.084904
0.063264 0.465744 0.088514
0.240367 0.467214 0.081298
0.473032 0.468045 0.077697
0.703924 0.468159 0.074100
0.897282 0.468159 0.074100
0.060000 0.696715 0.074100
0.240153 0.696715 0.074100
0.473805 0.696605 0.074100
0.705997 0.696051 0.074100
0.900813 0.695551 0.074100
0.064923 0.888307 0.074100
0.249516 0.886925 0.074100
0.488510 0.885121 0.077697
0.723197 0.883730 0.077697
0.918303 0.883081 0.077697
0.060615 0.060952 0.232913
0.228708 0.063699 0.243462
0.449308 0.066522 0.250450
0.672385 0.068073 0.257400
0.864197 0.068277 0.260859
0.065090 0.235020 0.257400
0.236629 0.237273 0.257400
0.463735 0.239066 0.260859
0.693427 0.239590 0.257400
0.889311 0.239257 0.253930
0.062851 0.466320 0.253930
0.240375 0.467527 0.250450
0.473247 0.468115 0.246961
0.703924 0.468159 0.243462
0.897282 0.468159 0.243462
0.060000 0.696715 0.243462
0.240153 0.696715 0.243462
0.474235 0.696491 0.243462
0.706821 0.695886 0.243462
0.901784 0.695433 0.243462
0.066669 0.887871 0.243462
0.251671 0.886451 0.243462
0.490900 0.884711 0.243462
0.725564 0.883474 0.243462
0.920510 0.882996 0.243462
0.061399 0.062164 0.426391
0.229787 0.064747 0.433110
0.451208 0.067192 0.443263
0.675313 0.068276 0.453514
0.867945 0.068082 0.456955
0.065283 0.236070 0.450085
0.237404 0.238010 0.453514
0.465301 0.239372 0.456955
0.695547 0.239526 0.456955
0.891513 0.238995 0.453514
0.062302 0.466932 0.453514
0.240347 0.467823 0.453514
0.473411 0.468153 0.450085
0.703924 0.468159 0.450085
0.897282 0.468159 0.450085
0.060000 0.696715 0.450085
0.240175 0.696710 0.450085
0.475061 0.696306 0.450085
0.708119 0.695684 0.446668
0.903245 0.695320 0.446668
0.069309 0.887274 0.446668
0.254771 0.885845 0.446668
0.494219 0.884229 0.443263
0.728774 0.883215 0.443263
0.923453 0.882968 0.439868
0.062146 0.063320 0.646686
0.230881 0.065683 0.655114
0.453137 0.067711 0.671997
0.678227 0.068317 0.680440
0.871600 0.067742 0.688878
0.065372 0.236989 0.680440
0.238089 0.238603 0.688878
0.466742 0.239542 0.693093
0.697454 0.239368 0.693093
0.893385 0.238696 0.693093
0.061759 0.467398 0.693093
0.240291 0.468011 0.693093
0.473454 0.468159 0.688878
0.703924 0.468159 0.688878
0.897282 0.468159 0.688878
0.060000 0.696715 0.688878
0.240488 0.696636 0.688878
0.476193 0.696099 0.688878
0.709673 0.695509 0.684660
0.904926 0.695261 0.680440
0.072347 0.886661 0.684660
0.258181 0.885267 0.680440
0.497744 0.883813 0.676219
0.732099 0.883047 0.671997
0.926441 0.883037 0.667775
0.062742 0.064243 0.844252
0.231812 0.066384 0.854734
0.454789 0.068030 0.868298
0.680682 0.068228 0.878202
0.874621 0.067346 0.884693
0.065366 0.237665 0.874924
0.238600 0.238995 0.881458
0.467869 0.239590 0.887909
0.698903 0.239174 0.891107
0.894709 0.238433 0.891107
0.061318 0.467692 0.891107
0.240236 0.468102 0.891107
0.473454 0.468159 0.891107
0.703924 0.468159 0.891107
0.897304 0.468161 0.891107
0.060000 0.696715 0.891107
0.241054 0.696521 0.887909
0.477407 0.695917 0.887909
0.711203 0.695389 0.881458
0.906533 0.695261 0.878202
0.075237 0.886141 0.881458
0.261318 0.884806 0.878202
0.500896 0.883518 0.874924
0.735004 0.882976 0.868298
0.928999 0.883170 0.864948
