v2/tools/blender-substrate/grade/luts/substrate-act4.cube
TITLE "Substrate Act 4 — About"
# GRADE.md steps 1-7 (point-wise). Halation/grain/vignette excluded.
LUT_3D_SIZE 33
DOMAIN_MIN 0.0 0.0 0.0
DOMAIN_MAX 1.0 1.0 1.0
0.065000 0.065001 0.083700
0.078901 0.065240 0.083700
0.094765 0.065514 0.083700
0.112345 0.065817 0.087072
0.131443 0.066144 0.087072
0.151886 0.066492 0.087072
0.173522 0.066856 0.087072
0.196213 0.067234 0.090442
0.219834 0.067620 0.090442
0.244266 0.068012 0.090442
0.269401 0.068405 0.093810
0.295138 0.068797 0.093810
0.321379 0.069185 0.093810
0.348033 0.069564 0.097176
0.375014 0.069933 0.097176
0.402239 0.070288 0.097176
0.429629 0.070628 0.097176
0.457107 0.070950 0.100540
0.484600 0.071253 0.100540
0.512037 0.071535 0.100540
0.539350 0.071796 0.100540
0.566471 0.072035 0.100540
0.593337 0.072251 0.103902
0.619885 0.072445 0.103902
0.646056 0.072616 0.103902
0.671791 0.072764 0.103902
0.697034 0.072892 0.103902
0.721731 0.072999 0.103902
0.745831 0.073086 0.103902
0.769284 0.073155 0.103902
0.792043 0.073207 0.103902
0.814064 0.073244 0.103902
0.835304 0.073267 0.103902
0.065522 0.079554 0.087072
0.079425 0.079794 0.087072
0.095295 0.080068 0.087072
0.112884 0.080369 0.087072
0.131995 0.080694 0.087072
0.152456 0.081039 0.090442
0.174116 0.081399 0.090442
0.196837 0.081771 0.090442
0.220493 0.082151 0.093810
0.244966 0.082535 0.093810
0.270149 0.082920 0.093810
0.295938 0.083303 0.093810
0.322237 0.083680 0.097176
0.348955 0.084048 0.097176
0.376005 0.084404 0.097176
0.403302 0.084746 0.100540
0.430768 0.085072 0.100540
0.458326 0.085380 0.100540
0.485900 0.085669 0.100540
0.513421 0.085936 0.100540
0.540818 0.086182 0.103902
0.568025 0.086406 0.103902
0.594976 0.086607 0.103902
0.621610 0.086785 0.103902
0.647865 0.086942 0.103902
0.673682 0.087076 0.103902
0.699006 0.087190 0.103902
0.723782 0.087283 0.103902
0.747957 0.087358 0.103902
0.771483 0.087415 0.103902
0.794311 0.087455 0.103902
0.816398 0.087481 0.103902
0.837700 0.087493 0.103902
0.066109 0.096169 0.087072
0.080019 0.096409 0.090442
0.095898 0.096681 0.090442
0.113502 0.096981 0.090442
0.132632 0.097303 0.090442
0.153118 0.097644 0.090442
0.174808 0.098000 0.093810
0.197567 0.098366 0.093810
0.221266 0.098739 0.093810
0.245790 0.099115 0.093810
0.271029 0.099491 0.097176
0.296881 0.099863 0.097176
0.323249 0.100228 0.097176
0.350041 0.100584 0.100540
0.377170 0.100927 0.100540
0.404551 0.101255 0.100540
0.432104 0.101566 0.100540
0.459752 0.101859 0.100540
0.487419 0.102131 0.103902
0.515034 0.102383 0.103902
0.542526 0.102612 0.103902
0.569829 0.102820 0.103902
0.596875 0.103005 0.103902
0.623603 0.103167 0.103902
0.649951 0.103308 0.103902
0.675859 0.103427 0.103902
0.701271 0.103526 0.103902
0.726132 0.103606 0.103902
0.750389 0.103667 0.103902
0.773993 0.103711 0.103902
0.796896 0.103740 0.103902
0.819053 0.103755 0.103902
0.840421 0.103757 0.103902
0.066742 0.114591 0.090442
0.080662 0.114830 0.090442
0.096556 0.115101 0.090442
0.114180 0.115399 0.093810
0.133335 0.115719 0.093810
0.153854 0.116056 0.093810
0.175583 0.116406 0.093810
0.198387 0.116766 0.097176
0.222138 0.117132 0.097176
0.246722 0.117499 0.097176
0.272027 0.117865 0.097176
0.297951 0.118226 0.100540
0.324398 0.118578 0.100540
0.351273 0.118920 0.100540
0.378491 0.119249 0.100540
0.405965 0.119562 0.100540
0.433614 0.119858 0.103902
0.461361 0.120134 0.103902
0.489130 0.120390 0.103902
0.516847 0.120625 0.103902
0.544443 0.120838 0.103902
0.571848 0.121028 0.103902
0.598997 0.121197 0.103902
0.625826 0.121343 0.103902
0.652272 0.121468 0.103902
0.678276 0.121572 0.103902
0.703780 0.121656 0.103902
0.728730 0.121722 0.103902
0.753072 0.121769 0.103902
0.776757 0.121801 0.103902
0.799736 0.121818 0.103902
0.821964 0.121822 0.103902
0.843400 0.121814 0.103902
0.067396 0.134620 0.093810
0.081331 0.134859 0.093810
0.097247 0.135129 0.093810
0.114897 0.135424 0.093810
0.134086 0.135740 0.097176
0.154643 0.136073 0.097176
0.176419 0.136418 0.097176
0.199277 0.136771 0.097176
0.223090 0.137128 0.097176
0.247741 0.137486 0.100540
0.273121 0.137841 0.100540
0.299127 0.138190 0.100540
0.325660 0.138530 0.100540
0.352629 0.138858 0.100540
0.379943 0.139172 0.103902
0.407518 0.139470 0.103902
0.435272 0.139749 0.103902
0.463125 0.140009 0.103902
0.491002 0.140248 0.103902
0.518829 0.140466 0.103902
0.546533 0.140662 0.103902
0.574046 0.140836 0.103902
0.601302 0.140987 0.103902
0.628234 0.141118 0.103902
0.654782 0.141227 0.103902
0.680884 0.141316 0.103902
0.706482 0.141386 0.103902
0.731522 0.141438 0.103902
0.755949 0.141473 0.103902
0.779714 0.141493 0.103902
0.802768 0.141499 0.103902
0.825067 0.141493 0.103902
0.846566 0.141476 0.103902
0.068045 0.156088 0.097176
0.082001 0.156325 0.097176
0.097944 0.156593 0.097176
0.115628 0.156886 0.097176
0.134857 0.157199 0.097176
0.155463 0.157526 0.100540
0.177294 0.157865 0.100540
0.200214 0.158211 0.100540
0.224097 0.158560 0.100540
0.248824 0.158908 0.100540
0.274288 0.159252 0.100540
0.300383 0.159589 0.103902
0.327012 0.159915 0.103902
0.354080 0.160229 0.103902
0.381499 0.160528 0.103902
0.409181 0.160809 0.103902
0.437046 0.161072 0.103902
0.465011 0.161316 0.103902
0.493001 0.161538 0.103902
0.520940 0.161739 0.103902
0.548756 0.161918 0.103902
0.576380 0.162075 0.103902
0.603743 0.162210 0.103902
0.630781 0.162325 0.103902
0.657430 0.162419 0.103902
0.683629 0.162494 0.103902
0.709320 0.162550 0.103902
0.734447 0.162589 0.103902
0.758957 0.162613 0.103902
0.782798 0.162622 0.103902
0.805923 0.162618 0.103902
0.828287 0.162603 0.103902
0.849846 0.162578 0.103902
0.068660 0.178845 0.097176
0.082645 0.179081 0.097176
0.098622 0.179347 0.100540
0.116347 0.179636 0.100540
0.135625 0.179945 0.100540
0.156286 0.180267 0.100540
0.178180 0.180599 0.100540
0.201171 0.180937 0.100540
0.225131 0.181276 0.103902
0.249944 0.181614 0.103902
0.275498 0.181946 0.103902
0.301690 0.182270 0.103902
0.328421 0.182583 0.103902
0.355596 0.182882 0.103902
0.383124 0.183166 0.103902
0.410920 0.183432 0.103902
0.438898 0.183678 0.103902
0.466979 0.183905 0.103902
0.495084 0.184110 0.103902
0.523138 0.184295 0.103902
0.551067 0.184457 0.103902
0.578801 0.184598 0.103902
0.606271 0.184718 0.103902
0.633412 0.184818 0.103902
0.660159 0.184898 0.103902
0.686452 0.184959 0.103902
0.712231 0.185003 0.103902
0.737441 0.185031 0.103902
0.762027 0.185044 0.103902
0.785938 0.185044 0.103902
0.809127 0.185032 0.100540
0.831549 0.185009 0.100540
0.853160 0.184978 0.100540
0.069215 0.202758 0.100540
0.083234 0.202992 0.100540
0.099252 0.203255 0.100540
0.117026 0.203540 0.100540
0.136359 0.203844 0.103902
0.157084 0.204160 0.103902
0.179050 0.204485 0.103902
0.202119 0.204814 0.103902
0.226164 0.205143 0.103902
0.251069 0.205470 0.103902
0.276721 0.205790 0.103902
0.303016 0.206101 0.103902
0.329854 0.206400 0.103902
0.357141 0.206684 0.103902
0.384783 0.206952 0.103902
0.412694 0.207201 0.103902
0.440789 0.207432 0.103902
0.468987 0.207642 0.103902
0.497207 0.207831 0.103902
0.525375 0.207999 0.103902
0.553415 0.208146 0.103902
0.581256 0.208272 0.103902
0.608830 0.208377 0.103902
0.636069 0.208463 0.103902
0.662909 0.208529 0.103902
0.689289 0.208579 0.103902
0.715149 0.208612 0.100540
0.740433 0.208629 0.100540
0.765087 0.208634 0.100540
0.789059 0.208626 0.100540
0.812302 0.208607 0.100540
0.834771 0.208580 0.100540
0.856423 0.208544 0.100540
0.069683 0.227703 0.103902
0.083742 0.227935 0.103902
0.099808 0.228194 0.103902
0.117637 0.228475 0.103902
0.137034 0.228772 0.103902
0.157830 0.229081 0.103902
0.179874 0.229398 0.103902
0.203029 0.229718 0.103902
0.227166 0.230037 0.103902
0.252169 0.230351 0.103902
0.277925 0.230659 0.103902
0.304328 0.230956 0.103902
0.331277 0.231240 0.103902
0.358678 0.231509 0.103902
0.386436 0.231761 0.103902
0.414464 0.231995 0.103902
0.442676 0.232209 0.103902
0.470989 0.232403 0.103902
0.499324 0.232576 0.103902
0.527602 0.232728 0.103902
0.555749 0.232860 0.103902
0.583692 0.232971 0.103902
0.611363 0.233063 0.103902
0.638693 0.233135 0.100540
0.665617 0.233190 0.100540
0.692075 0.233229 0.100540
0.718005 0.233252 0.100540
0.743352 0.233262 0.100540
0.768062 0.233259 0.100540
0.792083 0.233245 0.097176
0.815368 0.233222 0.097176
0.837870 0.233191 0.097176
0.859550 0.233154 0.097176
0.070040 0.253567 0.103902
0.084144 0.253794 0.103902
0.100265 0.254049 0.103902
0.118156 0.254324 0.103902
0.137624 0.254614 0.103902
0.158498 0.254916 0.103902
0.180627 0.255223 0.103902
0.203873 0.255532 0.103902
0.228108 0.255839 0.103902
0.253214 0.256141 0.103902
0.279077 0.256435 0.103902
0.305591 0.256717 0.103902
0.332655 0.256986 0.103902
0.360171 0.257240 0.103902
0.388046 0.257476 0.103902
0.416190 0.257693 0.103902
0.444517 0.257891 0.103902
0.472942 0.258069 0.103902
0.501385 0.258227 0.103902
0.529768 0.258364 0.103902
0.558015 0.258481 0.100540
0.586052 0.258579 0.100540
0.613811 0.258658 0.100540
0.641221 0.258719 0.100540
0.668219 0.258764 0.100540
0.694742 0.258793 0.097176
0.720730 0.258808 0.097176
0.746127 0.258811 0.097176
0.770878 0.258803 0.097176
0.794933 0.258786 0.097176
0.818243 0.258760 0.097176
0.840764 0.258727 0.093810
0.862455 0.258690 0.093810
0.070267 0.280237 0.103902
0.084422 0.280460 0.103902
0.100603 0.280709 0.103902
0.118563 0.280977 0.103902
0.138107 0.281259 0.103902
0.159064 0.281551 0.103902
0.181284 0.281848 0.103902
0.204626 0.282145 0.103902
0.228964 0.282440 0.103902
0.254176 0.282728 0.103902
0.280150 0.283007 0.103902
0.306777 0.283274 0.103902
0.333955 0.283527 0.103902
0.361586 0.283765 0.103902
0.389575 0.283984 0.103902
0.417832 0.284185 0.103902
0.446269 0.284367 0.103902
0.474801 0.284529 0.100540
0.503346 0.284671 0.100540
0.531826 0.284794 0.100540
0.560163 0.284897 0.100540
0.588284 0.284982 0.100540
0.616117 0.285049 0.097176
0.643596 0.285100 0.097176
0.670653 0.285136 0.097176
0.697227 0.285157 0.097176
0.723257 0.285167 0.097176
0.748686 0.285165 0.093810
0.773462 0.285153 0.093810
0.797532 0.285134 0.093810
0.820851 0.285107 0.093810
0.843372 0.285076 0.093810
0.865056 0.285040 0.090442
0.070350 0.307608 0.103902
0.084561 0.307825 0.103902
0.100807 0.308067 0.103902
0.118841 0.308327 0.103902
0.138466 0.308599 0.103902
0.159512 0.308880 0.103902
0.181826 0.309165 0.103902
0.205269 0.309449 0.103902
0.229712 0.309730 0.103902
0.255032 0.310003 0.103902
0.281117 0.310266 0.103902
0.307856 0.310517 0.103902
0.335147 0.310753 0.103902
0.362891 0.310974 0.103902
0.390991 0.311176 0.100540
0.419355 0.311361 0.100540
0.447896 0.311526 0.100540
0.476526 0.311672 0.100540
0.505164 0.311799 0.100540
0.533729 0.311907 0.097176
0.562144 0.311997 0.097176
0.590335 0.312070 0.097176
0.618230 0.312127 0.097176
0.645761 0.312168 0.093810
0.672861 0.312196 0.093810
0.699467 0.312212 0.093810
0.725521 0.312216 0.093810
0.750964 0.312211 0.093810
0.775744 0.312198 0.090442
0.799811 0.312179 0.090442
0.823116 0.312154 0.090442
0.845617 0.312125 0.090442
0.867273 0.312093 0.090442
0.070281 0.335575 0.103902
0.084553 0.335785 0.103902
0.100868 0.336018 0.103902
0.118980 0.336267 0.103902
0.138691 0.336529 0.103902
0.159829 0.336797 0.103902
0.182241 0.337068 0.103902
0.205786 0.337337 0.103902
0.230335 0.337602 0.103902
0.255764 0.337859 0.103902
0.281959 0.338105 0.100540
0.308809 0.338338 0.100540
0.336209 0.338557 0.100540
0.364060 0.338759 0.100540
0.392264 0.338944 0.100540
0.420729 0.339111 0.100540
0.449363 0.339259 0.097176
0.478082 0.339389 0.097176
0.506800 0.339501 0.097176
0.535438 0.339595 0.097176
0.563917 0.339673 0.093810
0.592162 0.339734 0.093810
0.620101 0.339781 0.093810
0.647665 0.339814 0.093810
0.674789 0.339835 0.090442
0.701408 0.339846 0.090442
0.727465 0.339847 0.090442
0.752901 0.339841 0.090442
0.777663 0.339828 0.090442
0.801703 0.339810 0.087072
0.824973 0.339789 0.087072
0.847430 0.339765 0.087072
0.869035 0.339739 0.087072
0.070063 0.364033 0.103902
0.084398 0.364233 0.103902
0.100786 0.364456 0.103902
0.118979 0.364694 0.103902
0.138777 0.364942 0.103902
0.160010 0.365196 0.103902
0.182521 0.365451 0.103902
0.206169 0.365704 0.100540
0.230823 0.365951 0.100540
0.256360 0.366189 0.100540
0.282662 0.366417 0.100540
0.309618 0.366631 0.100540
0.337123 0.366830 0.097176
0.365074 0.367013 0.097176
0.393374 0.367180 0.097176
0.421928 0.367328 0.097176
0.450646 0.367459 0.097176
0.479440 0.367573 0.093810
0.508225 0.367669 0.093810
0.536919 0.367750 0.093810
0.565444 0.367814 0.093810
0.593725 0.367865 0.090442
0.621689 0.367902 0.090442
0.649267 0.367928 0.090442
0.676392 0.367944 0.090442
0.703003 0.367951 0.087072
0.729038 0.367950 0.087072
0.754443 0.367944 0.087072
0.779164 0.367933 0.087072
0.803152 0.367919 0.087072
0.826362 0.367902 0.087072
0.848750 0.367885 0.083700
0.870280 0.367867 0.083700
0.069702 0.392876 0.103902
0.084103 0.393066 0.103902
0.100566 0.393276 0.100540
0.118842 0.393500 0.100540
0.138730 0.393732 0.100540
0.160057 0.393970 0.100540
0.182668 0.394207 0.100540
0.206418 0.394441 0.100540
0.231176 0.394669 0.100540
0.256816 0.394887 0.097176
0.283220 0.395094 0.097176
0.310277 0.395287 0.097176
0.337878 0.395466 0.097176
0.365921 0.395628 0.093810
0.394306 0.395775 0.093810
0.422938 0.395904 0.093810
0.451725 0.396017 0.093810
0.480579 0.396114 0.090442
0.509413 0.396194 0.090442
0.538147 0.396260 0.090442
0.566699 0.396313 0.090442
0.594995 0.396353 0.090442
0.622962 0.396381 0.087072
0.650531 0.396400 0.087072
0.677634 0.396411 0.087072
0.704210 0.396415 0.087072
0.730200 0.396414 0.087072
0.755548 0.396409 0.083700
0.780201 0.396401 0.083700
0.804111 0.396392 0.083700
0.827234 0.396382 0.083700
0.849527 0.396373 0.083700
0.870955 0.396365 0.083700
0.069215 0.421998 0.100540
0.083684 0.422176 0.100540
0.100223 0.422371 0.100540
0.118583 0.422579 0.100540
0.138561 0.422794 0.100540
0.159982 0.423012 0.097176
0.182690 0.423229 0.097176
0.206539 0.423442 0.097176
0.231396 0.423648 0.097176
0.257135 0.423844 0.097176
0.283635 0.424028 0.093810
0.310784 0.424199 0.093810
0.338472 0.424355 0.093810
0.366595 0.424495 0.093810
0.395052 0.424620 0.090442
0.423748 0.424729 0.090442
0.452589 0.424823 0.090442
0.481486 0.424902 0.090442
0.510351 0.424966 0.087072
0.539103 0.425018 0.087072
0.567662 0.425057 0.087072
0.595950 0.425087 0.087072
0.623897 0.425107 0.087072
0.651431 0.425119 0.087072
0.678487 0.425126 0.083700
0.705003 0.425128 0.083700
0.730919 0.425127 0.083700
0.756182 0.425124 0.083700
0.780739 0.425121 0.083700
0.804544 0.425118 0.083700
0.827551 0.425116 0.083700
0.849731 0.425116 0.083700
0.871068 0.425116 0.083700
0.068627 0.451293 0.097176
0.083164 0.451456 0.097176
0.099779 0.451635 0.097176
0.118222 0.451824 0.097176
0.138288 0.452019 0.097176
0.159802 0.452216 0.097176
0.182603 0.452410 0.093810
0.206548 0.452599 0.093810
0.231498 0.452780 0.093810
0.257328 0.452951 0.093810
0.283916 0.453111 0.093810
0.311147 0.453256 0.090442
0.338910 0.453388 0.090442
0.367100 0.453505 0.090442
0.395616 0.453607 0.090442
0.424359 0.453694 0.087072
0.453236 0.453767 0.087072
0.482156 0.453827 0.087072
0.511032 0.453874 0.087072
0.539781 0.453910 0.087072
0.568322 0.453937 0.083700
0.596579 0.453955 0.083700
0.624479 0.453967 0.083700
0.651952 0.453973 0.083700
0.678933 0.453976 0.083700
0.705361 0.453976 0.083700
0.731176 0.453976 0.083700
0.756336 0.453976 0.083700
0.780815 0.453976 0.083700
0.804567 0.453976 0.083700
0.827552 0.453976 0.083700
0.849731 0.453976 0.083700
0.871068 0.453976 0.083700
0.067970 0.480651 0.097176
0.082573 0.480798 0.093810
0.099264 0.480958 0.093810
0.117788 0.481126 0.093810
0.137940 0.481298 0.093810
0.159542 0.481470 0.093810
0.182433 0.481639 0.093810
0.206465 0.481802 0.090442
0.231503 0.481956 0.090442
0.257415 0.482100 0.090442
0.284080 0.482231 0.090442
0.311381 0.482350 0.087072
0.339206 0.482455 0.087072
0.367449 0.482545 0.087072
0.396006 0.482622 0.087072
0.424778 0.482686 0.087072
0.453672 0.482737 0.087072
0.482594 0.482777 0.083700
0.511458 0.482806 0.083700
0.540180 0.482826 0.083700
0.568679 0.482839 0.083700
0.596878 0.482845 0.083700
0.624705 0.482848 0.083700
0.652093 0.482848 0.083700
0.679003 0.482848 0.083700
0.705382 0.482848 0.083700
0.731177 0.482848 0.083700
0.756336 0.482848 0.083700
0.780815 0.482848 0.083700
0.804567 0.482848 0.083700
0.827552 0.482848 0.083700
0.849731 0.482848 0.083700
0.871068 0.482848 0.083700
0.067281 0.509965 0.093810
0.081950 0.510093 0.093810
0.098714 0.510231 0.090442
0.117316 0.510376 0.090442
0.137549 0.510522 0.090442
0.159234 0.510668 0.090442
0.182208 0.510808 0.090442
0.206322 0.510941 0.090442
0.231436 0.511066 0.087072
0.257421 0.511179 0.087072
0.284151 0.511280 0.087072
0.311509 0.511369 0.087072
0.339381 0.511444 0.087072
0.367659 0.511507 0.083700
0.396240 0.511557 0.083700
0.425022 0.511595 0.083700
0.453911 0.511622 0.083700
0.482814 0.511640 0.083700
0.511642 0.511650 0.083700
0.540312 0.511653 0.083700
0.568753 0.511653 0.083700
0.596907 0.511653 0.083700
0.624708 0.511653 0.083700
0.652093 0.511653 0.083700
0.679003 0.511653 0.083700
0.705382 0.511653 0.083700
0.731177 0.511653 0.083700
0.756336 0.511653 0.083700
0.780815 0.511653 0.083700
0.804567 0.511653 0.083700
0.827552 0.511653 0.083700
0.849731 0.511653 0.083700
0.871068 0.511653 0.083700
0.066604 0.539125 0.090442
0.081336 0.539232 0.090442
0.098170 0.539346 0.090442
0.116846 0.539464 0.090442
0.137155 0.539582 0.087072
0.158917 0.539697 0.087072
0.181966 0.539806 0.087072
0.206151 0.539907 0.087072
0.231333 0.539999 0.087072
0.257378 0.540079 0.087072
0.284160 0.540147 0.083700
0.311559 0.540203 0.083700
0.339462 0.540247 0.083700
0.367758 0.540279 0.083700
0.396342 0.540299 0.083700
0.425114 0.540310 0.083700
0.453976 0.540312 0.083700
0.482848 0.540312 0.083700
0.511653 0.540312 0.083700
0.540312 0.540312 0.083700
0.568753 0.540312 0.083700
0.596907 0.540312 0.083700
0.624708 0.540312 0.083700
0.652093 0.540312 0.083700
0.679003 0.540312 0.083700
0.705382 0.540312 0.083700
0.731177 0.540312 0.083700
0.756336 0.540312 0.083700
0.780815 0.540312 0.083700
0.804567 0.540312 0.083700
0.827552 0.540312 0.083700
0.849731 0.540312 0.083700
0.871068 0.540312 0.083700
0.065987 0.568023 0.087072
0.080779 0.568106 0.087072
0.097677 0.568194 0.087072
0.116422 0.568283 0.087072
0.136801 0.568370 0.087072
0.158631 0.568451 0.087072
0.181747 0.568526 0.083700
0.205994 0.568591 0.083700
0.231231 0.568647 0.083700
0.257322 0.568690 0.083700
0.284141 0.568723 0.083700
0.311567 0.568743 0.083700
0.339482 0.568752 0.083700
0.367778 0.568753 0.083700
0.396354 0.568753 0.083700
0.425116 0.568753 0.083700
0.453976 0.568753 0.083700
0.482848 0.568753 0.083700
0.511653 0.568753 0.083700
0.540312 0.568753 0.083700
0.568753 0.568753 0.083700
0.596907 0.568753 0.083700
0.624708 0.568753 0.083700
0.652093 0.568753 0.083700
0.679003 0.568753 0.083700
0.705382 0.568753 0.083700
0.731177 0.568753 0.083700
0.756336 0.568753 0.083700
0.780815 0.568753 0.083700
0.804569 0.568752 0.083700
0.827565 0.568749 0.083700
0.849762 0.568742 0.083700
0.871122 0.568734 0.083700
0.065480 0.596552 0.087072
0.080327 0.596609 0.083700
0.097285 0.596668 0.083700
0.116092 0.596725 0.083700
0.136533 0.596777 0.083700
0.158423 0.596823 0.083700
0.181595 0.596860 0.083700
0.205892 0.596887 0.083700
0.231171 0.596903 0.083700
0.257296 0.596907 0.083700
0.284134 0.596907 0.083700
0.311566 0.596907 0.083700
0.339483 0.596907 0.083700
0.367778 0.596907 0.083700
0.396354 0.596907 0.083700
0.425116 0.596907 0.083700
0.453976 0.596907 0.083700
0.482848 0.596907 0.083700
0.511653 0.596907 0.083700
0.540312 0.596907 0.083700
0.568753 0.596907 0.083700
0.596907 0.596907 0.083700
0.624708 0.596907 0.083700
0.652093 0.596907 0.083700
0.679003 0.596907 0.083700
0.705384 0.596907 0.083700
0.731194 0.596902 0.083700
0.756383 0.596892 0.083700
0.780900 0.596879 0.083700
0.804698 0.596863 0.083700
0.827734 0.596846 0.083700
0.849965 0.596828 0.083700
0.871355 0.596810 0.083700
0.065134 0.624609 0.083700
0.080031 0.624638 0.083700
0.097044 0.624665 0.083700
0.115905 0.624687 0.083700
0.136400 0.624702 0.083700
0.158340 0.624708 0.083700
0.181553 0.624708 0.083700
0.205876 0.624708 0.083700
0.231168 0.624708 0.083700
0.257296 0.624708 0.083700
0.284134 0.624708 0.083700
0.311566 0.624708 0.083700
0.339483 0.624708 0.083700
0.367778 0.624708 0.083700
0.396354 0.624708 0.083700
0.425116 0.624708 0.083700
0.453976 0.624708 0.083700
0.482848 0.624708 0.083700
0.511653 0.624708 0.083700
0.540312 0.624708 0.083700
0.568753 0.624708 0.083700
0.596907 0.624708 0.083700
0.624718 0.624705 0.083700
0.652135 0.624695 0.083700
0.679096 0.624678 0.083700
0.705540 0.624657 0.083700
0.731410 0.624632 0.083700
0.756653 0.624605 0.083700
0.781218 0.624576 0.083700
0.805059 0.624546 0.083700
0.828131 0.624516 0.083700
0.850395 0.624487 0.083700
0.871813 0.624458 0.083700
0.065000 0.652093 0.083700
0.079940 0.652093 0.083700
0.096990 0.652093 0.083700
0.115880 0.652093 0.083700
0.136393 0.652093 0.083700
0.158340 0.652093 0.083700
0.181553 0.652093 0.083700
0.205876 0.652093 0.083700
0.231168 0.652093 0.083700
0.257296 0.652093 0.083700
0.284134 0.652093 0.083700
0.311566 0.652093 0.083700
0.339483 0.652093 0.083700
0.367778 0.652093 0.083700
0.396354 0.652093 0.083700
0.425116 0.652093 0.083700
0.453976 0.652093 0.083700
0.482848 0.652093 0.083700
0.511653 0.652093 0.083700
0.540331 0.652087 0.083700
0.568822 0.652072 0.083700
0.597049 0.652048 0.083700
0.624944 0.652018 0.083700
0.652438 0.651983 0.083700
0.679468 0.651944 0.083700
0.705975 0.651902 0.083700
0.731901 0.651859 0.083700
0.757194 0.651815 0.083700
0.781804 0.651771 0.083700
0.805684 0.651727 0.083700
0.828790 0.651686 0.083700
0.851084 0.651646 0.083700
0.872529 0.651608 0.083700
0.065000 0.679003 0.083700
0.079940 0.679003 0.083700
0.096990 0.679003 0.083700
0.115880 0.679003 0.083700
0.136393 0.679003 0.083700
0.158340 0.679003 0.083700
0.181553 0.679003 0.083700
0.205876 0.679003 0.083700
0.231168 0.679003 0.083700
0.257296 0.679003 0.083700
0.284134 0.679003 0.083700
0.311566 0.679003 0.083700
0.339483 0.679003 0.083700
0.367778 0.679003 0.083700
0.396354 0.679003 0.083700
0.425117 0.679003 0.083700
0.454006 0.678994 0.083700
0.482942 0.678974 0.083700
0.511840 0.678944 0.083700
0.540620 0.678906 0.083700
0.569203 0.678861 0.083700
0.597516 0.678810 0.083700
0.625488 0.678755 0.083700
0.653053 0.678697 0.083700
0.680147 0.678637 0.083700
0.706711 0.678576 0.083700
0.732688 0.678516 0.083700
0.758026 0.678457 0.083700
0.782676 0.678399 0.083700
0.806591 0.678344 0.083700
0.829729 0.678291 0.083700
0.852050 0.678242 0.083700
0.873517 0.678196 0.083700
0.065000 0.705382 0.083700
0.079940 0.705382 0.083700
0.096990 0.705382 0.083700
0.115880 0.705382 0.083700
0.136393 0.705382 0.083700
0.158340 0.705382 0.083700
0.181553 0.705382 0.083700
0.205876 0.705382 0.083700
0.231168 0.705382 0.083700
0.257296 0.705382 0.083700
0.284134 0.705382 0.083700
0.311566 0.705382 0.083700
0.339485 0.705381 0.083700
0.367817 0.705370 0.083700
0.396468 0.705346 0.083700
0.425342 0.705311 0.083700
0.454346 0.705266 0.083700
0.483389 0.705212 0.083700
0.512388 0.705151 0.083700
0.541260 0.705083 0.083700
0.569928 0.705011 0.083700
0.598318 0.704935 0.083700
0.626360 0.704857 0.083700
0.653989 0.704778 0.083700
0.681140 0.704700 0.083700
0.707755 0.704622 0.083700
0.733778 0.704546 0.083700
0.759156 0.704473 0.083700
0.783841 0.704404 0.083700
0.807787 0.704338 0.083700
0.830951 0.704276 0.083700
0.853294 0.704219 0.083700
0.874780 0.704166 0.083700
0.065000 0.731177 0.083700
0.079940 0.731177 0.083700
0.096990 0.731177 0.083700
0.115880 0.731177 0.083700
0.136393 0.731177 0.083700
0.158340 0.731177 0.083700
0.181553 0.731177 0.083700
0.205876 0.731177 0.083700
0.231168 0.731177 0.083700
0.257302 0.731175 0.083700
0.284185 0.731161 0.083700
0.311703 0.731134 0.083700
0.339744 0.731095 0.083700
0.368200 0.731045 0.083700
0.396971 0.730984 0.083700
0.425957 0.730914 0.083700
0.455065 0.730836 0.083700
0.484206 0.730751 0.083700
0.513295 0.730660 0.083700
0.542250 0.730566 0.083700
0.570993 0.730469 0.083700
0.599453 0.730371 0.083700
0.627558 0.730273 0.083700
0.655242 0.730176 0.083700
