v2/tools/blender-substrate/grade/luts/substrate-act0.cube
TITLE "Substrate Act 0 — Hero"
# GRADE.md steps 1-7 (point-wise). Halation/grain/vignette excluded.
LUT_3D_SIZE 33
DOMAIN_MIN 0.0 0.0 0.0
DOMAIN_MAX 1.0 1.0 1.0
0.060000 0.060001 0.074100
0.075536 0.060269 0.074100
0.093073 0.060571 0.074100
0.112336 0.060903 0.077697
0.133109 0.061258 0.077697
0.155207 0.061633 0.077697
0.178467 0.062023 0.081298
0.202744 0.062424 0.081298
0.227904 0.062831 0.081298
0.253824 0.063242 0.081298
0.280392 0.063652 0.084904
0.307502 0.064057 0.084904
0.335055 0.064455 0.084904
0.362956 0.064842 0.088514
0.391118 0.065214 0.088514
0.419455 0.065571 0.088514
0.447888 0.065909 0.092128
0.476340 0.066227 0.092128
0.504736 0.066524 0.092128
0.533006 0.066797 0.092128
0.561081 0.067047 0.092128
0.588894 0.067273 0.095745
0.616384 0.067474 0.095745
0.643489 0.067652 0.095745
0.670150 0.067807 0.095745
0.696311 0.067938 0.095745
0.721920 0.068048 0.095745
0.746924 0.068137 0.095745
0.771275 0.068207 0.095745
0.794928 0.068259 0.095745
0.817839 0.068294 0.095745
0.839969 0.068315 0.095745
0.861280 0.068322 0.095745
0.060576 0.076074 0.077697
0.076115 0.076342 0.077697
0.093659 0.076644 0.077697
0.112934 0.076974 0.077697
0.133725 0.077326 0.081298
0.155847 0.077697 0.081298
0.179137 0.078081 0.081298
0.203451 0.078476 0.081298
0.228655 0.078876 0.084904
0.254627 0.079277 0.084904
0.281252 0.079677 0.084904
0.308427 0.080071 0.088514
0.336049 0.080455 0.088514
0.364027 0.080828 0.088514
0.392270 0.081187 0.088514
0.420693 0.081528 0.092128
0.449216 0.081850 0.092128
0.477760 0.082152 0.092128
0.506250 0.082431 0.092128
0.534616 0.082688 0.095745
0.562788 0.082920 0.095745
0.590699 0.083129 0.095745
0.618285 0.083314 0.095745
0.645485 0.083475 0.095745
0.672240 0.083613 0.095745
0.698493 0.083729 0.095745
0.724191 0.083824 0.095745
0.749280 0.083899 0.095745
0.773714 0.083955 0.095745
0.797446 0.083993 0.095745
0.820432 0.084016 0.095745
0.842632 0.084025 0.095745
0.864009 0.084021 0.095745
0.061216 0.094206 0.077697
0.076762 0.094474 0.081298
0.094319 0.094775 0.081298
0.113613 0.095102 0.081298
0.134428 0.095451 0.081298
0.156581 0.095817 0.084904
0.179911 0.096196 0.084904
0.204271 0.096583 0.084904
0.229528 0.096975 0.084904
0.255561 0.097366 0.088514
0.282256 0.097755 0.088514
0.309505 0.098136 0.088514
0.337210 0.098507 0.092128
0.365275 0.098866 0.092128
0.393610 0.099208 0.092128
0.422130 0.099533 0.092128
0.450753 0.099838 0.092128
0.479401 0.100122 0.095745
0.507997 0.100384 0.095745
0.536469 0.100622 0.095745
0.564748 0.100837 0.095745
0.592765 0.101027 0.095745
0.620457 0.101194 0.095745
0.647761 0.101338 0.095745
0.674618 0.101460 0.095745
0.700969 0.101559 0.095745
0.726762 0.101639 0.095745
0.751943 0.101698 0.095745
0.776464 0.101740 0.095745
0.800278 0.101766 0.095745
0.823342 0.101777 0.095745
0.845616 0.101774 0.095745
0.867062 0.101760 0.095745
0.061894 0.114125 0.081298
0.077455 0.114392 0.081298
0.095031 0.114691 0.084904
0.114350 0.115016 0.084904
0.135198 0.115362 0.084904
0.157391 0.115723 0.084904
0.180768 0.116095 0.088514
0.205184 0.116475 0.088514
0.230505 0.116857 0.088514
0.256609 0.117238 0.088514
0.283382 0.117614 0.092128
0.310717 0.117982 0.092128
0.338513 0.118339 0.092128
0.366676 0.118682 0.092128
0.395113 0.119008 0.092128
0.423740 0.119316 0.095745
0.452473 0.119604 0.095745
0.481232 0.119869 0.095745
0.509942 0.120113 0.095745
0.538528 0.120332 0.095745
0.566921 0.120529 0.095745
0.595051 0.120701 0.095745
0.622854 0.120850 0.095745
0.650267 0.120977 0.095745
0.677229 0.121082 0.095745
0.703683 0.121165 0.095745
0.729573 0.121229 0.095745
0.754848 0.121274 0.095745
0.779457 0.121303 0.095745
0.803355 0.121316 0.095745
0.826497 0.121315 0.095745
0.848844 0.121302 0.095745
0.870357 0.121278 0.095745
0.062584 0.135620 0.084904
0.078165 0.135886 0.084904
0.095768 0.136183 0.084904
0.115121 0.136505 0.088514
0.136009 0.136846 0.088514
0.158251 0.137202 0.088514
0.181685 0.137568 0.088514
0.206166 0.137939 0.092128
0.231560 0.138312 0.092128
0.257745 0.138682 0.092128
0.284606 0.139045 0.092128
0.312036 0.139400 0.092128
0.339933 0.139742 0.095745
0.368202 0.140069 0.095745
0.396750 0.140378 0.095745
0.425491 0.140669 0.095745
0.454341 0.140938 0.095745
0.483218 0.141186 0.095745
0.512047 0.141410 0.095745
0.540753 0.141612 0.095745
0.569264 0.141790 0.095745
0.597511 0.141944 0.095745
0.625427 0.142076 0.095745
0.652950 0.142186 0.095745
0.680019 0.142274 0.095745
0.706575 0.142342 0.095745
0.732562 0.142391 0.095745
0.757928 0.142423 0.095745
0.782624 0.142439 0.095745
0.806602 0.142441 0.095745
0.829819 0.142429 0.095745
0.852234 0.142407 0.095745
0.873811 0.142374 0.095745
0.063257 0.158514 0.088514
0.078865 0.158779 0.088514
0.096502 0.159074 0.088514
0.115897 0.159392 0.088514
0.136835 0.159729 0.092128
0.159135 0.160079 0.092128
0.182635 0.160437 0.092128
0.207190 0.160799 0.092128
0.232667 0.161162 0.092128
0.258942 0.161520 0.095745
0.285900 0.161871 0.095745
0.313433 0.162211 0.095745
0.341439 0.162538 0.095745
0.369820 0.162848 0.095745
0.398486 0.163141 0.095745
0.427347 0.163414 0.095745
0.456318 0.163666 0.095745
0.485318 0.163895 0.095745
0.514270 0.164101 0.095745
0.543097 0.164285 0.095745
0.571727 0.164445 0.095745
0.600091 0.164582 0.095745
0.628121 0.164697 0.095745
0.655753 0.164791 0.095745
0.682925 0.164864 0.095745
0.709580 0.164918 0.095745
0.735660 0.164954 0.095745
0.761113 0.164973 0.095745
0.785890 0.164978 0.095745
0.809942 0.164970 0.095745
0.833227 0.164949 0.095745
0.855704 0.164919 0.092128
0.877336 0.164880 0.092128
0.063881 0.182654 0.092128
0.079524 0.182917 0.092128
0.097203 0.183209 0.092128
0.116648 0.183523 0.092128
0.137645 0.183855 0.092128
0.160012 0.184198 0.092128
0.183588 0.184548 0.095745
0.208226 0.184901 0.095745
0.233794 0.185252 0.095745
0.260166 0.185598 0.095745
0.287229 0.185936 0.095745
0.314872 0.186261 0.095745
0.342993 0.186573 0.095745
0.371493 0.186867 0.095745
0.400281 0.187143 0.095745
0.429265 0.187398 0.095745
0.458361 0.187632 0.095745
0.487486 0.187843 0.095745
0.516560 0.188032 0.095745
0.545508 0.188198 0.095745
0.574257 0.188341 0.095745
0.602734 0.188462 0.095745
0.630874 0.188561 0.095745
0.658610 0.188640 0.095745
0.685882 0.188699 0.095745
0.712628 0.188740 0.095745
0.738795 0.188764 0.095745
0.764327 0.188773 0.092128
0.789176 0.188769 0.092128
0.813293 0.188752 0.092128
0.836636 0.188725 0.092128
0.859164 0.188688 0.092128
0.880840 0.188644 0.092128
0.064428 0.207902 0.092128
0.080113 0.208162 0.092128
0.097842 0.208450 0.092128
0.117346 0.208760 0.095745
0.138410 0.209085 0.095745
0.160852 0.209421 0.095745
0.184511 0.209762 0.095745
0.209241 0.210105 0.095745
0.234907 0.210444 0.095745
0.261385 0.210777 0.095745
0.288558 0.211101 0.095745
0.316317 0.211412 0.095745
0.344558 0.211707 0.095745
0.373181 0.211985 0.095745
0.402093 0.212243 0.095745
0.431202 0.212481 0.095745
0.460423 0.212698 0.095745
0.489671 0.212892 0.095745
0.518867 0.213063 0.095745
0.547933 0.213212 0.095745
0.576795 0.213339 0.095745
0.605381 0.213445 0.095745
0.633624 0.213529 0.095745
0.661457 0.213595 0.095745
0.688818 0.213642 0.092128
0.715648 0.213671 0.092128
0.741889 0.213686 0.092128
0.767490 0.213686 0.092128
0.792398 0.213674 0.092128
0.816568 0.213651 0.092128
0.839956 0.213619 0.088514
0.862522 0.213579 0.088514
0.884229 0.213532 0.088514
0.064870 0.234131 0.095745
0.080603 0.234388 0.095745
0.098391 0.234671 0.095745
0.117961 0.234975 0.095745
0.139100 0.235293 0.095745
0.161626 0.235620 0.095745
0.185376 0.235951 0.095745
0.210204 0.236283 0.095745
0.235975 0.236610 0.095745
0.262564 0.236929 0.095745
0.289853 0.237238 0.095745
0.317731 0.237533 0.095745
0.346094 0.237812 0.095745
0.374842 0.238073 0.095745
0.403878 0.238315 0.095745
0.433112 0.238536 0.095745
0.462455 0.238735 0.095745
0.491824 0.238912 0.095745
0.521136 0.239067 0.095745
0.550314 0.239200 0.095745
0.579282 0.239312 0.095745
0.607969 0.239403 0.092128
0.636305 0.239474 0.092128
0.664224 0.239527 0.092128
0.691664 0.239564 0.092128
0.718563 0.239584 0.092128
0.744867 0.239590 0.088514
0.770520 0.239584 0.088514
0.795474 0.239566 0.088514
0.819681 0.239540 0.088514
0.843098 0.239505 0.088514
0.865686 0.239463 0.088514
0.887407 0.239417 0.084904
0.065184 0.261223 0.095745
0.080973 0.261475 0.095745
0.098825 0.261753 0.095745
0.118469 0.262049 0.095745
0.139690 0.262359 0.095745
0.162306 0.262676 0.095745
0.186154 0.262996 0.095745
0.211087 0.263315 0.095745
0.236968 0.263629 0.095745
0.263671 0.263934 0.095745
0.291079 0.264227 0.095745
0.319079 0.264506 0.095745
0.347565 0.264768 0.095745
0.376436 0.265012 0.095745
0.405595 0.265236 0.095745
0.434950 0.265440 0.095745
0.464412 0.265622 0.095745
0.493894 0.265782 0.095745
0.523315 0.265921 0.092128
0.552596 0.266039 0.092128
0.581661 0.266136 0.092128
0.610437 0.266215 0.092128
0.638853 0.266274 0.092128
0.666845 0.266317 0.088514
0.694348 0.266344 0.088514
0.721302 0.266357 0.088514
0.747651 0.266357 0.088514
0.773341 0.266346 0.088514
0.798322 0.266325 0.084904
0.822547 0.266297 0.084904
0.845975 0.266261 0.084904
0.868564 0.266221 0.084904
0.890281 0.266177 0.084904
0.065352 0.289065 0.095745
0.081202 0.289311 0.095745
0.099126 0.289581 0.095745
0.118850 0.289869 0.095745
0.140160 0.290169 0.095745
0.162872 0.290475 0.095745
0.186822 0.290782 0.095745
0.211863 0.291087 0.095745
0.237857 0.291386 0.095745
0.264678 0.291675 0.095745
0.292206 0.291952 0.095745
0.320327 0.292214 0.095745
0.348935 0.292458 0.095745
0.377926 0.292685 0.095745
0.407204 0.292891 0.095745
0.436675 0.293077 0.092128
0.466247 0.293242 0.092128
0.495835 0.293386 0.092128
0.525355 0.293510 0.092128
0.554728 0.293613 0.092128
0.583876 0.293697 0.088514
0.612726 0.293763 0.088514
0.641208 0.293812 0.088514
0.669255 0.293846 0.088514
0.696804 0.293865 0.084904
0.723794 0.293872 0.084904
0.750169 0.293868 0.084904
0.775874 0.293855 0.084904
0.800862 0.293833 0.084904
0.825085 0.293805 0.081298
0.848501 0.293772 0.081298
0.871072 0.293735 0.081298
0.892762 0.293696 0.081298
0.065364 0.317547 0.095745
0.081281 0.317785 0.095745
0.099280 0.318046 0.095745
0.119090 0.318324 0.095745
0.140493 0.318611 0.095745
0.163305 0.318904 0.095745
0.187362 0.319198 0.095745
0.212514 0.319487 0.095745
0.238624 0.319770 0.095745
0.265562 0.320042 0.095745
0.293209 0.320301 0.095745
0.321449 0.320544 0.092128
0.350175 0.320770 0.092128
0.379282 0.320978 0.092128
0.408672 0.321166 0.092128
0.438249 0.321334 0.092128
0.467923 0.321482 0.088514
0.497605 0.321610 0.088514
0.527211 0.321718 0.088514
0.556660 0.321808 0.088514
0.585876 0.321879 0.088514
0.614784 0.321935 0.084904
0.643313 0.321974 0.084904
0.671397 0.322000 0.084904
0.698971 0.322014 0.084904
0.725975 0.322016 0.081298
0.752353 0.322010 0.081298
0.778052 0.321996 0.081298
0.803023 0.321975 0.081298
0.827220 0.321950 0.081298
0.850601 0.321921 0.077697
0.873128 0.321890 0.077697
0.894768 0.321858 0.077697
0.065216 0.346559 0.095745
0.081204 0.346788 0.095745
0.099284 0.347039 0.095745
0.119183 0.347304 0.095745
0.140683 0.347578 0.095745
0.163598 0.347855 0.095745
0.187763 0.348132 0.095745
0.213027 0.348405 0.095745
0.239252 0.348669 0.092128
0.266306 0.348922 0.092128
0.294069 0.349162 0.092128
0.322424 0.349386 0.092128
0.351262 0.349592 0.092128
0.380477 0.349780 0.088514
0.409970 0.349950 0.088514
0.439643 0.350099 0.088514
0.469405 0.350230 0.088514
0.499167 0.350341 0.084904
0.528844 0.350435 0.084904
0.558353 0.350511 0.084904
0.587618 0.350570 0.084904
0.616564 0.350615 0.081298
0.645119 0.350646 0.081298
0.673217 0.350666 0.081298
0.700794 0.350675 0.081298
0.727789 0.350675 0.081298
0.754146 0.350668 0.077697
0.779813 0.350655 0.077697
0.804741 0.350637 0.077697
0.828886 0.350617 0.077697
0.852205 0.350595 0.077697
0.874663 0.350572 0.077697
0.896226 0.350548 0.074100
0.064914 0.375994 0.095745
0.080975 0.376212 0.095745
0.099140 0.376449 0.095745
0.119130 0.376700 0.095745
0.140729 0.376958 0.092128
0.163749 0.377219 0.092128
0.188022 0.377477 0.092128
0.213398 0.377730 0.092128
0.239735 0.377974 0.092128
0.266902 0.378206 0.092128
0.294775 0.378425 0.088514
0.323239 0.378627 0.088514
0.352180 0.378813 0.088514
0.381494 0.378980 0.088514
0.411077 0.379130 0.084904
0.440834 0.379260 0.084904
0.470669 0.379373 0.084904
0.500495 0.379468 0.084904
0.530224 0.379546 0.081298
0.559774 0.379608 0.081298
0.589068 0.379656 0.081298
0.618029 0.379691 0.081298
0.646587 0.379715 0.077697
0.674675 0.379729 0.077697
0.702228 0.379735 0.077697
0.729187 0.379733 0.077697
0.755497 0.379727 0.077697
0.781104 0.379717 0.077697
0.805962 0.379704 0.074100
0.830026 0.379691 0.074100
0.853257 0.379677 0.074100
0.875617 0.379664 0.074100
0.897075 0.379652 0.074100
0.064471 0.405743 0.092128
0.080609 0.405948 0.092128
0.098859 0.406170 0.092128
0.118943 0.406404 0.092128
0.140641 0.406643 0.092128
0.163764 0.406884 0.092128
0.188145 0.407122 0.088514
0.213629 0.407353 0.088514
0.240074 0.407574 0.088514
0.267348 0.407783 0.088514
0.295325 0.407979 0.088514
0.323888 0.408158 0.084904
0.352922 0.408321 0.084904
0.382322 0.408466 0.084904
0.411983 0.408594 0.084904
0.441807 0.408705 0.081298
0.471699 0.408799 0.081298
0.501569 0.408876 0.081298
0.531330 0.408939 0.081298
0.560899 0.408988 0.077697
0.590198 0.409024 0.077697
0.619150 0.409050 0.077697
0.647685 0.409067 0.077697
0.675736 0.409076 0.077697
0.703239 0.409079 0.074100
0.730134 0.409077 0.074100
0.756367 0.409073 0.074100
0.781886 0.409067 0.074100
0.806643 0.409061 0.074100
0.830597 0.409056 0.074100
0.853708 0.409052 0.074100
0.875941 0.409051 0.074100
0.897282 0.409051 0.074100
0.063911 0.435696 0.092128
0.080126 0.435886 0.092128
0.098462 0.436091 0.088514
0.118638 0.436305 0.088514
0.140435 0.436523 0.088514
0.163660 0.436741 0.088514
0.188144 0.436955 0.088514
0.213731 0.437162 0.084904
0.240279 0.437358 0.084904
0.267652 0.437542 0.084904
0.295724 0.437712 0.084904
0.324375 0.437866 0.081298
0.353490 0.438004 0.081298
0.382961 0.438126 0.081298
0.412683 0.438231 0.081298
0.442556 0.438320 0.081298
0.472486 0.438394 0.077697
0.502379 0.438453 0.077697
0.532150 0.438500 0.077697
0.561714 0.438535 0.077697
0.590992 0.438560 0.077697
0.619910 0.438576 0.074100
0.648394 0.438586 0.074100
0.676380 0.438591 0.074100
0.703802 0.438592 0.074100
0.730603 0.438592 0.074100
0.756729 0.438590 0.074100
0.782129 0.438590 0.074100
0.806782 0.438590 0.074100
0.830659 0.438590 0.074100
0.853723 0.438590 0.074100
0.875941 0.438590 0.074100
0.897282 0.438590 0.074100
0.063264 0.465744 0.088514
0.079555 0.465916 0.088514
0.097976 0.466100 0.088514
0.118244 0.466292 0.084904
0.140136 0.466487 0.084904
0.163459 0.466679 0.084904
0.188041 0.466867 0.084904
0.213726 0.467046 0.084904
0.240367 0.467214 0.081298
0.267830 0.467370 0.081298
0.295985 0.467512 0.081298
0.324711 0.467638 0.081298
0.353892 0.467750 0.077697
0.383418 0.467845 0.077697
0.413183 0.467926 0.077697
0.443087 0.467992 0.077697
0.473032 0.468045 0.077697
0.502926 0.468085 0.074100
0.532682 0.468115 0.074100
0.562215 0.468135 0.074100
0.591446 0.468148 0.074100
0.620300 0.468155 0.074100
0.648705 0.468158 0.074100
0.676595 0.468159 0.074100
0.703924 0.468159 0.074100
0.730655 0.468159 0.074100
0.756739 0.468159 0.074100
0.782129 0.468159 0.074100
0.806782 0.468159 0.074100
0.830659 0.468159 0.074100
0.853723 0.468159 0.074100
0.875941 0.468159 0.074100
0.897282 0.468159 0.074100
0.062566 0.495775 0.084904
0.078933 0.495927 0.084904
0.097437 0.496088 0.084904
0.117793 0.496255 0.084904
0.139776 0.496422 0.081298
0.163191 0.496586 0.081298
0.187865 0.496744 0.081298
0.213639 0.496893 0.081298
0.240365 0.497030 0.081298
0.267905 0.497155 0.077697
0.296131 0.497266 0.077697
0.324917 0.497362 0.077697
0.354148 0.497444 0.077697
0.383711 0.497512 0.077697
0.413499 0.497566 0.074100
0.443410 0.497607 0.074100
0.473348 0.497637 0.074100
0.503218 0.497657 0.074100
0.532933 0.497669 0.074100
0.562408 0.497674 0.074100
0.591567 0.497674 0.074100
0.620358 0.497674 0.074100
0.648721 0.497674 0.074100
0.676595 0.497674 0.074100
0.703924 0.497674 0.074100
0.730655 0.497674 0.074100
0.756739 0.497674 0.074100
0.782129 0.497674 0.074100
0.806782 0.497674 0.074100
0.830659 0.497674 0.074100
0.853723 0.497674 0.074100
0.875941 0.497674 0.074100
0.897282 0.497674 0.074100
0.061864 0.525679 0.081298
0.078304 0.525807 0.081298
0.096887 0.525943 0.081298
0.117326 0.526081 0.081298
0.139395 0.526218 0.081298
0.162895 0.526351 0.077697
0.187652 0.526476 0.077697
0.213505 0.526591 0.077697
0.240303 0.526694 0.077697
0.267909 0.526785 0.077697
0.296189 0.526862 0.077697
0.325020 0.526926 0.074100
0.354282 0.526976 0.074100
0.383862 0.527013 0.074100
0.413651 0.527038 0.074100
0.443548 0.527053 0.074100
0.473454 0.527058 0.074100
0.503281 0.527058 0.074100
0.532959 0.527058 0.074100
0.562412 0.527058 0.074100
0.591567 0.527058 0.074100
0.620358 0.527058 0.074100
0.648721 0.527058 0.074100
0.676595 0.527058 0.074100
0.703924 0.527058 0.074100
0.730655 0.527058 0.074100
0.756739 0.527058 0.074100
0.782129 0.527058 0.074100
0.806782 0.527058 0.074100
0.830659 0.527058 0.074100
0.853723 0.527058 0.074100
0.875941 0.527058 0.074100
0.897282 0.527058 0.074100
0.061205 0.555345 0.077697
0.077714 0.555447 0.077697
0.096371 0.555554 0.077697
0.116889 0.555661 0.077697
0.139035 0.555765 0.077697
0.162613 0.555862 0.077697
0.187443 0.555951 0.077697
0.213363 0.556029 0.074100
0.240221 0.556095 0.074100
0.267877 0.556148 0.074100
0.296197 0.556189 0.074100
0.325053 0.556216 0.074100
0.354327 0.556232 0.074100
0.383902 0.556236 0.074100
0.413677 0.556236 0.074100
0.443558 0.556236 0.074100
0.473454 0.556236 0.074100
0.503281 0.556236 0.074100
0.532959 0.556236 0.074100
0.562412 0.556236 0.074100
0.591567 0.556236 0.074100
0.620358 0.556236 0.074100
0.648721 0.556236 0.074100
0.676595 0.556236 0.074100
0.703924 0.556236 0.074100
0.730655 0.556236 0.074100
0.756739 0.556236 0.074100
0.782129 0.556236 0.074100
0.806782 0.556236 0.074100
0.830660 0.556236 0.074100
0.853731 0.556233 0.074100
0.875962 0.556228 0.074100
0.897321 0.556222 0.074100
0.060641 0.584664 0.077697
0.077214 0.584738 0.077697
0.095941 0.584813 0.077697
0.116529 0.584885 0.074100
0.138746 0.584952 0.074100
0.162390 0.585011 0.074100
0.187282 0.585060 0.074100
0.213257 0.585098 0.074100
0.240161 0.585123 0.074100
0.267851 0.585136 0.074100
0.296192 0.585138 0.074100
0.325056 0.585138 0.074100
0.354328 0.585138 0.074100
0.383902 0.585138 0.074100
0.413677 0.585138 0.074100
0.443558 0.585138 0.074100
0.473454 0.585138 0.074100
0.503281 0.585138 0.074100
0.532959 0.585138 0.074100
0.562412 0.585138 0.074100
0.591567 0.585138 0.074100
0.620358 0.585138 0.074100
0.648721 0.585138 0.074100
0.676595 0.585138 0.074100
0.703924 0.585138 0.074100
0.730655 0.585138 0.074100
0.756750 0.585134 0.074100
0.782164 0.585126 0.074100
0.806851 0.585115 0.074100
0.830767 0.585101 0.074100
0.853875 0.585086 0.074100
0.876137 0.585071 0.074100
0.897522 0.585055 0.074100
0.060227 0.613530 0.074100
0.076859 0.613573 0.074100
0.095648 0.613613 0.074100
0.116298 0.613648 0.074100
0.138576 0.613675 0.074100
0.162276 0.613692 0.074100
0.187218 0.613697 0.074100
0.213229 0.613697 0.074100
0.240153 0.613697 0.074100
0.267851 0.613697 0.074100
0.296192 0.613697 0.074100
0.325056 0.613697 0.074100
0.354328 0.613697 0.074100
0.383902 0.613697 0.074100
0.413677 0.613697 0.074100
0.443558 0.613697 0.074100
0.473454 0.613697 0.074100
0.503281 0.613697 0.074100
0.532959 0.613697 0.074100
0.562412 0.613697 0.074100
0.591567 0.613697 0.074100
0.620358 0.613697 0.074100
0.648727 0.613695 0.074100
0.676628 0.613687 0.074100
0.704002 0.613672 0.074100
0.730793 0.613652 0.074100
0.756945 0.613630 0.074100
0.782410 0.613605 0.074100
0.807142 0.613578 0.074100
0.831098 0.613551 0.074100
0.854240 0.613524 0.074100
0.876532 0.613498 0.074100
0.897943 0.613473 0.074100
0.060016 0.641840 0.074100
0.076701 0.641850 0.074100
0.095544 0.641852 0.074100
0.116241 0.641852 0.074100
0.138551 0.641852 0.074100
0.162271 0.641852 0.074100
0.187218 0.641852 0.074100
0.213229 0.641852 0.074100
0.240153 0.641852 0.074100
0.267851 0.641852 0.074100
0.296192 0.641852 0.074100
0.325056 0.641852 0.074100
0.354328 0.641852 0.074100
0.383902 0.641852 0.074100
0.413677 0.641852 0.074100
0.443558 0.641852 0.074100
0.473454 0.641852 0.074100
0.503281 0.641852 0.074100
0.532959 0.641852 0.074100
0.562426 0.641848 0.074100
0.591626 0.641833 0.074100
0.620486 0.641811 0.074100
0.648936 0.641783 0.074100
0.676913 0.641750 0.074100
0.704355 0.641713 0.074100
0.731206 0.641674 0.074100
0.757412 0.641633 0.074100
0.782925 0.641592 0.074100
0.807699 0.641551 0.074100
0.831692 0.641511 0.074100
0.854866 0.641473 0.074100
0.877186 0.641437 0.074100
0.898620 0.641404 0.074100
0.060000 0.669543 0.074100
0.076697 0.669543 0.074100
0.095544 0.669543 0.074100
0.116241 0.669543 0.074100
0.138551 0.669543 0.074100
0.162271 0.669543 0.074100
0.187218 0.669543 0.074100
0.213229 0.669543 0.074100
0.240153 0.669543 0.074100
0.267851 0.669543 0.074100
0.296192 0.669543 0.074100
0.325056 0.669543 0.074100
0.354328 0.669543 0.074100
0.383902 0.669543 0.074100
0.413677 0.669543 0.074100
0.443558 0.669543 0.074100
0.473477 0.669536 0.074100
0.503364 0.669517 0.074100
0.533132 0.669489 0.074100
0.562701 0.669452 0.074100
0.591993 0.669408 0.074100
0.620938 0.669359 0.074100
0.649465 0.669305 0.074100
0.677511 0.669250 0.074100
0.705015 0.669192 0.074100
0.731921 0.669134 0.074100
0.758177 0.669077 0.074100
0.783734 0.669021 0.074100
0.808546 0.668968 0.074100
0.832572 0.668916 0.074100
0.855774 0.668868 0.074100
0.878119 0.668823 0.074100
0.899575 0.668782 0.074100
0.060000 0.696715 0.074100
0.076697 0.696715 0.074100
0.095544 0.696715 0.074100
0.116241 0.696715 0.074100
0.138551 0.696715 0.074100
0.162271 0.696715 0.074100
0.187218 0.696715 0.074100
0.213229 0.696715 0.074100
0.240153 0.696715 0.074100
0.267851 0.696715 0.074100
0.296192 0.696715 0.074100
0.325056 0.696715 0.074100
0.354329 0.696715 0.074100
0.383932 0.696706 0.074100
0.413778 0.696684 0.074100
0.443767 0.696650 0.074100
0.473805 0.696605 0.074100
0.503801 0.696552 0.074100
0.533670 0.696491 0.074100
0.563332 0.696424 0.074100
0.592710 0.696353 0.074100
0.621731 0.696279 0.074100
0.650328 0.696203 0.074100
0.678437 0.696126 0.074100
0.705997 0.696051 0.074100
0.732953 0.695976 0.074100
0.759252 0.695904 0.074100
0.784847 0.695835 0.074100
0.809692 0.695770 0.074100
0.833747 0.695708 0.074100
0.856974 0.695651 0.074100
0.879340 0.695599 0.074100
0.900813 0.695551 0.074100
0.060000 0.723316 0.074100
0.076697 0.723316 0.074100
0.095544 0.723316 0.074100
0.116241 0.723316 0.074100
0.138551 0.723316 0.074100
0.162271 0.723316 0.074100
0.187218 0.723316 0.074100
0.213229 0.723316 0.074100
0.240153 0.723316 0.074100
0.267852 0.723315 0.074100
0.296229 0.723304 0.074100
0.325173 0.723279 0.074100
0.354567 0.723241 0.074100
0.384302 0.723191 0.074100
0.414271 0.723130 0.074100
0.444376 0.723060 0.074100
0.474521 0.722981 0.074100
0.504617 0.722896 0.074100
0.534578 0.722806 0.074100
0.564324 0.722712 0.074100
0.593777 0.722616 0.074100
0.622868 0.722520 0.074100
0.651526 0.722424 0.074100
0.679690 0.722329 0.074100
0.707299 0.722237 0.074100
0.734297 0.722148 0.074100
0.760634 0.722063 0.074100
0.786261 0.721983 0.074100
0.811134 0.721908 0.074100
0.835213 0.721838 0.074100
0.858460 0.721773 0.074100
0.880842 0.721715 0.074100
0.902329 0.721661 0.074100
0.060000 0.749296 0.074100
0.076697 0.749296 0.074100
0.095544 0.749296 0.074100
0.116241 0.749296 0.074100
0.138551 0.749296 0.074100
0.162271 0.749296 0.074100
0.187225 0.749294 0.074100
0.213281 0.749280 0.074100
0.240294 0.749253 0.074100
0.268123 0.749212 0.074100
0.296638 0.749158 0.074100
0.325714 0.749092 0.074100
0.355234 0.749014 0.074100
0.385088 0.748927 0.074100
0.415169 0.748830 0.074100
0.445378 0.748727 0.074100
0.475619 0.748618 0.074100
0.505804 0.748504 0.074100
0.535846 0.748388 0.074100
0.565665 0.748271 0.074100
0.595186 0.748153 0.074100
0.624335 0.748037 0.074100
0.653047 0.747923 0.074100
0.681257 0.747813 0.074100
