v2/tools/blender-substrate/grade/luts/substrate-act1.cube
TITLE "Substrate Act 1 — Statement"
# GRADE.md steps 1-7 (point-wise). Halation/grain/vignette excluded.
LUT_3D_SIZE 9
DOMAIN_MIN 0.0 0.0 0.0
DOMAIN_MAX 1.0 1.0 1.0
0.070000 0.070001 0.097900
0.138016 0.072557 0.101551
0.222786 0.075368 0.108878
0.318242 0.078246 0.112552
0.419741 0.081021 0.119919
0.523379 0.083566 0.123611
0.625703 0.085808 0.127308
0.723590 0.087734 0.131010
0.814232 0.089384 0.131010
0.077157 0.146482 0.112552
0.147108 0.149558 0.119919
0.233645 0.152799 0.123611
0.330885 0.156013 0.127308
0.434178 0.159047 0.131010
0.539515 0.161805 0.134716
0.643298 0.164251 0.134716
0.742270 0.166409 0.134716
0.833539 0.168340 0.134716
0.084157 0.242814 0.127308
0.156460 0.246183 0.131010
0.245243 0.249626 0.134716
0.344679 0.252959 0.134716
0.450015 0.256059 0.134716
0.557071 0.258872 0.134716
0.662077 0.261404 0.134716
0.761653 0.263710 0.131010
0.852865 0.265867 0.131010
0.089600 0.352003 0.134716
0.164629 0.355445 0.134716
0.255943 0.358874 0.134716
0.357635 0.362136 0.134716
0.464761 0.365152 0.131010
0.572939 0.367916 0.131010
0.678243 0.370477 0.127308
0.777232 0.372914 0.127308
0.867026 0.375307 0.127308
0.093187 0.467994 0.131010
0.171087 0.471239 0.131010
0.264847 0.474392 0.131010
0.368367 0.477352 0.127308
0.476464 0.480101 0.127308
0.584555 0.482686 0.127308
0.688696 0.485197 0.127308
0.786033 0.487702 0.131010
0.874137 0.490206 0.131010
0.096384 0.584472 0.127308
0.176962 0.587196 0.127308
0.272652 0.589758 0.127308
0.377112 0.592211 0.127308
0.485261 0.594661 0.131010
0.592929 0.597110 0.131010
0.696595 0.599555 0.134716
0.793455 0.601947 0.134716
0.881019 0.604299 0.138425
0.101532 0.695290 0.131010
0.183913 0.697613 0.131010
0.280584 0.699932 0.134716
0.385564 0.702227 0.134716
0.494382 0.704364 0.138425
0.602801 0.706377 0.138425
0.707088 0.708345 0.142137
0.804123 0.710326 0.142137
0.891392 0.712359 0.145852
0.107611 0.797811 0.134716
0.192206 0.799673 0.138425
0.291151 0.801349 0.138425
0.398374 0.802879 0.142137
0.508791 0.804335 0.142137
0.618078 0.805798 0.145852
0.722597 0.807331 0.145852
0.819354 0.808970 0.149569
0.905963 0.810726 0.153287
0.119388 0.887894 0.142137
0.206847 0.889026 0.142137
0.307981 0.890015 0.145852
0.416662 0.890951 0.149569
0.527823 0.891924 0.149569
0.637211 0.893011 0.153287
0.741299 0.894254 0.153287
0.837219 0.895666 0.157007
0.922710 0.897233 0.160727
0.070730 0.070883 0.168166
0.138929 0.073443 0.171884
0.223864 0.076241 0.179316
0.319490 0.079086 0.186738
0.421166 0.081810 0.190444
0.524979 0.084290 0.197843
0.627464 0.086461 0.201535
0.725480 0.088317 0.205221
0.816212 0.089902 0.208902
0.077874 0.147551 0.186738
0.148038 0.150611 0.190444
0.234773 0.153817 0.194145
0.332208 0.156978 0.201535
0.435687 0.159947 0.205221
0.541190 0.162632 0.208902
0.645104 0.165006 0.208902
0.744160 0.167097 0.212576
0.835457 0.168972 0.212576
0.084771 0.243991 0.201535
0.157316 0.247324 0.205221
0.246320 0.250714 0.208902
0.345957 0.253980 0.212576
0.451464 0.257008 0.212576
0.558644 0.259749 0.212576
0.663715 0.262218 0.212576
0.763288 0.264473 0.212576
0.854431 0.266595 0.212576
0.090061 0.353210 0.212576
0.165349 0.356601 0.212576
0.256886 0.359965 0.212576
0.358757 0.363155 0.212576
0.466003 0.366103 0.212576
0.574225 0.368810 0.208902
0.679487 0.371330 0.208902
0.778348 0.373745 0.208902
0.867937 0.376137 0.208902
0.093550 0.469136 0.212576
0.171704 0.472321 0.208902
0.265662 0.475407 0.208902
0.369305 0.478303 0.208902
0.477431 0.481001 0.208902
0.585446 0.483557 0.208902
0.689503 0.486063 0.212576
0.786776 0.488568 0.212576
0.874798 0.491072 0.216243
0.096825 0.585434 0.208902
0.177630 0.588098 0.208902
0.273458 0.590607 0.212576
0.377966 0.593059 0.212576
0.486127 0.595508 0.216243
0.593777 0.597956 0.216243
0.697426 0.600392 0.219902
0.794299 0.602764 0.219902
0.881833 0.605110 0.223553
0.102113 0.696094 0.212576
0.184636 0.698415 0.216243
0.281396 0.700732 0.216243
0.386530 0.702995 0.219902
0.495523 0.705089 0.223553
0.604046 0.707079 0.223553
0.708374 0.709040 0.227196
0.805400 0.711026 0.227196
0.892620 0.713072 0.230830
0.108460 0.798472 0.219902
0.193375 0.800286 0.223553
0.292578 0.801923 0.223553
0.399988 0.803429 0.227196
0.510519 0.804878 0.230830
0.619854 0.806349 0.230830
0.724365 0.807901 0.234454
0.821068 0.809567 0.234454
0.907591 0.811353 0.238068
0.120984 0.888292 0.227196
0.208702 0.889405 0.230830
0.310022 0.890388 0.230830
0.418816 0.891333 0.234454
0.530016 0.892331 0.238068
0.639383 0.893451 0.238068
0.743398 0.894736 0.241671
0.839207 0.896192 0.241671
0.924562 0.897801 0.245263
0.071523 0.071864 0.252412
0.139913 0.074419 0.259511
0.225029 0.077192 0.266555
0.320849 0.079988 0.270055
0.422734 0.082644 0.277010
0.526757 0.085041 0.283900
0.629433 0.087123 0.287321
0.727606 0.088892 0.290726
0.818447 0.090398 0.294117
0.078634 0.148704 0.273540
0.149025 0.151736 0.277010
0.235978 0.154893 0.283900
0.333633 0.157986 0.287321
0.437328 0.160871 0.290726
0.543023 0.163467 0.294117
0.647089 0.165753 0.297493
0.746242 0.167766 0.300856
0.837574 0.169575 0.300856
0.085392 0.245235 0.290726
0.158198 0.248520 0.294117
0.247445 0.251840 0.294117
0.347308 0.255025 0.297493
0.453006 0.257965 0.300856
0.560325 0.260622 0.300856
0.665466 0.263018 0.300856
0.765033 0.265217 0.300856
0.856093 0.267302 0.300856
0.090498 0.354465 0.297493
0.166063 0.357791 0.300856
0.257844 0.361076 0.300856
0.359910 0.364183 0.300856
0.467285 0.367052 0.300856
0.575547 0.369695 0.300856
0.680753 0.372173 0.300856
0.779460 0.374570 0.300856
0.868808 0.376967 0.304206
0.093880 0.470300 0.300856
0.172305 0.473415 0.300856
0.266472 0.476424 0.300856
0.370242 0.479249 0.300856
0.478389 0.481895 0.300856
0.586305 0.484424 0.304206
0.690310 0.486929 0.304206
0.787518 0.489434 0.307542
0.875457 0.491938 0.310867
0.097268 0.586388 0.300856
0.178309 0.588986 0.300856
0.274265 0.591455 0.304206
0.378821 0.593906 0.307542
0.486993 0.596355 0.307542
0.594624 0.598801 0.310867
0.698299 0.601219 0.314179
0.795197 0.603574 0.314179
0.882706 0.605916 0.317481
0.102696 0.696897 0.307542
0.185361 0.699217 0.310867
0.282209 0.701533 0.310867
0.387582 0.703742 0.314179
0.496767 0.705795 0.314179
0.605407 0.707764 0.317481
0.709785 0.709722 0.320771
0.806805 0.711719 0.320771
0.893976 0.713783 0.324050
0.109440 0.799100 0.314179
0.194694 0.800865 0.317481
0.294171 0.802464 0.317481
0.401779 0.803950 0.320771
0.512431 0.805398 0.320771
0.621816 0.806884 0.324050
0.726315 0.808462 0.324050
0.822958 0.810162 0.327320
0.909387 0.811983 0.330580
0.122807 0.888647 0.320771
0.210790 0.889745 0.324050
0.312299 0.890728 0.324050
0.421202 0.891690 0.327320
0.532436 0.892719 0.327320
0.641768 0.893883 0.330580
0.745696 0.895218 0.330580
0.841379 0.896726 0.333831
0.926584 0.898384 0.337073
0.072353 0.072900 0.340307
0.140942 0.075443 0.346753
0.226252 0.078179 0.353171
0.322285 0.080914 0.359565
0.424397 0.083487 0.365940
0.528647 0.085788 0.372299
0.631531 0.087769 0.375473
0.729873 0.089441 0.378645
0.820828 0.090861 0.381814
0.079411 0.149897 0.359565
0.150040 0.152893 0.365940
0.237226 0.155990 0.369121
0.335118 0.159001 0.375473
0.439043 0.161792 0.378645
0.544944 0.164287 0.381814
0.649169 0.166478 0.384982
0.748420 0.168406 0.388148
0.839782 0.170147 0.391314
0.086007 0.246504 0.375473
0.159084 0.249730 0.381814
0.248589 0.252972 0.384982
0.348689 0.256065 0.388148
0.454588 0.258909 0.388148
0.562049 0.261476 0.391314
0.667257 0.263796 0.391314
0.766806 0.265939 0.391314
0.857766 0.267990 0.391314
0.090910 0.355727 0.388148
0.166764 0.358982 0.388148
0.258798 0.362181 0.391314
0.361067 0.365198 0.391314
0.468569 0.367986 0.391314
0.576864 0.370566 0.391314
0.681995 0.373006 0.391314
0.780522 0.375392 0.394479
0.869598 0.377805 0.394479
0.094190 0.471457 0.391314
0.172894 0.474496 0.391314
0.267275 0.477425 0.391314
0.371167 0.480181 0.394479
0.479322 0.482777 0.394479
0.587154 0.485290 0.397645
0.691116 0.487795 0.397645
0.788259 0.490300 0.400811
0.876116 0.492804 0.403978
0.097730 0.587318 0.394479
0.179009 0.589850 0.394479
0.275073 0.592302 0.397645
0.379675 0.594753 0.397645
0.487859 0.597201 0.400811
0.595472 0.599646 0.403978
0.699225 0.602036 0.403978
0.796152 0.604378 0.407146
0.883640 0.606722 0.410317
0.103280 0.697699 0.400811
0.186087 0.700018 0.400811
0.283078 0.702317 0.403978
0.388731 0.704467 0.407146
0.498115 0.706484 0.407146
0.606875 0.708439 0.410317
0.711303 0.710399 0.410317
0.808315 0.712413 0.413490
0.895437 0.714500 0.413490
0.110558 0.799697 0.407146
0.196158 0.801417 0.410317
0.295913 0.802984 0.410317
0.403719 0.804455 0.413490
0.514489 0.805908 0.413490
0.623917 0.807415 0.416665
0.728397 0.809026 0.416665
0.824973 0.810765 0.416665
0.911301 0.812627 0.419844
0.124813 0.888976 0.413490
0.213059 0.890065 0.413490
0.314751 0.891054 0.416665
0.423754 0.892039 0.416665
0.535008 0.893107 0.419844
0.644293 0.894322 0.419844
0.748118 0.895713 0.423027
0.843660 0.897277 0.423027
0.928700 0.898988 0.426214
0.073198 0.073959 0.429406
0.141994 0.076480 0.435806
0.227509 0.079170 0.442230
0.323764 0.081833 0.448682
0.426113 0.084315 0.455166
0.530599 0.086512 0.461686
0.633694 0.088385 0.464960
0.732203 0.089956 0.471539
0.823269 0.091288 0.474846
0.080185 0.151098 0.448682
0.151060 0.154049 0.455166
0.238489 0.157077 0.458421
0.336627 0.159999 0.464960
0.440788 0.162688 0.471539
0.546896 0.165079 0.474846
0.651277 0.167171 0.478164
0.750619 0.169015 0.481494
0.842000 0.170690 0.481494
0.086603 0.247765 0.468244
0.159960 0.250927 0.471539
0.249729 0.254085 0.474846
0.350072 0.257081 0.478164
0.456171 0.259826 0.481494
0.563770 0.262303 0.484836
0.669033 0.264550 0.484836
0.768549 0.266642 0.484836
0.859390 0.268665 0.488192
0.091300 0.356972 0.481494
0.167448 0.360151 0.481494
0.259739 0.363261 0.484836
0.362208 0.366189 0.484836
0.469830 0.368899 0.484836
0.578145 0.371421 0.488192
0.683182 0.373830 0.488192
0.781506 0.376217 0.488192
0.870289 0.378656 0.491561
0.094494 0.472588 0.484836
0.173478 0.475552 0.488192
0.268070 0.478404 0.488192
0.372077 0.481094 0.488192
0.480224 0.483651 0.491561
0.588003 0.486156 0.491561
0.691922 0.488661 0.494944
0.789000 0.491165 0.498341
0.876774 0.493669 0.498341
0.098224 0.588219 0.488192
0.179727 0.590698 0.491561
0.275881 0.593150 0.494944
0.380531 0.595600 0.494944
0.488725 0.598047 0.498341
0.596364 0.600481 0.501754
0.700210 0.602845 0.501754
0.797166 0.605181 0.505181
0.884633 0.607532 0.505181
0.103866 0.698501 0.498341
0.186813 0.700819 0.498341
0.284047 0.703078 0.501754
0.389979 0.705176 0.501754
0.499558 0.707163 0.505181
0.608434 0.709110 0.505181
0.712907 0.711079 0.508625
0.809908 0.713113 0.508625
0.896974 0.715228 0.512084
0.111808 0.800270 0.505181
0.197750 0.801950 0.505181
0.297776 0.803491 0.508625
0.405772 0.804955 0.508625
0.516650 0.806419 0.508625
0.626112 0.807953 0.512084
0.730563 0.809602 0.512084
0.827062 0.811383 0.512084
0.913280 0.813288 0.515561
0.126955 0.889292 0.508625
0.215454 0.890378 0.512084
0.317316 0.891380 0.512084
0.426404 0.892395 0.512084
0.537665 0.893508 0.515561
0.646886 0.894777 0.515561
0.750596 0.896227 0.515561
0.845984 0.897851 0.519054
0.930848 0.899616 0.519054
0.074041 0.075012 0.522565
0.143049 0.077505 0.529642
0.228775 0.080140 0.536796
0.325258 0.082725 0.544034
0.427846 0.085109 0.551355
0.532564 0.087198 0.558755
0.635864 0.088964 0.566230
0.734531 0.090434 0.569993
0.825696 0.091680 0.573774
0.080943 0.152280 0.544034
0.152069 0.155180 0.551355
0.239745 0.158134 0.558755
0.338129 0.160964 0.566230
0.442525 0.163549 0.569993
0.548832 0.165836 0.577571
0.653360 0.167832 0.581384
0.752779 0.169595 0.585212
0.844164 0.171209 0.585212
0.087175 0.248997 0.566230
0.160815 0.252092 0.573774
0.250850 0.255163 0.577571
0.351432 0.258062 0.581384
0.457725 0.260712 0.585212
0.565449 0.263103 0.589055
0.670754 0.265282 0.589055
0.770220 0.267331 0.592912
0.860925 0.269335 0.592912
0.091673 0.358181 0.581384
0.168115 0.361284 0.585212
0.260660 0.364308 0.589055
0.363322 0.367151 0.589055
0.471053 0.369789 0.592912
0.579371 0.372262 0.592912
0.684298 0.374652 0.592912
0.782398 0.377049 0.596782
0.870953 0.379511 0.600666
0.094802 0.473683 0.589055
0.174064 0.476575 0.592912
0.268860 0.479356 0.592912
0.372970 0.481990 0.596782
0.481097 0.484518 0.596782
0.588852 0.487022 0.600666
0.692727 0.489527 0.604561
0.789740 0.492031 0.604561
0.877432 0.494535 0.608469
0.098760 0.589091 0.596782
0.180445 0.591546 0.596782
0.276689 0.593997 0.600666
0.381386 0.596446 0.604561
0.489591 0.598893 0.604561
0.597316 0.601305 0.608469
0.701252 0.603651 0.612388
0.798233 0.605986 0.612388
0.885675 0.608347 0.612388
0.104453 0.699303 0.604561
0.187552 0.701616 0.608469
0.285114 0.703818 0.608469
0.391314 0.705873 0.612388
0.501080 0.707838 0.612388
0.610061 0.709783 0.616318
0.714571 0.711767 0.616318
0.811552 0.713826 0.616318
0.898558 0.715969 0.616318
0.113169 0.800826 0.612388
0.199441 0.802474 0.612388
0.299724 0.803996 0.616318
0.407897 0.805459 0.616318
0.518870 0.806941 0.616318
0.628353 0.808506 0.616318
0.732764 0.810195 0.620258
0.829176 0.812021 0.620258
0.915276 0.813970 0.620258
0.129177 0.889611 0.616318
0.217914 0.890698 0.620258
0.319931 0.891718 0.620258
0.429089 0.892768 0.620258
0.540340 0.893929 0.620258
0.649485 0.895255 0.620258
0.753066 0.896766 0.624207
0.848290 0.898449 0.624207
0.932968 0.900267 0.624207
0.074866 0.076037 0.624207
0.144091 0.078495 0.632133
0.230031 0.081071 0.640091
0.326741 0.083574 0.652077
0.429562 0.085860 0.660095
0.534503 0.087843 0.668128
0.637993 0.089503 0.676173
0.736802 0.090878 0.680199
0.828048 0.092044 0.684226
0.081675 0.153424 0.652077
0.153054 0.156271 0.656084
0.240976 0.159149 0.664110
0.339602 0.161886 0.672150
0.444222 0.164370 0.680199
0.550717 0.166556 0.684226
0.655375 0.168462 0.692280
0.754855 0.170152 0.696307
0.846226 0.171713 0.696307
0.087723 0.250185 0.676173
0.161644 0.253213 0.680199
0.251940 0.256199 0.688253
0.352753 0.259005 0.692280
0.459227 0.261564 0.696307
0.567063 0.263877 0.700333
0.672393 0.265999 0.700333
0.771792 0.268013 0.704358
0.862346 0.270007 0.704358
0.092035 0.359344 0.692280
0.168767 0.362375 0.696307
0.261557 0.365318 0.700333
0.364402 0.368083 0.704358
0.472228 0.370659 0.704358
0.580535 0.373094 0.704358
0.685336 0.375474 0.708380
0.783199 0.377894 0.708380
0.871617 0.380366 0.712399
0.095126 0.474738 0.704358
0.174657 0.477565 0.704358
0.269646 0.480283 0.708380
0.373847 0.482872 0.708380
0.481963 0.485384 0.712399
0.589701 0.487889 0.712399
0.693532 0.490393 0.716416
0.790479 0.492897 0.720428
0.878107 0.495400 0.720428
0.099331 0.589941 0.708380
0.181165 0.592394 0.712399
0.277499 0.594844 0.716416
0.382241 0.597292 0.716416
0.490461 0.599737 0.720428
0.598326 0.602121 0.720428
0.702341 0.604456 0.724436
0.799340 0.606795 0.724436
0.886753 0.609171 0.724436
0.105041 0.700104 0.716416
0.188377 0.702393 0.720428
0.286267 0.704543 0.724436
0.392718 0.706564 0.724436
0.502654 0.708515 0.724436
0.611728 0.710465 0.724436
0.716264 0.712467 0.724436
0.813217 0.714552 0.728439
0.900155 0.716726 0.728439
0.114610 0.801374 0.724436
0.201194 0.802997 0.724436
0.301716 0.804507 0.728439
0.410047 0.805976 0.728439
0.521099 0.807479 0.728439
0.630590 0.809077 0.728439
0.734950 0.810809 0.728439
0.831268 0.812679 0.728439
0.917242 0.814670 0.728439
0.131422 0.889942 0.728439
0.220380 0.891037 0.728439
0.322533 0.892079 0.728439
0.431745 0.893166 0.728439
0.542973 0.894376 0.728439
0.652030 0.895759 0.728439
0.755473 0.897329 0.728439
0.850525 0.899068 0.732437
0.935013 0.900937 0.732437
0.075663 0.077016 0.728439
0.145107 0.079437 0.736428
0.231260 0.081953 0.744391
0.328190 0.084374 0.752322
0.431232 0.086564 0.764151
0.536379 0.088446 0.771986
0.640042 0.090008 0.779773
0.738971 0.091296 0.783648
0.830279 0.092389 0.791357
0.082376 0.154517 0.756275
0.154006 0.157310 0.760218
0.242168 0.160114 0.768074
0.341027 0.162761 0.775886
0.445857 0.165150 0.783648
0.552522 0.167244 0.791357
0.657291 0.169069 0.795190
0.756812 0.170695 0.799008
0.848153 0.172212 0.802810
0.088248 0.251319 0.779773
0.162445 0.254283 0.783648
0.252993 0.257189 0.791357
0.354024 0.259910 0.795190
0.460664 0.262387 0.799008
0.568594 0.264632 0.802810
0.673933 0.266706 0.806597
0.773251 0.268696 0.806597
0.863642 0.270689 0.810366
0.092395 0.360457 0.799008
0.169409 0.363422 0.802810
0.262433 0.366292 0.802810
0.365446 0.368989 0.806597
0.473352 0.371513 0.806597
0.581635 0.373920 0.810366
0.686298 0.376303 0.810366
0.783945 0.378748 0.814118
0.872280 0.381221 0.814118
0.095472 0.475754 0.806597
0.175263 0.478524 0.810366
0.270433 0.481190 0.810366
0.374712 0.483744 0.814118
0.482829 0.486250 0.814118
0.590549 0.488755 0.817852
0.694336 0.491259 0.817852
0.791218 0.493763 0.821568
0.878803 0.496267 0.821568
0.099907 0.590790 0.814118
0.181885 0.593241 0.814118
0.278308 0.595691 0.817852
0.383097 0.598138 0.821568
0.491377 0.600573 0.821568
0.599380 0.602934 0.825265
0.703464 0.605263 0.825265
0.800472 0.607611 0.825265
0.887849 0.610003 0.825265
0.105631 0.700905 0.821568
0.189289 0.703153 0.821568
0.287483 0.705260 0.825265
0.394164 0.707255 0.825265
0.504250 0.709200 0.825265
0.613402 0.711158 0.825265
0.717951 0.713180 0.825265
0.814867 0.715293 0.825265
0.901730 0.717497 0.825265
0.116090 0.801924 0.825265
0.202965 0.803528 0.825265
0.303705 0.805033 0.825265
0.412176 0.806511 0.825265
0.523291 0.808037 0.825265
0.632777 0.809670 0.825265
0.737076 0.811442 0.825265
0.833291 0.813354 0.825265
0.919135 0.815385 0.825265
0.133630 0.890296 0.825265
0.222790 0.891401 0.825265
0.325063 0.892468 0.825265
0.434314 0.893592 0.825265
0.545507 0.894851 0.825265
0.654468 0.896288 0.825265
0.757767 0.897913 0.825265
0.852645 0.899704 0.825265
0.936941 0.901619 0.825265
0.076424 0.077939 0.821568
0.146087 0.080322 0.828943
0.232447 0.082778 0.836233
0.329586 0.085122 0.843416
0.432834 0.087223 0.853998
0.538166 0.089012 0.860933
0.641977 0.090486 0.867781
0.741004 0.091697 0.871174
0.832352 0.092728 0.877903
0.083043 0.155552 0.843416
0.154920 0.158294 0.850495
0.243314 0.161027 0.857477
0.342390 0.163592 0.864367
0.447412 0.165895 0.871174
0.554225 0.167907 0.877903
0.659085 0.169662 0.881240
0.758628 0.171234 0.884561
0.849923 0.172717 0.887866
0.088755 0.252398 0.867781
0.163220 0.255301 0.871174
0.254006 0.258135 0.877903
0.355240 0.260779 0.881240
0.462028 0.263186 0.884561
0.570034 0.265374 0.887866
0.675366 0.267410 0.891156
0.774593 0.269386 0.891156
0.864815 0.271386 0.894431
0.092762 0.361521 0.884561
0.170046 0.364427 0.887866
0.263289 0.367233 0.887866
0.366455 0.369873 0.891156
0.474427 0.372356 0.891156
0.582674 0.374747 0.894431
0.687195 0.377140 0.894431
0.784689 0.379603 0.897693
0.872942 0.382076 0.897693
0.095847 0.476735 0.891156
0.175885 0.479457 0.894431
0.271223 0.482081 0.894431
0.375568 0.484611 0.897693
0.483695 0.487116 0.897693
0.591397 0.489620 0.900942
0.695140 0.492125 0.900942
0.791962 0.494628 0.904180
0.879517 0.497135 0.904180
0.100484 0.591638 0.897693
0.182606 0.594089 0.897693
0.279118 0.596537 0.900942
0.383953 0.598984 0.900942
0.492341 0.601401 0.904180
0.600464 0.603746 0.904180
0.704601 0.606075 0.904180
0.801609 0.608433 0.904180
0.888942 0.610842 0.904180
0.106263 0.701696 0.900942
0.190261 0.703901 0.904180
0.288733 0.705975 0.904180
0.395619 0.707953 0.904180
0.505835 0.709894 0.904180
0.615048 0.711863 0.904180
0.719598 0.713907 0.904180
0.816468 0.716046 0.904180
0.903250 0.718278 0.900942
0.117567 0.802483 0.904180
0.204710 0.804074 0.904180
0.305645 0.805577 0.904180
0.414236 0.807067 0.904180
0.525399 0.808618 0.904180
0.634868 0.810284 0.900942
0.739099 0.812094 0.900942
0.835207 0.814045 0.900942
0.920919 0.816111 0.900942
0.135743 0.890679 0.904180
0.225088 0.891796 0.904180
0.327466 0.892888 0.904180
0.436744 0.894049 0.900942
0.547894 0.895352 0.900942
0.656754 0.896839 0.900942
0.759910 0.898514 0.900942
0.854614 0.900352 0.900942
0.938722 0.902307 0.900942
