v2/tools/blender-substrate/grade/luts/substrate-act3.cube
TITLE "Substrate Act 3 — Evidence"
# GRADE.md steps 1-7 (point-wise). Halation/grain/vignette excluded.
LUT_3D_SIZE 9
DOMAIN_MIN 0.0 0.0 0.0
DOMAIN_MAX 1.0 1.0 1.0
0.055000 0.055001 0.064450
0.127472 0.056247 0.067971
0.222256 0.057822 0.071494
0.331447 0.059478 0.075018
0.448494 0.060981 0.082069
0.567528 0.062158 0.082069
0.683046 0.062924 0.085597
0.789825 0.063295 0.085597
0.883008 0.063360 0.085597
0.057512 0.128244 0.075018
0.127332 0.128510 0.078543
0.222144 0.129077 0.082069
0.332044 0.129655 0.082069
0.450352 0.130027 0.085597
0.570988 0.130053 0.085597
0.688227 0.129686 0.085597
0.796660 0.128970 0.085597
0.891320 0.128008 0.085597
0.059809 0.224228 0.085597
0.127439 0.224193 0.085597
0.222833 0.224420 0.085597
0.334014 0.224583 0.085597
0.454089 0.224489 0.085597
0.576705 0.224040 0.085597
0.695867 0.223235 0.082069
0.805979 0.222150 0.078543
0.901998 0.220895 0.078543
0.060295 0.335891 0.085597
0.126105 0.335564 0.085597
0.222472 0.335451 0.085597
0.335157 0.335217 0.082069
0.456949 0.334712 0.078543
0.581167 0.333891 0.075018
0.701558 0.332799 0.071494
0.812405 0.331535 0.067971
0.908717 0.330203 0.067971
0.058421 0.456670 0.078543
0.122528 0.456022 0.078543
0.219901 0.455505 0.075018
0.333825 0.454834 0.071494
0.456674 0.453925 0.067971
0.581413 0.452798 0.064450
0.701579 0.451547 0.064450
0.811680 0.450272 0.064450
0.907422 0.448997 0.064450
0.055699 0.579326 0.067971
0.117904 0.578308 0.064450
0.215861 0.577269 0.064450
0.330223 0.576062 0.064450
0.453039 0.574801 0.064450
0.577500 0.573540 0.064450
0.697623 0.572278 0.064450
0.808149 0.571009 0.064450
0.904566 0.569705 0.064450
0.055000 0.696302 0.064450
0.114630 0.695113 0.064450
0.212153 0.693923 0.064450
0.326133 0.692731 0.064450
0.448968 0.691479 0.064450
0.574165 0.690067 0.064450
0.695417 0.688584 0.064450
0.807146 0.687115 0.064450
0.904579 0.685713 0.064450
0.055207 0.803707 0.064450
0.112271 0.802521 0.064450
0.210080 0.801137 0.064450
0.325212 0.799570 0.064450
0.449623 0.797880 0.064450
0.576159 0.796165 0.064450
0.698475 0.794521 0.064450
0.811051 0.793010 0.067971
0.909205 0.791651 0.067971
0.060789 0.896266 0.064450
0.115823 0.894966 0.064450
0.214288 0.893308 0.064450
0.330232 0.891503 0.064450
0.455385 0.889670 0.067971
0.582500 0.887927 0.067971
0.705241 0.886362 0.067971
0.818151 0.885012 0.067971
0.916633 0.883864 0.067971
0.055272 0.055421 0.131506
0.127466 0.056651 0.135038
0.222244 0.058196 0.138571
0.331503 0.059804 0.142103
0.448682 0.061242 0.145635
0.567889 0.062344 0.149166
0.683598 0.063034 0.149166
0.790563 0.063334 0.149166
0.883914 0.063340 0.149166
0.057728 0.128341 0.142103
0.127296 0.128578 0.142103
0.222118 0.129103 0.145635
0.332090 0.129625 0.149166
0.450515 0.129931 0.149166
0.571296 0.129885 0.149166
0.688685 0.129450 0.149166
0.797259 0.128675 0.149166
0.892043 0.127667 0.145635
0.059909 0.224228 0.149166
0.127306 0.224154 0.149166
0.222724 0.224328 0.149166
0.333976 0.224428 0.149166
0.454150 0.224266 0.149166
0.576874 0.223752 0.145635
0.696137 0.222891 0.142103
0.806334 0.221761 0.138571
0.902421 0.220476 0.135038
0.060249 0.335795 0.149166
0.125834 0.335424 0.145635
0.222225 0.335254 0.145635
0.334964 0.334958 0.142103
0.456822 0.334394 0.138571
0.581096 0.333522 0.135038
0.701523 0.332393 0.131506
0.812384 0.331107 0.127973
0.908694 0.329766 0.124440
0.058281 0.456466 0.138571
0.122155 0.455777 0.135038
0.219534 0.455208 0.131506
0.333480 0.454486 0.127973
0.456342 0.453535 0.124440
0.581069 0.452380 0.124440
0.701191 0.451120 0.120907
0.811326 0.449845 0.120907
0.907123 0.448570 0.120907
0.055597 0.578995 0.124440
0.117548 0.577947 0.124440
0.215479 0.576869 0.120907
0.329813 0.575640 0.120907
0.452612 0.574379 0.120907
0.577078 0.573117 0.120907
0.697226 0.571855 0.117374
0.807811 0.570581 0.117374
0.904307 0.569272 0.117374
0.055000 0.695904 0.120907
0.114335 0.694715 0.120907
0.211786 0.693524 0.117374
0.325723 0.692332 0.117374
0.448621 0.691057 0.117374
0.573895 0.689629 0.117374
0.695217 0.688142 0.117374
0.807012 0.686677 0.113842
0.904512 0.685284 0.113842
0.055319 0.803316 0.117374
0.112147 0.802114 0.117374
0.209970 0.800710 0.117374
0.325135 0.799129 0.113842
0.449586 0.797435 0.113842
0.576161 0.795726 0.113842
0.698515 0.794094 0.113842
0.811132 0.792599 0.113842
0.909332 0.791257 0.113842
0.061300 0.895833 0.113842
0.116064 0.894532 0.113842
0.214499 0.892873 0.113842
0.330431 0.891074 0.113842
0.455580 0.889254 0.113842
0.582695 0.887531 0.113842
0.705440 0.885990 0.113842
0.818363 0.884664 0.113842
0.916866 0.883538 0.110309
0.055626 0.055969 0.223050
0.127554 0.057178 0.226548
0.222353 0.058684 0.230044
0.331726 0.060226 0.233537
0.449096 0.061576 0.237027
0.568547 0.062576 0.237027
0.684518 0.063160 0.240515
0.791737 0.063363 0.240515
0.885314 0.063286 0.240515
0.058012 0.128568 0.230044
0.127348 0.128769 0.233537
0.222218 0.129239 0.233537
0.332315 0.129684 0.237027
0.450923 0.129896 0.237027
0.571917 0.129750 0.240515
0.689523 0.129218 0.237027
0.798296 0.128357 0.237027
0.893249 0.127281 0.237027
0.060035 0.224359 0.237027
0.127228 0.224234 0.237027
0.222716 0.224337 0.237027
0.334096 0.224348 0.237027
0.454432 0.224090 0.237027
0.577322 0.223482 0.237027
0.696733 0.222538 0.233537
0.807044 0.221343 0.230044
0.903211 0.220013 0.226548
0.060168 0.335821 0.237027
0.125559 0.335393 0.237027
0.222023 0.335143 0.233537
0.334871 0.334758 0.233537
0.456839 0.334106 0.230044
0.581201 0.333160 0.226548
0.701671 0.331977 0.223050
0.812527 0.330661 0.219549
0.908795 0.329312 0.216046
0.058061 0.456356 0.230044
0.121732 0.455612 0.226548
0.219161 0.454967 0.223050
0.333163 0.454170 0.219549
0.456053 0.453156 0.216046
0.580750 0.451963 0.216046
0.700795 0.450693 0.212541
0.810971 0.449418 0.212541
0.906824 0.448143 0.212541
0.055447 0.578699 0.216046
0.117167 0.577606 0.216046
0.215095 0.576471 0.212541
0.329403 0.575218 0.212541
0.452185 0.573957 0.212541
0.576656 0.572695 0.209034
0.696828 0.571433 0.209034
0.807504 0.570145 0.209034
0.904097 0.568832 0.209034
0.055000 0.695506 0.212541
0.114040 0.694316 0.212541
0.211420 0.693125 0.209034
0.325325 0.691930 0.209034
0.448376 0.690608 0.209034
0.573784 0.689155 0.205524
0.695217 0.687663 0.205524
0.807103 0.686207 0.205524
0.904682 0.684830 0.205524
0.055574 0.802885 0.209034
0.112212 0.801657 0.209034
0.210118 0.800218 0.205524
0.325385 0.798613 0.205524
0.449930 0.796912 0.205524
0.576583 0.795213 0.202013
0.698998 0.793605 0.202013
0.811664 0.792142 0.202013
0.909910 0.790833 0.202013
0.062293 0.895285 0.205524
0.116822 0.893980 0.205524
0.215276 0.892317 0.202013
0.331238 0.890527 0.202013
0.456410 0.888732 0.202013
0.583534 0.887047 0.202013
0.706278 0.885552 0.198500
0.819197 0.884275 0.198500
0.917702 0.883195 0.198500
0.056027 0.056590 0.322636
0.127701 0.057770 0.326014
0.222540 0.059224 0.329392
0.332052 0.060684 0.332768
0.449648 0.061928 0.336144
0.569376 0.062807 0.339520
0.685642 0.063269 0.339520
0.793141 0.063359 0.339520
0.886962 0.063188 0.339520
0.058325 0.128858 0.329392
0.127444 0.129015 0.332768
0.222383 0.129417 0.332768
0.332632 0.129768 0.336144
0.451454 0.129869 0.339520
0.572693 0.129606 0.339520
0.690542 0.128962 0.339520
0.799531 0.128005 0.339520
0.894663 0.126852 0.336144
0.060158 0.224540 0.336144
0.127164 0.224356 0.339520
0.222746 0.224373 0.339520
0.334282 0.224281 0.339520
0.454805 0.223912 0.339520
0.577883 0.223196 0.336144
0.697453 0.222160 0.336144
0.807881 0.220895 0.332768
0.904122 0.219518 0.329392
0.060053 0.335882 0.339520
0.125268 0.335389 0.339520
0.221827 0.335047 0.336144
0.334805 0.334561 0.332768
0.456901 0.333812 0.332768
0.581353 0.332784 0.329392
0.701858 0.331546 0.326014
0.812688 0.330203 0.322636
0.908884 0.328853 0.319256
0.057800 0.456263 0.332768
0.121281 0.455457 0.329392
0.218775 0.454728 0.326014
0.332844 0.453848 0.322636
0.455759 0.452769 0.322636
0.580408 0.451541 0.319256
0.700398 0.450266 0.319256
0.810615 0.448991 0.315875
0.906525 0.447717 0.315875
0.055294 0.578393 0.322636
0.116790 0.577253 0.319256
0.214720 0.576057 0.319256
0.328993 0.574796 0.319256
0.451758 0.573534 0.315875
0.576234 0.572272 0.315875
0.696437 0.571008 0.315875
0.807238 0.569704 0.312492
0.903933 0.568389 0.312492
0.055000 0.695108 0.315875
0.113745 0.693917 0.315875
0.211053 0.692726 0.315875
0.324994 0.691509 0.312492
0.448227 0.690140 0.312492
0.573788 0.688664 0.312492
0.695343 0.687170 0.309107
0.807328 0.685728 0.309107
0.904988 0.684374 0.305719
0.055972 0.802420 0.312492
0.112432 0.801165 0.312492
0.210444 0.799691 0.312492
0.325831 0.798063 0.309107
0.450485 0.796360 0.309107
0.577222 0.794678 0.305719
0.699699 0.793101 0.305719
0.812412 0.791678 0.302328
0.910697 0.790411 0.302328
0.063557 0.894687 0.309107
0.117858 0.893378 0.309107
0.216340 0.891715 0.305719
0.332339 0.889941 0.305719
0.457532 0.888179 0.302328
0.584659 0.886542 0.302328
0.707389 0.885105 0.298935
0.820289 0.883887 0.298935
0.918780 0.882863 0.298935
0.056447 0.057238 0.428122
0.127876 0.058381 0.431597
0.222768 0.059772 0.435079
0.332438 0.061139 0.438570
0.450274 0.062264 0.442068
0.570295 0.063010 0.445575
0.686867 0.063340 0.449091
0.794653 0.063311 0.449091
0.888721 0.063043 0.449091
0.058639 0.129165 0.435079
0.127551 0.129270 0.438570
0.222574 0.129594 0.442068
0.332991 0.129841 0.445575
0.452042 0.129821 0.445575
0.573538 0.129432 0.449091
0.691636 0.128670 0.449091
0.800844 0.127612 0.449091
0.896152 0.126382 0.445575
0.060263 0.224725 0.445575
0.127091 0.224476 0.445575
0.222781 0.224401 0.445575
0.334486 0.224197 0.449091
0.455207 0.223709 0.449091
0.578478 0.222882 0.445575
0.698206 0.221752 0.445575
0.808743 0.220417 0.442068
0.905045 0.218997 0.438570
0.059908 0.335938 0.449091
0.124953 0.335374 0.445575
0.221620 0.334936 0.445575
0.334735 0.334344 0.445575
0.456960 0.333495 0.442068
0.581499 0.332388 0.438570
0.702023 0.331099 0.435079
0.812804 0.329737 0.435079
0.908899 0.328395 0.431597
0.057515 0.456154 0.442068
0.120812 0.455285 0.442068
0.218377 0.454471 0.438570
0.332512 0.453509 0.435079
0.455443 0.452369 0.431597
0.580023 0.451114 0.431597
0.700001 0.449839 0.428122
0.810260 0.448565 0.428122
0.906226 0.447290 0.428122
0.055161 0.578063 0.431597
0.116433 0.576877 0.431597
0.214352 0.575635 0.431597
0.328584 0.574374 0.428122
0.451331 0.573112 0.428122
0.575812 0.571850 0.428122
0.696086 0.570575 0.424654
0.807019 0.569258 0.424654
0.903820 0.567948 0.421194
0.055000 0.694710 0.428122
0.113450 0.693519 0.428122
0.210687 0.692327 0.428122
0.324753 0.691068 0.424654
0.448178 0.689656 0.424654
0.573899 0.688162 0.421194
0.695580 0.686673 0.421194
0.807662 0.685252 0.417740
0.905403 0.683926 0.417740
0.056519 0.801923 0.424654
0.112805 0.800644 0.424654
0.210930 0.799138 0.421194
0.326442 0.797494 0.421194
0.451205 0.795794 0.417740
0.578025 0.794136 0.414293
0.700558 0.792599 0.414293
0.813311 0.791222 0.410851
0.911631 0.790002 0.410851
0.065035 0.894058 0.417740
0.119108 0.892748 0.417740
0.217617 0.891091 0.414293
0.333647 0.889339 0.414293
0.458854 0.887619 0.410851
0.585971 0.886039 0.410851
0.708674 0.884666 0.407416
0.821540 0.883516 0.407416
0.920005 0.882552 0.403986
0.056858 0.057874 0.540748
0.128051 0.058973 0.544608
0.223005 0.060293 0.548482
0.332837 0.061558 0.552371
0.450917 0.062558 0.560187
0.571230 0.063169 0.564115
0.688103 0.063366 0.568054
0.796167 0.063219 0.568054
0.890473 0.062854 0.568054
0.058933 0.129451 0.552371
0.127643 0.129500 0.552371
0.222756 0.129739 0.556272
0.333347 0.129878 0.560187
0.452628 0.129734 0.564115
0.574376 0.129217 0.568054
0.692717 0.128337 0.568054
0.802134 0.127182 0.568054
0.897608 0.125878 0.568054
0.060340 0.224878 0.564115
0.126994 0.224563 0.564115
0.222795 0.224392 0.564115
0.334670 0.224075 0.568054
0.455587 0.223469 0.568054
0.579043 0.222533 0.568054
0.698919 0.221314 0.564115
0.809549 0.219917 0.564115
0.905897 0.218460 0.560187
0.059737 0.335956 0.568054
0.124616 0.335324 0.568054
0.221389 0.334789 0.568054
0.334639 0.334094 0.564115
0.456986 0.333151 0.564115
0.581599 0.331972 0.560187
0.702126 0.330641 0.556272
0.812836 0.329271 0.556272
0.908809 0.327950 0.552371
0.057225 0.456008 0.564115
0.120336 0.455079 0.560187
0.217969 0.454184 0.560187
0.332164 0.453148 0.556272
0.455097 0.451957 0.556272
0.579603 0.450688 0.552371
0.699604 0.449413 0.552371
0.809905 0.448138 0.548482
0.905926 0.446863 0.548482
0.055064 0.577700 0.556272
0.116109 0.576473 0.552371
0.213984 0.575213 0.552371
0.328174 0.573951 0.552371
0.450904 0.572690 0.548482
0.575390 0.571427 0.548482
0.695785 0.570135 0.548482
0.806850 0.568813 0.544608
0.903757 0.567511 0.544608
0.055000 0.694311 0.552371
0.113156 0.693120 0.548482
0.210344 0.691922 0.548482
0.324609 0.690607 0.544608
0.448222 0.689160 0.544608
0.574099 0.687658 0.540748
0.695901 0.686180 0.540748
0.808078 0.684785 0.536903
0.905896 0.683492 0.533074
0.057201 0.801402 0.544608
0.113309 0.800103 0.544608
0.211540 0.798572 0.540748
0.327170 0.796919 0.540748
0.452034 0.795230 0.536903
0.578928 0.793603 0.533074
0.701511 0.792110 0.529261
0.814296 0.790784 0.529261
0.912643 0.789615 0.525465
0.066655 0.893418 0.536903
0.120495 0.892112 0.536903
0.219022 0.890466 0.533074
0.335071 0.888743 0.533074
0.460280 0.887070 0.529261
0.587375 0.885552 0.525465
0.710038 0.884250 0.521686
0.822858 0.883169 0.521686
0.921286 0.882268 0.517924
0.057240 0.058466 0.660819
0.128202 0.059517 0.664895
0.223219 0.060761 0.668971
0.333209 0.061923 0.677119
0.451524 0.062799 0.681189
0.572113 0.063277 0.689322
0.689268 0.063347 0.693383
0.797592 0.063088 0.693383
0.892116 0.062635 0.693383
0.059193 0.129685 0.673046
0.127703 0.129677 0.677119
0.222904 0.129832 0.681189
0.333660 0.129863 0.685257
0.453159 0.129598 0.689322
0.575145 0.128960 0.693383
0.693712 0.127970 0.693383
0.803320 0.126725 0.693383
0.898941 0.125355 0.693383
0.060386 0.224977 0.685257
0.126864 0.224596 0.689322
0.222771 0.224331 0.689322
0.334806 0.223906 0.693383
0.455905 0.223189 0.693383
0.579531 0.222153 0.693383
0.699536 0.220854 0.693383
0.810244 0.219404 0.693383
0.906622 0.217920 0.689322
0.059553 0.335919 0.693383
0.124258 0.335221 0.693383
0.221129 0.334596 0.693383
0.334503 0.333806 0.693383
0.456958 0.332778 0.689322
0.581628 0.331538 0.689322
0.702142 0.330179 0.685257
0.812767 0.328813 0.685257
0.908603 0.327522 0.685257
0.056949 0.455815 0.693383
0.119866 0.454831 0.689322
0.217556 0.453864 0.689322
0.331797 0.452764 0.685257
0.454718 0.451535 0.685257
0.579181 0.450261 0.681189
0.699207 0.448986 0.681189
0.809549 0.447711 0.681189
0.905626 0.446437 0.677119
0.055011 0.577307 0.685257
0.115811 0.576052 0.685257
0.213617 0.574790 0.681189
0.327764 0.573529 0.681189
0.450478 0.572267 0.681189
0.574980 0.571002 0.677119
0.695532 0.569691 0.677119
0.806723 0.568370 0.673046
0.903733 0.567083 0.673046
0.055000 0.693912 0.681189
0.112862 0.692721 0.681189
0.210094 0.691496 0.677119
0.324548 0.690134 0.677119
0.448335 0.688663 0.673046
0.574355 0.687158 0.673046
0.696270 0.685698 0.668971
0.808534 0.684333 0.664895
0.906425 0.683074 0.660819
0.057983 0.800870 0.673046
0.113903 0.799555 0.673046
0.212224 0.798007 0.668971
0.327956 0.796351 0.668971
0.452908 0.794680 0.664895
0.579864 0.793087 0.660819
0.702486 0.791642 0.656743
0.815296 0.790369 0.652667
0.913665 0.789249 0.652667
0.068333 0.892789 0.664895
0.121932 0.891488 0.664895
0.220463 0.889858 0.660819
0.336518 0.888169 0.656743
0.461714 0.886547 0.652667
0.588774 0.885093 0.652667
0.711387 0.883860 0.648591
0.824154 0.882849 0.644518
0.922537 0.882010 0.640446
0.057577 0.058988 0.773057
0.128308 0.059989 0.776924
0.223382 0.061160 0.780776
0.333518 0.062223 0.788434
0.452045 0.062983 0.792239
0.572883 0.063339 0.799797
0.690293 0.063293 0.803550
0.798848 0.062934 0.807285
0.893569 0.062403 0.807285
0.059410 0.129850 0.784613
0.127716 0.129786 0.788434
0.222995 0.129860 0.792239
0.333900 0.129790 0.796027
0.453595 0.129414 0.799797
0.575793 0.128666 0.803550
0.694560 0.127579 0.807285
0.804336 0.126255 0.807285
0.900087 0.124830 0.807285
0.060406 0.225005 0.799797
0.126698 0.224563 0.799797
0.222697 0.224213 0.803550
0.334873 0.223688 0.807285
0.456133 0.222873 0.807285
0.579905 0.221748 0.807285
0.700020 0.220383 0.807285
0.810790 0.218891 0.807285
0.907186 0.217390 0.807285
0.059368 0.335817 0.807285
0.123889 0.335061 0.807285
0.220842 0.334355 0.807285
0.334320 0.333482 0.807285
0.456864 0.332383 0.807285
0.581575 0.331095 0.803550
0.702063 0.329719 0.803550
0.812597 0.328367 0.803550
0.908312 0.327111 0.799797
0.056699 0.455571 0.807285
0.119412 0.454540 0.807285
0.217144 0.453512 0.803550
0.331414 0.452362 0.803550
0.454312 0.451109 0.803550
0.578760 0.449834 0.799797
0.698810 0.448559 0.799797
0.809193 0.447285 0.799797
0.905326 0.446010 0.796027
0.055000 0.576890 0.803550
0.115514 0.575629 0.799797
0.213249 0.574368 0.799797
0.327355 0.573107 0.799797
0.450051 0.571844 0.799797
0.574616 0.570570 0.796027
0.695315 0.569248 0.796027
0.806623 0.567933 0.792239
0.903731 0.566663 0.792239
0.055000 0.693514 0.799797
0.112571 0.692321 0.796027
0.209922 0.691055 0.796027
0.324540 0.689657 0.796027
0.448479 0.688170 0.792239
0.574626 0.686670 0.788434
0.696641 0.685231 0.784613
0.808985 0.683897 0.784613
0.906944 0.682673 0.780776
0.058808 0.800339 0.792239
0.114526 0.799013 0.792239
0.212917 0.797454 0.788434
0.328731 0.795803 0.784613
0.453753 0.794153 0.780776
0.580759 0.792597 0.776924
0.703411 0.791198 0.773057
0.816240 0.789976 0.773057
0.914627 0.788905 0.769175
0.069976 0.892185 0.784613
0.123324 0.890892 0.780776
0.221843 0.889283 0.780776
0.337888 0.887629 0.776924
0.463059 0.886057 0.773057
0.590076 0.884665 0.769175
0.712634 0.883500 0.765280
0.825345 0.882553 0.761372
0.923684 0.881772 0.757450
0.057858 0.059423 0.860425
0.128354 0.060378 0.863799
0.223474 0.061481 0.867157
0.333731 0.062456 0.873828
0.452440 0.063114 0.880444
0.573493 0.063364 0.883734
0.691120 0.063218 0.890281
0.799875 0.062775 0.893540
0.894765 0.062178 0.893540
0.059582 0.129932 0.870500
0.127674 0.129818 0.873828
0.223014 0.129820 0.877143
0.334043 0.129662 0.883734
0.453903 0.129189 0.887013
0.576282 0.128347 0.890281
0.695218 0.127178 0.893540
0.805137 0.125790 0.896790
0.900999 0.124321 0.896790
0.060404 0.224956 0.883734
0.126498 0.224461 0.887013
0.222567 0.224036 0.890281
0.334859 0.223427 0.893540
0.456251 0.222528 0.893540
0.580145 0.221331 0.896790
0.700349 0.219912 0.896790
0.811166 0.218390 0.896790
0.907575 0.216880 0.893540
0.059196 0.335649 0.893540
0.123518 0.334843 0.893540
0.220531 0.334070 0.896790
0.334089 0.333128 0.896790
0.456701 0.331972 0.896790
0.581438 0.330649 0.893540
0.701896 0.329266 0.893540
0.812341 0.327935 0.893540
0.908014 0.326702 0.890281
0.056487 0.455281 0.896790
0.118982 0.454212 0.893540
0.216736 0.453136 0.893540
0.331020 0.451948 0.893540
0.453886 0.450682 0.893540
0.578338 0.449407 0.890281
0.698413 0.448133 0.890281
0.808837 0.446858 0.890281
0.905026 0.445584 0.890281
0.055000 0.576468 0.893540
0.115218 0.575207 0.893540
0.212882 0.573946 0.890281
0.326945 0.572684 0.890281
0.449624 0.571422 0.890281
0.574285 0.570134 0.887013
0.695113 0.568807 0.887013
0.806528 0.567502 0.883734
0.903726 0.566250 0.883734
0.055000 0.693115 0.890281
0.112333 0.691910 0.890281
0.209796 0.690607 0.887013
0.324545 0.689184 0.887013
0.448609 0.687689 0.883734
0.574862 0.686197 0.880444
0.696964 0.684780 0.877143
0.809379 0.683477 0.873828
0.907402 0.682285 0.873828
0.059611 0.799821 0.883734
0.115111 0.798490 0.883734
0.213547 0.796926 0.880444
0.329421 0.795283 0.877143
0.454494 0.793655 0.873828
0.581536 0.792135 0.870500
0.704211 0.790780 0.867157
0.817057 0.789603 0.863799
0.915463 0.788575 0.860425
0.071484 0.891622 0.877143
0.124572 0.890338 0.873828
0.223064 0.888749 0.870500
0.339085 0.887129 0.867157
0.464223 0.885605 0.863799
0.591194 0.884270 0.860425
0.713697 0.883165 0.857033
0.826357 0.882276 0.857033
0.924657 0.881545 0.853624
