v2/tools/blender-substrate/grade/luts/substrate-act4.cube
TITLE "Substrate Act 4 — About"
# GRADE.md steps 1-7 (point-wise). Halation/grain/vignette excluded.
LUT_3D_SIZE 5
DOMAIN_MIN 0.0 0.0 0.0
DOMAIN_MAX 1.0 1.0 1.0
0.065000 0.065001 0.083700
0.219834 0.067620 0.090442
0.429629 0.070628 0.097176
0.646056 0.072616 0.103902
0.835304 0.073267 0.103902
0.069683 0.227703 0.103902
0.227166 0.230037 0.103902
0.442676 0.232209 0.103902
0.665617 0.233190 0.100540
0.859550 0.233154 0.097176
0.068627 0.451293 0.097176
0.231498 0.452780 0.093810
0.453236 0.453767 0.087072
0.678933 0.453976 0.083700
0.871068 0.453976 0.083700
0.065000 0.679003 0.083700
0.231168 0.679003 0.083700
0.454006 0.678994 0.083700
0.680147 0.678637 0.083700
0.873517 0.678196 0.083700
0.068281 0.870059 0.083700
0.238060 0.868938 0.083700
0.466027 0.867309 0.083700
0.695315 0.865917 0.087072
0.889483 0.865169 0.087072
0.065585 0.065906 0.224688
0.220575 0.068455 0.231437
0.430910 0.071240 0.241579
0.648088 0.072911 0.248354
0.837994 0.073267 0.251746
0.069928 0.228556 0.244965
0.227783 0.230697 0.248354
0.443872 0.232569 0.251746
0.667313 0.233255 0.248354
0.861456 0.233020 0.244965
0.068252 0.451878 0.244965
0.231511 0.453130 0.241579
0.453514 0.453872 0.238196
0.679003 0.453976 0.234815
0.871068 0.453976 0.234815
0.065000 0.679003 0.234815
0.231168 0.679003 0.234815
0.454177 0.678946 0.234815
0.680739 0.678506 0.234815
0.874286 0.678085 0.234815
0.069665 0.869703 0.234815
0.239858 0.868524 0.234815
0.468118 0.866922 0.234815
0.697458 0.865648 0.234815
0.891529 0.865046 0.234815
0.066356 0.067098 0.419757
0.221601 0.069504 0.430248
0.432683 0.071946 0.437281
0.650845 0.073172 0.447894
0.841574 0.073134 0.451450
0.070169 0.229604 0.444348
0.228542 0.231467 0.447894
0.445393 0.232930 0.451450
0.669443 0.233240 0.451450
0.863779 0.232776 0.451450
0.067723 0.452533 0.451450
0.231485 0.453487 0.447894
0.453780 0.453949 0.444348
0.679003 0.453976 0.444348
0.871068 0.453976 0.444348
0.065000 0.679003 0.444348
0.231168 0.679003 0.444348
0.454656 0.678830 0.444348
0.681749 0.678329 0.444348
0.875508 0.677966 0.440810
0.071889 0.869183 0.444348
0.242575 0.867964 0.440810
0.471152 0.866438 0.440810
0.700493 0.865350 0.437281
0.894378 0.864958 0.437281
0.067101 0.068251 0.645026
0.222654 0.070462 0.657900
0.434510 0.072513 0.670746
0.653633 0.073275 0.679281
0.845124 0.072851 0.687783
0.070311 0.230539 0.679281
0.229224 0.232105 0.683537
0.446823 0.233159 0.692019
0.671412 0.233120 0.692019
0.865836 0.232476 0.692019
0.067178 0.453050 0.692019
0.231422 0.453732 0.692019
0.453931 0.453974 0.687783
0.679003 0.453976 0.687783
0.871068 0.453976 0.687783
0.065000 0.679003 0.687783
0.231183 0.679000 0.687783
0.455443 0.678674 0.687783
0.683027 0.678162 0.683537
0.876969 0.677890 0.683537
0.074551 0.868628 0.683537
0.245661 0.867410 0.683537
0.474464 0.866003 0.679281
0.703719 0.865128 0.675018
0.897351 0.864959 0.670746
0.067698 0.069175 0.836378
0.223550 0.071184 0.846290
0.436080 0.072876 0.859284
0.655992 0.073239 0.868886
0.848074 0.072501 0.875228
0.070350 0.231232 0.865697
0.229736 0.232537 0.872062
0.447950 0.233250 0.878384
0.672934 0.232946 0.881530
0.867343 0.232195 0.881530
0.066719 0.453385 0.881530
0.231352 0.453864 0.881530
0.453976 0.453976 0.881530
0.679003 0.453976 0.881530
0.871068 0.453976 0.881530
0.065000 0.679003 0.881530
0.231408 0.678952 0.881530
0.456362 0.678524 0.878384
0.684327 0.678041 0.875228
0.878396 0.677868 0.872062
0.077141 0.868145 0.875228
0.248550 0.866959 0.872062
0.477467 0.865682 0.868886
0.706577 0.865007 0.862497
0.899936 0.865033 0.859284
