v2/tools/blender-substrate/grade/luts/substrate-act4.cube
TITLE "Substrate Act 4 — About"
# GRADE.md steps 1-7 (point-wise). Halation/grain/vignette excluded.
LUT_3D_SIZE 9
DOMAIN_MIN 0.0 0.0 0.0
DOMAIN_MAX 1.0 1.0 1.0
0.065000 0.065001 0.083700
0.131443 0.066144 0.087072
0.219834 0.067620 0.090442
0.321379 0.069185 0.093810
0.429629 0.070628 0.097176
0.539350 0.071796 0.100540
0.646056 0.072616 0.103902
0.745831 0.073086 0.103902
0.835304 0.073267 0.103902
0.067396 0.134620 0.093810
0.134086 0.135740 0.097176
0.223090 0.137128 0.097176
0.325660 0.138530 0.100540
0.435272 0.139749 0.103902
0.546533 0.140662 0.103902
0.654782 0.141227 0.103902
0.755949 0.141473 0.103902
0.846566 0.141476 0.103902
0.069683 0.227703 0.103902
0.137034 0.228772 0.103902
0.227166 0.230037 0.103902
0.331277 0.231240 0.103902
0.442676 0.232209 0.103902
0.555749 0.232860 0.103902
0.665617 0.233190 0.100540
0.768062 0.233259 0.100540
0.859550 0.233154 0.097176
0.070281 0.335575 0.103902
0.138691 0.336529 0.103902
0.230335 0.337602 0.103902
0.336209 0.338557 0.100540
0.449363 0.339259 0.097176
0.563917 0.339673 0.093810
0.674789 0.339835 0.090442
0.777663 0.339828 0.090442
0.869035 0.339739 0.087072
0.068627 0.451293 0.097176
0.138288 0.452019 0.097176
0.231498 0.452780 0.093810
0.338910 0.453388 0.090442
0.453236 0.453767 0.087072
0.568322 0.453937 0.083700
0.678933 0.453976 0.083700
0.780815 0.453976 0.083700
0.871068 0.453976 0.083700
0.065987 0.568023 0.087072
0.136801 0.568370 0.087072
0.231231 0.568647 0.083700
0.339482 0.568752 0.083700
0.453976 0.568753 0.083700
0.568753 0.568753 0.083700
0.679003 0.568753 0.083700
0.780815 0.568753 0.083700
0.871122 0.568734 0.083700
0.065000 0.679003 0.083700
0.136393 0.679003 0.083700
0.231168 0.679003 0.083700
0.339483 0.679003 0.083700
0.454006 0.678994 0.083700
0.569203 0.678861 0.083700
0.680147 0.678637 0.083700
0.782676 0.678399 0.083700
0.873517 0.678196 0.083700
0.065000 0.780815 0.083700
0.136523 0.780775 0.083700
0.231945 0.780574 0.083700
0.341477 0.780194 0.083700
0.457583 0.779687 0.083700
0.574083 0.779136 0.083700
0.685905 0.778624 0.083700
0.788963 0.778204 0.087072
0.880078 0.777900 0.087072
0.068281 0.870059 0.083700
0.141146 0.869604 0.083700
0.238060 0.868938 0.083700
0.348918 0.868140 0.083700
0.466027 0.867309 0.083700
0.583171 0.866545 0.087072
0.695315 0.865917 0.087072
0.798450 0.865460 0.087072
0.889483 0.865169 0.087072
0.065252 0.065390 0.144153
0.131708 0.066528 0.147502
0.220149 0.067984 0.150851
0.321789 0.069510 0.154200
0.430174 0.070899 0.160898
0.540054 0.072003 0.164247
0.646925 0.072753 0.164247
0.746855 0.073157 0.167596
0.836460 0.073277 0.167596
0.067615 0.135006 0.154200
0.134343 0.136107 0.157549
0.223423 0.137461 0.160898
0.326105 0.138813 0.164247
0.435855 0.139969 0.164247
0.547266 0.140813 0.167596
0.655657 0.141309 0.167596
0.756946 0.141493 0.167596
0.847657 0.141443 0.167596
0.069795 0.228077 0.164247
0.137208 0.229113 0.164247
0.227436 0.230329 0.167596
0.331668 0.231471 0.167596
0.443196 0.232373 0.167596
0.556389 0.232957 0.167596
0.666356 0.233227 0.164247
0.768867 0.233245 0.160898
0.860386 0.233102 0.160898
0.070240 0.335913 0.167596
0.138726 0.336824 0.167596
0.230473 0.337841 0.164247
0.336458 0.338731 0.164247
0.449710 0.339370 0.160898
0.564332 0.339726 0.157549
0.675232 0.339846 0.157549
0.778089 0.339810 0.154200
0.869405 0.339707 0.150851
0.068468 0.451554 0.160898
0.138207 0.452235 0.160898
0.231508 0.452940 0.157549
0.338997 0.453489 0.154200
0.453364 0.453818 0.150851
0.568439 0.453953 0.150851
0.678981 0.453976 0.147502
0.780815 0.453976 0.147502
0.871068 0.453976 0.147502
0.065845 0.568155 0.150851
0.136723 0.568459 0.150851
0.231210 0.568688 0.150851
0.339483 0.568753 0.147502
0.453976 0.568753 0.147502
0.568753 0.568753 0.147502
0.679003 0.568753 0.147502
0.780817 0.568752 0.147502
0.871162 0.568724 0.147502
0.065000 0.679003 0.147502
0.136393 0.679003 0.147502
0.231168 0.679003 0.147502
0.339483 0.679003 0.147502
0.454060 0.678978 0.147502
0.569365 0.678817 0.147502
0.680385 0.678581 0.150851
0.782963 0.678343 0.150851
0.873832 0.678146 0.150851
0.065007 0.780812 0.147502
0.136648 0.780738 0.147502
0.232209 0.780501 0.147502
0.341868 0.780094 0.150851
0.458075 0.779572 0.150851
0.574647 0.779020 0.150851
0.686512 0.778518 0.150851
0.789592 0.778115 0.150851
0.880713 0.777831 0.150851
0.068846 0.869911 0.150851
0.141799 0.869439 0.150851
0.238808 0.868761 0.150851
0.349745 0.867961 0.150851
0.466907 0.867141 0.150851
0.584076 0.866397 0.150851
0.696222 0.865797 0.150851
0.799343 0.865371 0.150851
0.890353 0.865110 0.150851
0.065585 0.065906 0.224688
0.132063 0.067032 0.228061
0.220575 0.068455 0.231437
0.322345 0.069927 0.238196
0.430910 0.071240 0.241579
0.541001 0.072255 0.244965
0.648088 0.072911 0.248354
0.748219 0.073225 0.248354
0.837994 0.073267 0.251746
0.067897 0.135510 0.234815
0.134679 0.136583 0.238196
0.223861 0.137886 0.241579
0.326694 0.139168 0.244965
0.436629 0.140238 0.248354
0.548235 0.140990 0.248354
0.656810 0.141396 0.251746
0.758256 0.141498 0.251746
0.849085 0.141380 0.248354
0.069928 0.228556 0.244965
0.137426 0.229548 0.248354
0.227783 0.230697 0.248354
0.332174 0.231757 0.251746
0.443872 0.232569 0.251746
0.557222 0.233064 0.248354
0.667313 0.233255 0.248354
0.769902 0.233210 0.248354
0.861456 0.233020 0.244965
0.070169 0.336339 0.251746
0.138759 0.337195 0.251746
0.230642 0.338136 0.248354
0.336771 0.338941 0.248354
0.450149 0.339497 0.244965
0.564856 0.339782 0.244965
0.675783 0.339847 0.241579
0.778608 0.339779 0.238196
0.869841 0.339664 0.238196
0.068252 0.451878 0.244965
0.138093 0.452500 0.244965
0.231511 0.453130 0.241579
0.339098 0.453605 0.241579
0.453514 0.453872 0.238196
0.568566 0.453967 0.234815
0.679003 0.453976 0.234815
0.780815 0.453976 0.234815
0.871068 0.453976 0.234815
0.065669 0.568307 0.238196
0.136628 0.568558 0.238196
0.231187 0.568726 0.234815
0.339483 0.568753 0.234815
0.453976 0.568753 0.234815
0.568753 0.568753 0.234815
0.679003 0.568753 0.234815
0.780840 0.568746 0.234815
0.871235 0.568708 0.234815
0.065000 0.679003 0.234815
0.136393 0.679003 0.234815
0.231168 0.679003 0.234815
0.339483 0.679003 0.234815
0.454177 0.678946 0.234815
0.569622 0.678754 0.234815
0.680739 0.678506 0.234815
0.783380 0.678269 0.234815
0.874286 0.678085 0.234815
0.065079 0.780792 0.234815
0.136879 0.780673 0.234815
0.232619 0.780393 0.234815
0.342442 0.779954 0.234815
0.458778 0.779418 0.234815
0.575440 0.778869 0.234815
0.687359 0.778382 0.234815
0.790464 0.778005 0.234815
0.881590 0.777750 0.234815
0.069665 0.869703 0.234815
0.142730 0.869214 0.234815
0.239858 0.868524 0.234815
0.350892 0.867725 0.234815
0.468118 0.866922 0.234815
0.585315 0.866208 0.234815
0.697458 0.865648 0.234815
0.800555 0.865264 0.234815
0.891529 0.865046 0.234815
0.065963 0.066490 0.320215
0.132471 0.067596 0.323638
0.221070 0.068977 0.327059
0.322993 0.070379 0.333895
0.431766 0.071600 0.337311
0.542095 0.072510 0.340726
0.649426 0.073057 0.344140
0.749779 0.073269 0.344140
0.839740 0.073221 0.347554
0.068205 0.136071 0.330478
0.135053 0.137107 0.333895
0.224357 0.138348 0.337311
0.327364 0.139545 0.340726
0.437508 0.140515 0.344140
0.549335 0.141160 0.347554
0.658115 0.141462 0.347554
0.759731 0.141472 0.347554
0.850685 0.141280 0.347554
0.070058 0.229080 0.340726
0.137656 0.230017 0.344140
0.228162 0.231088 0.344140
0.332735 0.232053 0.347554
0.444624 0.232762 0.347554
0.558147 0.233157 0.347554
0.668370 0.233262 0.347554
0.771039 0.233148 0.344140
0.862620 0.232910 0.344140
0.070069 0.336796 0.347554
0.138777 0.337586 0.347554
0.230815 0.338441 0.347554
0.337106 0.339152 0.347554
0.450622 0.339615 0.344140
0.565416 0.339823 0.344140
0.676363 0.339833 0.340726
0.779137 0.339735 0.340726
0.870260 0.339613 0.337311
0.067997 0.452215 0.344140
0.137955 0.452770 0.344140
0.231504 0.453319 0.340726
0.339197 0.453714 0.340726
0.453658 0.453917 0.337311
0.568670 0.453974 0.337311
0.679003 0.453976 0.337311
0.780815 0.453976 0.337311
0.871068 0.453976 0.337311
0.065487 0.568451 0.337311
0.136536 0.568643 0.337311
0.231172 0.568749 0.337311
0.339483 0.568753 0.337311
0.453976 0.568753 0.337311
0.568753 0.568753 0.337311
0.679003 0.568753 0.337311
0.780897 0.568733 0.337311
0.871349 0.568688 0.337311
0.065000 0.679003 0.337311
0.136393 0.679003 0.337311
0.231168 0.679003 0.337311
0.339488 0.679002 0.337311
0.454373 0.678896 0.337311
0.569974 0.678675 0.337311
0.681199 0.678419 0.337311
0.783908 0.678190 0.337311
0.874852 0.678022 0.333895
0.065259 0.780742 0.337311
0.137235 0.780579 0.337311
0.233173 0.780255 0.337311
0.343175 0.779786 0.337311
0.459651 0.779240 0.337311
0.576408 0.778700 0.333895
0.688382 0.778237 0.333895
0.791510 0.777891 0.333895
0.882638 0.777671 0.333895
0.070694 0.869455 0.337311
0.143880 0.868949 0.337311
0.241136 0.868251 0.333895
0.352272 0.867460 0.333895
0.469561 0.866681 0.333895
0.586780 0.866006 0.333895
0.698912 0.865493 0.333895
0.801973 0.865161 0.333895
0.892900 0.864992 0.333895
0.066356 0.067098 0.419757
0.132904 0.068177 0.423247
0.221601 0.069504 0.430248
0.323689 0.070826 0.433761
0.432683 0.071946 0.437281
0.543263 0.072740 0.444348
0.650845 0.073172 0.447894
0.751425 0.073275 0.447894
0.841574 0.073134 0.451450
0.068512 0.136645 0.433761
0.135435 0.137636 0.433761
0.224872 0.138807 0.440810
0.328066 0.139910 0.444348
0.438431 0.140771 0.447894
0.550486 0.141302 0.447894
0.659475 0.141496 0.451450
0.761260 0.141412 0.451450
0.852336 0.141143 0.451450
0.070169 0.229604 0.444348
0.137876 0.230482 0.447894
0.228542 0.231467 0.447894
0.333307 0.232329 0.451450
0.445393 0.232930 0.451450
0.559091 0.233224 0.451450
0.669443 0.233240 0.451450
0.772184 0.233059 0.451450
0.863779 0.232776 0.451450
0.069940 0.337242 0.451450
0.138775 0.337964 0.451450
0.230975 0.338728 0.451450
0.337433 0.339341 0.451450
0.451087 0.339712 0.451450
0.565961 0.339845 0.447894
0.676915 0.339805 0.447894
0.779620 0.339684 0.444348
0.870610 0.339564 0.444348
0.067723 0.452533 0.451450
0.137802 0.453020 0.451450
0.231485 0.453487 0.447894
0.339282 0.453805 0.447894
0.453780 0.453949 0.444348
0.568735 0.453976 0.444348
0.679003 0.453976 0.444348
0.780815 0.453976 0.444348
0.871068 0.453976 0.444348
0.065320 0.568569 0.444348
0.136461 0.568705 0.444348
0.231168 0.568753 0.444348
0.339483 0.568753 0.444348
0.453976 0.568753 0.444348
0.568753 0.568753 0.444348
0.679010 0.568752 0.444348
0.780996 0.568715 0.444348
0.871508 0.568668 0.444348
0.065000 0.679003 0.444348
0.136393 0.679003 0.444348
0.231168 0.679003 0.444348
0.339561 0.678983 0.444348
0.454656 0.678830 0.444348
0.570415 0.678587 0.444348
0.681749 0.678329 0.444348
0.784526 0.678112 0.444348
0.875508 0.677966 0.440810
0.065561 0.780663 0.444348
0.137717 0.780459 0.444348
0.233856 0.780096 0.444348
0.344038 0.779604 0.444348
0.460653 0.779053 0.440810
0.577503 0.778528 0.440810
0.689528 0.778094 0.440810
0.792674 0.777785 0.440810
0.883798 0.777605 0.440810
0.071889 0.869183 0.444348
0.145196 0.868665 0.444348
0.242575 0.867964 0.440810
0.353809 0.867186 0.440810
0.471152 0.866438 0.440810
0.588384 0.865809 0.440810
0.700493 0.865350 0.437281
0.803509 0.865073 0.437281
0.894378 0.864958 0.437281
0.066741 0.067694 0.528906
0.133335 0.068740 0.532781
0.222137 0.070007 0.536686
0.324396 0.071242 0.544580
0.433612 0.072254 0.548568
0.544440 0.072931 0.552580
0.652268 0.073245 0.560675
0.753069 0.073240 0.560675
0.843396 0.073008 0.564757
0.068799 0.137197 0.540620
0.135803 0.138139 0.544580
0.225378 0.139235 0.548568
0.328761 0.140240 0.556616
0.439346 0.140989 0.560675
0.551624 0.141405 0.564757
0.660814 0.141492 0.564757
0.762759 0.141317 0.568859
0.853944 0.140976 0.568859
0.070254 0.230097 0.556616
0.138073 0.230912 0.560675
0.228901 0.231810 0.560675
0.333857 0.232570 0.564757
0.446137 0.233064 0.568859
0.560001 0.233257 0.568859
0.670471 0.233191 0.568859
0.773271 0.232949 0.568859
0.864866 0.232628 0.564757
0.069789 0.337652 0.564757
0.138751 0.338305 0.568859
0.231113 0.338980 0.568859
0.337733 0.339497 0.568859
0.451516 0.339781 0.568859
0.566459 0.339846 0.564757
0.677405 0.339764 0.564757
0.780023 0.339630 0.564757
0.870862 0.339522 0.560675
0.067445 0.452814 0.568859
0.137644 0.453236 0.564757
0.231457 0.453626 0.564757
0.339349 0.453872 0.564757
0.453871 0.453967 0.560675
0.568753 0.453976 0.560675
0.679003 0.453976 0.560675
0.780815 0.453976 0.560675
0.871068 0.453976 0.560675
0.065184 0.568656 0.564757
0.136412 0.568741 0.560675
0.231168 0.568753 0.560675
0.339483 0.568753 0.560675
0.453976 0.568753 0.560675
0.568753 0.568753 0.560675
0.679059 0.568742 0.560675
0.781140 0.568695 0.560675
0.871710 0.568651 0.560675
0.065000 0.679003 0.560675
0.136393 0.679003 0.560675
0.231168 0.679003 0.560675
0.339720 0.678946 0.560675
0.455019 0.678754 0.560675
0.570930 0.678496 0.560675
0.682368 0.678241 0.560675
0.785209 0.678042 0.556616
0.876224 0.677921 0.556616
0.065981 0.780560 0.560675
0.138311 0.780320 0.560675
0.234642 0.779925 0.560675
0.344995 0.779417 0.560675
0.461740 0.778869 0.556616
0.578673 0.778365 0.556616
0.690740 0.777964 0.556616
0.793896 0.777696 0.552580
0.885011 0.777557 0.552580
0.073196 0.868902 0.560675
0.146615 0.868377 0.556616
0.244108 0.867679 0.556616
0.355426 0.866921 0.556616
0.472812 0.866209 0.552580
0.590044 0.865628 0.552580
0.702120 0.865226 0.552580
0.805080 0.865008 0.548568
0.895885 0.864947 0.548568
0.067101 0.068251 0.645026
0.133744 0.069258 0.649318
0.222654 0.070462 0.657900
0.325080 0.071608 0.662186
0.434510 0.072513 0.670746
0.545574 0.073075 0.675018
0.653633 0.073275 0.679281
0.754636 0.073169 0.683537
0.845124 0.072851 0.687783
0.069055 0.137703 0.662186
0.136141 0.138595 0.666469
0.225852 0.139613 0.670746
0.329418 0.140521 0.675018
0.440213 0.141162 0.683537
0.552701 0.141469 0.687783
0.662075 0.141455 0.687783
0.764162 0.141195 0.692019
0.855442 0.140790 0.692019
0.070311 0.230539 0.679281
0.138240 0.231293 0.683537
0.229224 0.232105 0.683537
0.334363 0.232766 0.687783
0.446823 0.233159 0.692019
0.560839 0.233260 0.692019
0.671412 0.233120 0.692019
0.774254 0.232826 0.692019
0.865836 0.232476 0.692019
0.069624 0.338010 0.692019
0.138708 0.338597 0.692019
0.231224 0.339188 0.692019
0.337995 0.339618 0.692019
0.451895 0.339824 0.692019
0.566892 0.339830 0.692019
0.677815 0.339718 0.692019
0.780334 0.339581 0.692019
0.871012 0.339494 0.687783
0.067178 0.453050 0.692019
0.137489 0.453412 0.692019
0.231422 0.453732 0.692019
0.339398 0.453918 0.692019
0.453931 0.453974 0.687783
0.568753 0.453976 0.687783
0.679003 0.453976 0.687783
0.780815 0.453976 0.687783
0.871068 0.453976 0.687783
0.065085 0.568711 0.687783
0.136393 0.568753 0.687783
0.231168 0.568753 0.687783
0.339483 0.568753 0.687783
0.453976 0.568753 0.687783
0.568753 0.568753 0.687783
0.679152 0.568727 0.687783
0.781322 0.568675 0.687783
0.871947 0.568640 0.687783
0.065000 0.679003 0.687783
0.136393 0.679003 0.687783
0.231183 0.679000 0.687783
0.339955 0.678895 0.687783
0.455443 0.678674 0.687783
0.571495 0.678407 0.687783
0.683027 0.678162 0.683537
0.785924 0.677984 0.683537
0.876969 0.677890 0.683537
0.066495 0.780442 0.687783
0.138984 0.780172 0.687783
0.235491 0.779754 0.687783
0.345999 0.779236 0.683537
0.462859 0.778697 0.683537
0.579864 0.778217 0.683537
0.691963 0.777853 0.679281
0.795123 0.777627 0.679281
0.886222 0.777530 0.675018
0.074551 0.868628 0.683537
0.148070 0.868100 0.683537
0.245661 0.867410 0.683537
0.357049 0.866676 0.679281
0.474464 0.866003 0.679281
0.591686 0.865474 0.675018
0.703719 0.865128 0.675018
0.806617 0.864968 0.670746
0.897351 0.864959 0.670746
0.067423 0.068748 0.753549
0.134117 0.069717 0.757468
0.223130 0.070856 0.765219
0.325714 0.071916 0.772845
0.435342 0.072720 0.776609
0.546621 0.073173 0.784032
0.654887 0.073270 0.787692
0.756070 0.073071 0.791325
0.846699 0.072678 0.794931
0.069272 0.138147 0.769048
0.136438 0.138989 0.772845
0.226278 0.139934 0.780338
0.330015 0.140750 0.784032
0.441001 0.141290 0.787692
0.553677 0.141496 0.794931
0.663215 0.141392 0.794931
0.765424 0.141058 0.798512
0.856780 0.140597 0.798512
0.070341 0.230919 0.787692
0.138374 0.231614 0.787692
0.229504 0.232347 0.791325
0.334809 0.232917 0.794931
0.447431 0.233219 0.798512
0.561580 0.233239 0.798512
0.672237 0.233035 0.802067
0.775107 0.232699 0.802067
0.866664 0.232328 0.802067
0.069455 0.338310 0.798512
0.138653 0.338837 0.798512
0.231309 0.339353 0.798512
0.338216 0.339705 0.802067
0.452215 0.339844 0.802067
0.567252 0.339804 0.802067
0.678141 0.339671 0.798512
0.780553 0.339540 0.798512
0.871067 0.339483 0.798512
0.066933 0.453239 0.802067
0.137347 0.453548 0.802067
0.231386 0.453810 0.798512
0.339432 0.453947 0.798512
0.453964 0.453976 0.798512
0.568753 0.453976 0.798512
0.679003 0.453976 0.798512
0.780815 0.453976 0.798512
0.871068 0.453976 0.798512
0.065026 0.568741 0.798512
0.136393 0.568753 0.798512
0.231168 0.568753 0.798512
0.339483 0.568753 0.798512
0.453976 0.568753 0.798512
0.568763 0.568751 0.798512
0.679281 0.568710 0.798512
0.781532 0.568659 0.798512
0.872206 0.568634 0.798512
0.065000 0.679003 0.798512
0.136393 0.679003 0.798512
0.231268 0.678981 0.798512
0.340246 0.678837 0.798512
0.455901 0.678596 0.798512
0.572077 0.678327 0.794931
0.683692 0.678095 0.794931
0.786637 0.677940 0.791325
0.877705 0.677873 0.791325
0.067065 0.780317 0.798512
0.139696 0.780026 0.798512
0.236357 0.779591 0.794931
0.347000 0.779070 0.794931
0.463958 0.778544 0.791325
0.581020 0.778091 0.791325
0.693142 0.777763 0.787692
0.796298 0.777577 0.787692
0.887378 0.777521 0.784032
0.075889 0.868372 0.794931
0.149491 0.867845 0.791325
0.247164 0.867168 0.791325
0.358606 0.866460 0.787692
0.476037 0.865827 0.787692
0.593239 0.865347 0.784032
0.705224 0.865056 0.780338
0.808056 0.864949 0.780338
0.898717 0.864990 0.776609
0.067698 0.069175 0.836378
0.134441 0.070105 0.843003
0.223550 0.071184 0.846290
0.326276 0.072164 0.852816
0.436080 0.072876 0.859284
0.547547 0.073234 0.865697
0.655992 0.073239 0.868886
0.757328 0.072960 0.872062
0.848074 0.072501 0.875228
0.069450 0.138522 0.852816
0.136689 0.139317 0.856057
0.226646 0.140194 0.859284
0.330533 0.140927 0.865697
0.441688 0.141377 0.868886
0.554527 0.141496 0.872062
0.664204 0.141314 0.875228
0.766514 0.140917 0.878384
0.857929 0.140411 0.881530
0.070350 0.231232 0.865697
0.138476 0.231875 0.868886
0.229736 0.232537 0.872062
0.335187 0.233027 0.875228
0.447950 0.233250 0.878384
0.562210 0.233202 0.881530
0.672934 0.232946 0.881530
0.775818 0.232579 0.881530
0.867343 0.232195 0.881530
0.069294 0.338551 0.878384
0.138593 0.339026 0.878384
0.231371 0.339477 0.881530
0.338394 0.339763 0.881530
0.452475 0.339848 0.881530
0.567538 0.339773 0.881530
0.678386 0.339629 0.881530
0.780692 0.339511 0.881530
0.871068 0.339483 0.881530
0.066719 0.453385 0.881530
0.137222 0.453650 0.881530
0.231352 0.453864 0.881530
0.339453 0.453962 0.881530
0.453976 0.453976 0.881530
0.568753 0.453976 0.881530
0.679003 0.453976 0.881530
0.780815 0.453976 0.881530
0.871068 0.453976 0.881530
0.065002 0.568752 0.881530
0.136393 0.568753 0.881530
0.231168 0.568753 0.881530
0.339483 0.568753 0.881530
0.453976 0.568753 0.881530
0.568807 0.568745 0.881530
0.679431 0.568694 0.881530
0.781752 0.568647 0.878384
0.872468 0.568635 0.878384
0.065000 0.679003 0.881530
0.136393 0.679003 0.881530
0.231408 0.678952 0.881530
0.340562 0.678778 0.881530
0.456362 0.678524 0.878384
0.572643 0.678258 0.878384
0.684327 0.678041 0.875228
0.787311 0.677909 0.875228
0.878396 0.677868 0.872062
0.067646 0.780197 0.878384
0.140398 0.779890 0.878384
0.237190 0.779444 0.878384
0.347945 0.778925 0.875228
0.464983 0.778414 0.872062
0.582090 0.777988 0.872062
0.694225 0.777694 0.868886
0.797373 0.777546 0.865697
0.888432 0.777526 0.865697
0.077141 0.868145 0.875228
0.150813 0.867622 0.875228
0.248550 0.866959 0.872062
0.360031 0.866277 0.868886
0.477467 0.865682 0.868886
0.594643 0.865249 0.865697
0.706577 0.865007 0.862497
0.809344 0.864949 0.859284
0.899936 0.865033 0.859284
