v2/tools/blender-substrate/grade/luts/substrate-act2.cube
TITLE "Substrate Act 2 — Work"
# GRADE.md steps 1-7 (point-wise). Halation/grain/vignette excluded.
LUT_3D_SIZE 5
DOMAIN_MIN 0.0 0.0 0.0
DOMAIN_MAX 1.0 1.0 1.0
0.060000 0.060001 0.071280
0.225615 0.062795 0.078397
0.440499 0.065823 0.085519
0.659545 0.067748 0.092644
0.851379 0.068320 0.092644
0.064870 0.234103 0.092644
0.233628 0.236552 0.092644
0.454826 0.238657 0.092644
0.680749 0.239523 0.089081
0.877316 0.239411 0.081957
0.063320 0.463236 0.085519
0.237940 0.464708 0.078397
0.465219 0.465559 0.074838
0.693064 0.465693 0.071280
0.887374 0.465693 0.071280
0.060000 0.693064 0.071280
0.237705 0.693064 0.071280
0.465940 0.692986 0.071280
0.694896 0.692477 0.071280
0.890661 0.691981 0.071280
0.064701 0.885929 0.071280
0.246725 0.884585 0.071280
0.480256 0.882830 0.074838
0.711864 0.881436 0.074838
0.908049 0.880750 0.074838
0.060626 0.060968 0.231511
0.226428 0.063678 0.238584
0.441918 0.066456 0.249175
0.661778 0.068035 0.256221
0.854313 0.068290 0.256221
0.065093 0.235006 0.252700
0.234286 0.237230 0.256221
0.456108 0.239004 0.256221
0.682525 0.239562 0.256221
0.879252 0.239255 0.252700
0.062902 0.463827 0.252700
0.237947 0.465034 0.249175
0.465450 0.465638 0.245647
0.693064 0.465693 0.242116
0.887374 0.465693 0.242116
0.060000 0.693064 0.242116
0.237705 0.693064 0.242116
0.466323 0.692883 0.242116
0.695691 0.692314 0.242116
0.891618 0.691859 0.242116
0.066443 0.885493 0.242116
0.248884 0.884108 0.242116
0.482664 0.882411 0.242116
0.714264 0.881166 0.242116
0.910296 0.880652 0.242116
0.061413 0.062186 0.432486
0.227507 0.064733 0.439498
0.443795 0.067143 0.450066
0.664672 0.068259 0.460697
0.858041 0.068111 0.464256
0.065285 0.236059 0.457146
0.235056 0.237973 0.460697
0.457655 0.239323 0.464256
0.684636 0.239511 0.464256
0.881469 0.238998 0.460697
0.062351 0.464447 0.464256
0.237917 0.465340 0.460697
0.465631 0.465684 0.457146
0.693064 0.465693 0.457146
0.887374 0.465693 0.457146
0.060000 0.693064 0.457146
0.237711 0.693062 0.457146
0.467087 0.692710 0.457146
0.696943 0.692113 0.457146
0.893049 0.691741 0.453602
0.069059 0.884900 0.453602
0.251965 0.883503 0.453602
0.485977 0.881921 0.453602
0.717489 0.880893 0.450066
0.913264 0.880610 0.450066
0.062163 0.063346 0.651769
0.228601 0.065677 0.663875
0.445704 0.067677 0.675989
0.667556 0.068320 0.688098
0.861680 0.067784 0.692131
0.065373 0.236981 0.684063
0.235734 0.238570 0.692131
0.459080 0.239506 0.696163
0.686538 0.239363 0.696163
0.883359 0.238700 0.696163
0.061804 0.464919 0.696163
0.237858 0.465535 0.696163
0.465693 0.465693 0.696163
0.693064 0.465693 0.696163
0.887374 0.465693 0.696163
0.060000 0.693064 0.696163
0.237963 0.693003 0.696163
0.468162 0.692510 0.692131
0.698456 0.691936 0.688098
0.894705 0.691677 0.688098
0.072079 0.884290 0.688098
0.255364 0.882924 0.688098
0.489506 0.881497 0.684063
0.720838 0.880710 0.675989
0.916285 0.880664 0.675989
0.062763 0.064275 0.846901
0.229533 0.066384 0.857523
0.447342 0.068008 0.871446
0.669993 0.068246 0.881734
0.864700 0.067396 0.888530
0.065365 0.237659 0.878318
0.236240 0.238967 0.885138
0.460196 0.239561 0.891911
0.687989 0.239174 0.895283
0.884703 0.238435 0.895283
0.061357 0.465219 0.895283
0.237799 0.465631 0.895283
0.465693 0.465693 0.891911
0.693064 0.465693 0.891911
0.887386 0.465694 0.891911
0.060000 0.693064 0.891911
0.238480 0.692897 0.891911
0.469333 0.692332 0.891911
0.699960 0.691813 0.885138
0.896300 0.691670 0.881734
0.074968 0.883770 0.885138
0.258506 0.882460 0.881734
0.492676 0.881194 0.878318
0.723778 0.880627 0.871446
0.918884 0.880786 0.867989
