v2/tools/blender-substrate/grade/luts/substrate-act2.cube
TITLE "Substrate Act 2 — Work"
# GRADE.md steps 1-7 (point-wise). Halation/grain/vignette excluded.
LUT_3D_SIZE 33
DOMAIN_MIN 0.0 0.0 0.0
DOMAIN_MAX 1.0 1.0 1.0
0.060000 0.060001 0.071280
0.075716 0.060272 0.071280
0.093239 0.060574 0.071280
0.112333 0.060903 0.074838
0.132812 0.061253 0.074838
0.154516 0.061621 0.074838
0.177302 0.062003 0.078397
0.201041 0.062396 0.078397
0.225615 0.062795 0.078397
0.250915 0.063196 0.078397
0.276839 0.063598 0.081957
0.303292 0.063995 0.081957
0.330183 0.064386 0.081957
0.357429 0.064766 0.085519
0.384948 0.065134 0.085519
0.412662 0.065487 0.085519
0.440499 0.065823 0.085519
0.468386 0.066140 0.089081
0.496255 0.066437 0.089081
0.524041 0.066713 0.089081
0.551678 0.066966 0.089081
0.579106 0.067196 0.092644
0.606264 0.067403 0.092644
0.633096 0.067586 0.092644
0.659545 0.067748 0.092644
0.685558 0.067887 0.092644
0.711083 0.068004 0.092644
0.736071 0.068101 0.092644
0.760474 0.068178 0.092644
0.784248 0.068238 0.092644
0.807350 0.068280 0.092644
0.829739 0.068307 0.092644
0.851379 0.068320 0.092644
0.060589 0.076456 0.074838
0.076309 0.076727 0.074838
0.093839 0.077029 0.074838
0.112945 0.077355 0.074838
0.133442 0.077703 0.078397
0.155170 0.078067 0.078397
0.177986 0.078444 0.078397
0.201762 0.078830 0.078397
0.226380 0.079221 0.081957
0.251730 0.079614 0.081957
0.277711 0.080005 0.081957
0.304228 0.080391 0.085519
0.331189 0.080769 0.085519
0.358510 0.081136 0.085519
0.386109 0.081489 0.085519
0.413909 0.081827 0.089081
0.441834 0.082147 0.089081
0.469813 0.082448 0.089081
0.497777 0.082728 0.089081
0.525658 0.082986 0.092644
0.553393 0.083222 0.092644
0.580918 0.083435 0.092644
0.608174 0.083625 0.092644
0.635103 0.083792 0.092644
0.661647 0.083936 0.092644
0.687753 0.084059 0.092644
0.713370 0.084161 0.092644
0.738446 0.084243 0.092644
0.762934 0.084306 0.092644
0.786789 0.084352 0.092644
0.809969 0.084381 0.092644
0.832432 0.084396 0.092644
0.854142 0.084398 0.092644
0.061236 0.094808 0.074838
0.076965 0.095079 0.078397
0.094507 0.095379 0.078397
0.113632 0.095703 0.078397
0.134154 0.096047 0.078397
0.155913 0.096407 0.081957
0.178767 0.096778 0.081957
0.202589 0.097157 0.081957
0.227259 0.097540 0.081957
0.252670 0.097923 0.085519
0.278718 0.098303 0.085519
0.305308 0.098677 0.085519
0.332349 0.099042 0.089081
0.359756 0.099394 0.089081
0.387446 0.099733 0.089081
0.415340 0.100054 0.089081
0.443364 0.100358 0.089081
0.471445 0.100641 0.092644
0.499513 0.100904 0.092644
0.527500 0.101144 0.092644
0.555341 0.101362 0.092644
0.582972 0.101557 0.092644
0.610334 0.101729 0.092644
0.637366 0.101879 0.092644
0.664013 0.102006 0.092644
0.690219 0.102113 0.092644
0.715931 0.102199 0.092644
0.741100 0.102265 0.092644
0.765678 0.102314 0.092644
0.789618 0.102346 0.092644
0.812878 0.102363 0.092644
0.835418 0.102366 0.092644
0.857199 0.102357 0.092644
0.061917 0.114819 0.078397
0.077660 0.115090 0.078397
0.095222 0.115388 0.081957
0.114372 0.115710 0.081957
0.134926 0.116051 0.081957
0.156725 0.116405 0.081957
0.179626 0.116770 0.085519
0.203502 0.117142 0.085519
0.228235 0.117516 0.085519
0.253714 0.117889 0.085519
0.279839 0.118257 0.089081
0.306512 0.118618 0.089081
0.333643 0.118969 0.089081
0.361144 0.119307 0.089081
0.388934 0.119629 0.089081
0.416932 0.119934 0.092644
0.445064 0.120220 0.092644
0.473254 0.120486 0.092644
0.501433 0.120730 0.092644
0.529533 0.120952 0.092644
0.557486 0.121152 0.092644
0.585230 0.121329 0.092644
0.612701 0.121484 0.092644
0.639842 0.121616 0.092644
0.666594 0.121727 0.092644
0.692902 0.121817 0.092644
0.718714 0.121888 0.092644
0.743977 0.121940 0.092644
0.768644 0.121975 0.092644
0.792670 0.121994 0.092644
0.816010 0.121999 0.092644
0.838625 0.121991 0.092644
0.860475 0.121971 0.092644
0.062606 0.136305 0.081957
0.078369 0.136574 0.081957
0.095958 0.136871 0.081957
0.115141 0.137190 0.085519
0.135736 0.137526 0.085519
0.157582 0.137876 0.085519
0.180539 0.138234 0.085519
0.204479 0.138598 0.089081
0.229283 0.138962 0.089081
0.254841 0.139324 0.089081
0.281051 0.139681 0.089081
0.307816 0.140029 0.089081
0.335044 0.140365 0.092644
0.362649 0.140687 0.092644
0.390546 0.140993 0.092644
0.418655 0.141282 0.092644
0.446900 0.141550 0.092644
0.475207 0.141798 0.092644
0.503502 0.142025 0.092644
0.531718 0.142229 0.092644
0.559788 0.142411 0.092644
0.587646 0.142570 0.092644
0.615231 0.142707 0.092644
0.642481 0.142822 0.092644
0.669339 0.142917 0.092644
0.695750 0.142992 0.092644
0.721659 0.143048 0.092644
0.747015 0.143086 0.092644
0.771770 0.143108 0.092644
0.795877 0.143116 0.092644
0.819294 0.143110 0.092644
0.841979 0.143092 0.092644
0.863895 0.143064 0.092644
0.063273 0.159108 0.085519
0.079064 0.159375 0.085519
0.096687 0.159670 0.085519
0.115913 0.159986 0.085519
0.136556 0.160317 0.089081
0.158459 0.160661 0.089081
0.181481 0.161012 0.089081
0.205493 0.161367 0.089081
0.230376 0.161722 0.089081
0.256022 0.162073 0.089081
0.282325 0.162417 0.092644
0.309190 0.162751 0.092644
0.336524 0.163072 0.092644
0.364238 0.163379 0.092644
0.392248 0.163669 0.092644
0.420474 0.163940 0.092644
0.448837 0.164192 0.092644
0.477263 0.164422 0.092644
0.505679 0.164631 0.092644
0.534014 0.164817 0.092644
0.562201 0.164981 0.092644
0.590174 0.165123 0.092644
0.617870 0.165244 0.092644
0.645229 0.165344 0.092644
0.672191 0.165423 0.092644
0.698700 0.165483 0.092644
0.724703 0.165526 0.092644
0.750147 0.165552 0.092644
0.774984 0.165563 0.092644
0.799168 0.165560 0.092644
0.822654 0.165544 0.092644
0.845403 0.165518 0.089081
0.867376 0.165483 0.089081
0.063892 0.183089 0.089081
0.079717 0.183355 0.089081
0.097383 0.183647 0.089081
0.116658 0.183959 0.089081
0.137359 0.184285 0.089081
0.159327 0.184622 0.089081
0.182422 0.184966 0.092644
0.206515 0.185311 0.092644
0.231486 0.185655 0.092644
0.257226 0.185995 0.092644
0.283631 0.186326 0.092644
0.310602 0.186646 0.092644
0.338046 0.186953 0.092644
0.365875 0.187244 0.092644
0.394004 0.187517 0.092644
0.422350 0.187772 0.092644
0.450834 0.188006 0.092644
0.479381 0.188219 0.092644
0.507916 0.188410 0.092644
0.536370 0.188579 0.092644
0.564673 0.188727 0.092644
0.592759 0.188853 0.092644
0.620564 0.188958 0.092644
0.648026 0.189042 0.092644
0.675087 0.189108 0.092644
0.701689 0.189155 0.092644
0.727778 0.189186 0.092644
0.753303 0.189201 0.092644
0.778213 0.189202 0.089081
0.802464 0.189190 0.089081
0.826011 0.189168 0.089081
0.848813 0.189135 0.089081
0.870833 0.189095 0.089081
0.064433 0.208126 0.089081
0.080300 0.208389 0.089081
0.098015 0.208677 0.089081
0.117348 0.208984 0.092644
0.138115 0.209305 0.092644
0.160157 0.209634 0.092644
0.183333 0.209969 0.092644
0.207514 0.210305 0.092644
0.232580 0.210638 0.092644
0.258422 0.210965 0.092644
0.284933 0.211282 0.092644
0.312016 0.211588 0.092644
0.339576 0.211879 0.092644
0.367524 0.212155 0.092644
0.395772 0.212412 0.092644
0.424240 0.212649 0.092644
0.452845 0.212866 0.092644
0.481512 0.213062 0.092644
0.510167 0.213237 0.092644
0.538736 0.213390 0.092644
0.567151 0.213521 0.092644
0.595344 0.213632 0.092644
0.623252 0.213722 0.092644
0.650811 0.213794 0.092644
0.677962 0.213847 0.089081
0.704648 0.213883 0.089081
0.730814 0.213903 0.089081
0.756408 0.213909 0.089081
0.781380 0.213902 0.089081
0.805686 0.213884 0.089081
0.829280 0.213856 0.089081
0.852122 0.213820 0.085519
0.874176 0.213776 0.085519
0.064870 0.234103 0.092644
0.080786 0.234362 0.092644
0.098559 0.234645 0.092644
0.117957 0.234946 0.092644
0.138797 0.235260 0.092644
0.160920 0.235582 0.092644
0.184184 0.235907 0.092644
0.208460 0.236232 0.092644
0.233628 0.236552 0.092644
0.259577 0.236866 0.092644
0.286200 0.237170 0.092644
0.313398 0.237460 0.092644
0.341076 0.237736 0.092644
0.369144 0.237995 0.092644
0.397513 0.238236 0.092644
0.426101 0.238456 0.092644
0.454826 0.238657 0.092644
0.483611 0.238836 0.092644
0.512379 0.238994 0.092644
0.541059 0.239132 0.092644
0.569579 0.239248 0.092644
0.597872 0.239345 0.089081
0.625873 0.239422 0.089081
0.653519 0.239481 0.089081
0.680749 0.239523 0.089081
0.707507 0.239549 0.089081
0.733736 0.239561 0.089081
0.759386 0.239560 0.085519
0.784407 0.239547 0.085519
0.808752 0.239525 0.085519
0.832378 0.239494 0.085519
0.855245 0.239455 0.085519
0.877316 0.239411 0.081957
0.065181 0.260911 0.092644
0.081153 0.261165 0.092644
0.098990 0.261443 0.092644
0.118460 0.261737 0.092644
0.139381 0.262042 0.092644
0.161591 0.262354 0.092644
0.184950 0.262668 0.092644
0.209327 0.262981 0.092644
0.234601 0.263289 0.092644
0.260660 0.263589 0.092644
0.287398 0.263878 0.092644
0.314713 0.264153 0.092644
0.342510 0.264412 0.092644
0.370698 0.264655 0.092644
0.399187 0.264878 0.092644
0.427892 0.265082 0.092644
0.456733 0.265266 0.092644
0.485629 0.265429 0.092644
0.514505 0.265572 0.089081
0.543287 0.265694 0.089081
0.571903 0.265796 0.089081
0.600285 0.265880 0.089081
0.628368 0.265945 0.089081
0.656087 0.265993 0.085519
0.683383 0.266026 0.085519
0.710197 0.266044 0.085519
0.736475 0.266049 0.085519
0.762164 0.266043 0.085519
0.787215 0.266027 0.081957
0.811583 0.266002 0.081957
0.835223 0.265970 0.081957
0.858096 0.265932 0.081957
0.880165 0.265889 0.081957
0.065350 0.288446 0.092644
0.081384 0.288695 0.092644
0.099290 0.288965 0.092644
0.118839 0.289250 0.092644
0.139846 0.289546 0.092644
0.162150 0.289847 0.092644
0.185608 0.290149 0.092644
0.210089 0.290449 0.092644
0.235473 0.290742 0.092644
0.261645 0.291027 0.092644
0.288499 0.291300 0.092644
0.315931 0.291558 0.092644
0.343847 0.291801 0.092644
0.372151 0.292026 0.092644
0.400756 0.292233 0.092644
0.429574 0.292420 0.089081
0.458523 0.292587 0.089081
0.487524 0.292734 0.089081
0.516497 0.292861 0.089081
0.545370 0.292969 0.089081
0.574070 0.293058 0.085519
0.602528 0.293129 0.085519
0.630678 0.293184 0.085519
0.658456 0.293222 0.085519
0.685800 0.293247 0.085519
0.712654 0.293259 0.081957
0.738961 0.293259 0.081957
0.764671 0.293250 0.081957
0.789733 0.293232 0.081957
0.814102 0.293207 0.078397
0.837735 0.293176 0.078397
0.860593 0.293141 0.078397
0.882640 0.293102 0.078397
0.065366 0.316606 0.092644
0.081466 0.316848 0.092644
0.099448 0.317109 0.092644
0.119081 0.317385 0.092644
0.140178 0.317669 0.092644
0.162579 0.317957 0.092644
0.186140 0.318245 0.092644
0.210729 0.318530 0.092644
0.236224 0.318808 0.092644
0.262510 0.319076 0.092644
0.289479 0.319332 0.092644
0.317027 0.319573 0.092644
0.345057 0.319798 0.089081
0.373474 0.320005 0.089081
0.402188 0.320194 0.089081
0.431111 0.320363 0.089081
0.460160 0.320514 0.089081
0.489254 0.320645 0.085519
0.518314 0.320757 0.085519
0.547265 0.320851 0.085519
0.576034 0.320927 0.085519
0.604552 0.320987 0.081957
0.632752 0.321032 0.081957
0.660569 0.321062 0.081957
0.687943 0.321081 0.081957
0.714816 0.321088 0.081957
0.741132 0.321085 0.078397
0.766840 0.321074 0.078397
0.791890 0.321056 0.078397
0.816238 0.321033 0.078397
0.839842 0.321006 0.078397
0.862662 0.320976 0.074838
0.884663 0.320944 0.074838
0.065226 0.345291 0.092644
0.081396 0.345524 0.092644
0.099458 0.345774 0.092644
0.119178 0.346038 0.092644
0.140370 0.346308 0.092644
0.162871 0.346582 0.092644
0.186537 0.346855 0.092644
0.211235 0.347123 0.092644
0.236841 0.347384 0.089081
0.263239 0.347633 0.089081
0.290320 0.347870 0.089081
0.317980 0.348092 0.089081
0.346119 0.348298 0.089081
0.374642 0.348487 0.089081
0.403457 0.348657 0.085519
0.432476 0.348809 0.085519
0.461613 0.348942 0.085519
0.490787 0.349057 0.085519
0.519918 0.349154 0.081957
0.548932 0.349235 0.081957
0.577753 0.349299 0.081957
0.606312 0.349348 0.081957
0.634542 0.349384 0.078397
0.662379 0.349407 0.078397
0.689761 0.349420 0.078397
0.716630 0.349424 0.078397
0.742931 0.349420 0.078397
0.768613 0.349409 0.074838
0.793627 0.349394 0.074838
0.817929 0.349374 0.074838
0.841478 0.349353 0.074838
0.864234 0.349330 0.074838
0.886164 0.349306 0.074838
0.064934 0.374400 0.092644
0.081179 0.374621 0.092644
0.099323 0.374859 0.092644
0.119133 0.375108 0.092644
0.140421 0.375363 0.089081
0.163024 0.375620 0.089081
0.186795 0.375875 0.089081
0.211601 0.376125 0.089081
0.237316 0.376366 0.089081
0.263823 0.376595 0.089081
0.291012 0.376812 0.085519
0.318778 0.377014 0.085519
0.347019 0.377199 0.085519
0.375638 0.377368 0.085519
0.404543 0.377519 0.085519
0.433645 0.377652 0.081957
0.462857 0.377767 0.081957
0.492096 0.377866 0.081957
0.521282 0.377948 0.081957
0.550339 0.378014 0.078397
0.579193 0.378067 0.078397
0.607773 0.378106 0.078397
0.636012 0.378134 0.078397
0.663844 0.378151 0.074838
0.691210 0.378160 0.074838
0.718050 0.378161 0.074838
0.744311 0.378157 0.074838
0.769941 0.378148 0.074838
0.794892 0.378136 0.074838
0.819121 0.378123 0.071280
0.842587 0.378109 0.071280
0.865252 0.378095 0.071280
0.887083 0.378082 0.071280
0.064504 0.403829 0.089081
0.080824 0.404037 0.089081
0.099054 0.404260 0.089081
0.118955 0.404493 0.089081
0.140340 0.404730 0.089081
0.163044 0.404968 0.089081
0.186919 0.405203 0.085519
0.211829 0.405431 0.085519
0.237650 0.405651 0.085519
0.264262 0.405858 0.085519
0.291552 0.406053 0.085519
0.319415 0.406232 0.081957
0.347748 0.406396 0.081957
0.376452 0.406543 0.081957
0.405435 0.406673 0.081957
0.434605 0.406786 0.078397
0.463876 0.406883 0.078397
0.493162 0.406965 0.078397
0.522385 0.407031 0.078397
0.551466 0.407084 0.074838
0.580330 0.407125 0.074838
0.608908 0.407154 0.074838
0.637131 0.407174 0.074838
0.664934 0.407186 0.074838
0.692257 0.407191 0.074838
0.719042 0.407191 0.071280
0.745234 0.407188 0.071280
0.770784 0.407183 0.071280
0.795644 0.407176 0.071280
0.819771 0.407170 0.071280
0.843124 0.407165 0.071280
0.865669 0.407161 0.071280
0.887374 0.407161 0.071280
0.063956 0.433476 0.089081
0.080354 0.433669 0.089081
0.098668 0.433875 0.085519
0.118661 0.434088 0.085519
0.140142 0.434305 0.085519
0.162945 0.434522 0.085519
0.186920 0.434734 0.085519
0.211932 0.434939 0.085519
0.237853 0.435134 0.081957
0.264561 0.435317 0.081957
0.291945 0.435487 0.081957
0.319895 0.435642 0.081957
0.348308 0.435781 0.078397
0.377084 0.435905 0.078397
0.406130 0.436013 0.078397
0.435352 0.436106 0.078397
0.464663 0.436183 0.074838
0.493977 0.436246 0.074838
0.523215 0.436297 0.074838
0.552297 0.436336 0.074838
0.581148 0.436364 0.074838
0.609698 0.436384 0.071280
0.637879 0.436396 0.071280
0.665626 0.436403 0.071280
0.692878 0.436405 0.071280
0.719579 0.436405 0.071280
0.745674 0.436404 0.071280
0.771113 0.436403 0.071280
0.795856 0.436403 0.071280
0.819886 0.436403 0.071280
0.843172 0.436403 0.071280
0.865678 0.436403 0.071280
0.887374 0.436403 0.071280
0.063320 0.463236 0.085519
0.079795 0.463411 0.085519
0.098194 0.463598 0.085519
0.118276 0.463790 0.081957
0.139850 0.463983 0.081957
0.162749 0.464175 0.081957
0.186821 0.464362 0.081957
0.211928 0.464540 0.081957
0.237940 0.464708 0.078397
0.264737 0.464865 0.078397
0.292203 0.465007 0.078397
0.320228 0.465136 0.078397
0.348708 0.465249 0.078397
0.377541 0.465348 0.074838
0.406632 0.465432 0.074838
0.435888 0.465502 0.074838
0.465219 0.465559 0.074838
0.494540 0.465603 0.074838
0.523769 0.465637 0.071280
0.552828 0.465660 0.071280
0.581641 0.465676 0.071280
0.610137 0.465686 0.071280
0.638248 0.465691 0.071280
0.665910 0.465693 0.071280
0.693064 0.465693 0.071280
0.719678 0.465693 0.071280
0.745711 0.465693 0.071280
0.771118 0.465693 0.071280
0.795856 0.465693 0.071280
0.819886 0.465693 0.071280
0.843172 0.465693 0.071280
0.865678 0.465693 0.071280
0.887374 0.465693 0.071280
0.062632 0.493005 0.081957
0.079183 0.493159 0.081957
0.097663 0.493323 0.081957
0.117833 0.493491 0.081957
0.139496 0.493658 0.078397
0.162485 0.493823 0.078397
0.186647 0.493981 0.078397
0.211841 0.494130 0.078397
0.237937 0.494268 0.078397
0.264811 0.494395 0.074838
0.292347 0.494508 0.074838
0.320434 0.494607 0.074838
0.348965 0.494692 0.074838
0.377838 0.494764 0.074838
0.406956 0.494822 0.074838
0.436225 0.494868 0.071280
0.465555 0.494902 0.071280
0.494859 0.494926 0.071280
0.524056 0.494941 0.071280
0.553065 0.494949 0.071280
0.581813 0.494952 0.071280
0.610236 0.494952 0.071280
0.638290 0.494952 0.071280
0.665918 0.494952 0.071280
0.693064 0.494952 0.071280
0.719678 0.494952 0.071280
0.745711 0.494952 0.071280
0.771118 0.494952 0.071280
0.795856 0.494952 0.071280
0.819886 0.494952 0.071280
0.843172 0.494952 0.071280
0.865678 0.494952 0.071280
0.887374 0.494952 0.071280
0.061934 0.522675 0.078397
0.078558 0.522806 0.078397
0.097118 0.522945 0.078397
0.117369 0.523085 0.078397
0.139117 0.523223 0.078397
0.162190 0.523357 0.074838
0.186434 0.523483 0.074838
0.211706 0.523600 0.074838
0.237874 0.523706 0.074838
0.264813 0.523799 0.074838
0.292406 0.523880 0.074838
0.320538 0.523948 0.071280
0.349103 0.524002 0.071280
0.377997 0.524044 0.071280
0.407122 0.524074 0.071280
0.436383 0.524093 0.071280
0.465688 0.524103 0.071280
0.494952 0.524105 0.071280
0.524105 0.524105 0.071280
0.553081 0.524105 0.071280
0.581813 0.524105 0.071280
0.610236 0.524105 0.071280
0.638290 0.524105 0.071280
0.665918 0.524105 0.071280
0.693064 0.524105 0.071280
0.719678 0.524105 0.071280
0.745711 0.524105 0.071280
0.771118 0.524105 0.071280
0.795856 0.524105 0.071280
0.819886 0.524105 0.071280
0.843172 0.524105 0.071280
0.865678 0.524105 0.071280
0.887374 0.524105 0.071280
0.061272 0.552140 0.078397
0.077967 0.552246 0.074838
0.096601 0.552356 0.074838
0.116930 0.552466 0.074838
0.138755 0.552572 0.074838
0.161904 0.552672 0.074838
0.186220 0.552763 0.074838
0.211559 0.552844 0.074838
0.237788 0.552914 0.071280
0.264778 0.552972 0.071280
0.292412 0.553017 0.071280
0.320573 0.553050 0.071280
0.349154 0.553071 0.071280
0.378049 0.553080 0.071280
0.407161 0.553081 0.071280
0.436403 0.553081 0.071280
0.465693 0.553081 0.071280
0.494952 0.553081 0.071280
0.524105 0.553081 0.071280
0.553081 0.553081 0.071280
0.581813 0.553081 0.071280
0.610236 0.553081 0.071280
0.638290 0.553081 0.071280
0.665918 0.553081 0.071280
0.693064 0.553081 0.071280
0.719678 0.553081 0.071280
0.745711 0.553081 0.071280
0.771118 0.553081 0.071280
0.795856 0.553081 0.071280
0.819886 0.553081 0.071280
0.843173 0.553081 0.071280
0.865686 0.553079 0.071280
0.887395 0.553074 0.071280
0.060699 0.581296 0.074838
0.077459 0.581374 0.074838
0.096162 0.581453 0.074838
0.116561 0.581529 0.074838
0.138456 0.581599 0.071280
0.161672 0.581662 0.071280
0.186050 0.581715 0.071280
0.211444 0.581757 0.071280
0.237719 0.581788 0.071280
0.264746 0.581806 0.071280
0.292404 0.581813 0.071280
0.320576 0.581813 0.071280
0.349158 0.581813 0.071280
0.378050 0.581813 0.071280
0.407161 0.581813 0.071280
0.436403 0.581813 0.071280
0.465693 0.581813 0.071280
0.494952 0.581813 0.071280
0.524105 0.581813 0.071280
0.553081 0.581813 0.071280
0.581813 0.581813 0.071280
0.610236 0.581813 0.071280
0.638290 0.581813 0.071280
0.665918 0.581813 0.071280
0.693064 0.581813 0.071280
0.719678 0.581813 0.071280
0.745712 0.581813 0.071280
0.771131 0.581809 0.071280
0.795893 0.581801 0.071280
0.819955 0.581790 0.071280
0.843278 0.581777 0.071280
0.865824 0.581763 0.071280
0.887561 0.581749 0.071280
0.060267 0.610039 0.071280
0.077087 0.610086 0.071280
0.095852 0.610130 0.071280
0.116314 0.610170 0.071280
0.138270 0.610201 0.071280
0.161542 0.610223 0.071280
0.185970 0.610235 0.071280
0.211405 0.610236 0.071280
0.237705 0.610236 0.071280
0.264744 0.610236 0.071280
0.292404 0.610236 0.071280
0.320576 0.610236 0.071280
0.349158 0.610236 0.071280
0.378050 0.610236 0.071280
0.407161 0.610236 0.071280
0.436403 0.610236 0.071280
0.465693 0.610236 0.071280
0.494952 0.610236 0.071280
0.524105 0.610236 0.071280
0.553081 0.610236 0.071280
0.581813 0.610236 0.071280
0.610236 0.610236 0.071280
0.638290 0.610236 0.071280
0.665927 0.610233 0.071280
0.693103 0.610224 0.071280
0.719762 0.610209 0.071280
0.745852 0.610190 0.071280
0.771325 0.610168 0.071280
0.796134 0.610144 0.071280
0.820238 0.610119 0.071280
0.843597 0.610094 0.071280
0.866175 0.610069 0.071280
0.887940 0.610045 0.071280
0.060030 0.638268 0.071280
0.076903 0.638282 0.071280
0.095724 0.638290 0.071280
0.116238 0.638290 0.071280
0.138233 0.638290 0.071280
0.161529 0.638290 0.071280
0.185969 0.638290 0.071280
0.211405 0.638290 0.071280
0.237705 0.638290 0.071280
0.264744 0.638290 0.071280
0.292404 0.638290 0.071280
0.320576 0.638290 0.071280
0.349158 0.638290 0.071280
0.378050 0.638290 0.071280
0.407161 0.638290 0.071280
0.436403 0.638290 0.071280
0.465693 0.638290 0.071280
0.494952 0.638290 0.071280
0.524105 0.638290 0.071280
0.553082 0.638290 0.071280
0.581836 0.638283 0.071280
0.610307 0.638268 0.071280
0.638431 0.638245 0.071280
0.666145 0.638217 0.071280
0.693390 0.638185 0.071280
0.720112 0.638150 0.071280
0.746259 0.638112 0.071280
0.771781 0.638074 0.071280
0.796635 0.638035 0.071280
0.820778 0.637996 0.071280
0.844171 0.637959 0.071280
0.866779 0.637924 0.071280
0.888569 0.637890 0.071280
0.060000 0.665918 0.071280
0.076892 0.665918 0.071280
0.095723 0.665918 0.071280
0.116238 0.665918 0.071280
0.138233 0.665918 0.071280
0.161529 0.665918 0.071280
0.185969 0.665918 0.071280
0.211405 0.665918 0.071280
0.237705 0.665918 0.071280
0.264744 0.665918 0.071280
0.292404 0.665918 0.071280
0.320576 0.665918 0.071280
0.349158 0.665918 0.071280
0.378050 0.665918 0.071280
0.407161 0.665918 0.071280
0.436403 0.665918 0.071280
0.465696 0.665917 0.071280
0.494989 0.665906 0.071280
0.524208 0.665885 0.071280
0.553278 0.665855 0.071280
0.582127 0.665818 0.071280
0.610685 0.665775 0.071280
0.638887 0.665727 0.071280
0.666673 0.665676 0.071280
0.693983 0.665622 0.071280
0.720762 0.665568 0.071280
0.746960 0.665513 0.071280
0.772529 0.665459 0.071280
0.797423 0.665406 0.071280
0.821601 0.665356 0.071280
0.845025 0.665308 0.071280
0.867660 0.665263 0.071280
0.889473 0.665221 0.071280
0.060000 0.693064 0.071280
0.076892 0.693064 0.071280
0.095723 0.693064 0.071280
0.116238 0.693064 0.071280
0.138233 0.693064 0.071280
0.161529 0.693064 0.071280
0.185969 0.693064 0.071280
0.211405 0.693064 0.071280
0.237705 0.693064 0.071280
0.264744 0.693064 0.071280
0.292404 0.693064 0.071280
0.320576 0.693064 0.071280
0.349158 0.693064 0.071280
0.378056 0.693062 0.071280
0.407211 0.693048 0.071280
0.436535 0.693022 0.071280
0.465940 0.692986 0.071280
0.495344 0.692940 0.071280
0.524666 0.692887 0.071280
0.553830 0.692827 0.071280
0.582766 0.692762 0.071280
0.611403 0.692693 0.071280
0.639677 0.692622 0.071280
0.667528 0.692549 0.071280
0.694896 0.692477 0.071280
0.721727 0.692405 0.071280
0.747972 0.692335 0.071280
0.773581 0.692267 0.071280
0.798511 0.692202 0.071280
0.822720 0.692141 0.071280
0.846171 0.692083 0.071280
0.868829 0.692030 0.071280
0.890661 0.691981 0.071280
0.060000 0.719678 0.071280
0.076892 0.719678 0.071280
0.095723 0.719678 0.071280
0.116238 0.719678 0.071280
0.138233 0.719678 0.071280
0.161529 0.719678 0.071280
0.185969 0.719678 0.071280
0.211405 0.719678 0.071280
0.237705 0.719678 0.071280
0.264744 0.719678 0.071280
0.292415 0.719674 0.071280
0.320641 0.719657 0.071280
0.349317 0.719628 0.071280
0.378342 0.719586 0.071280
0.407621 0.719534 0.071280
0.437061 0.719472 0.071280
0.466575 0.719401 0.071280
0.496079 0.719323 0.071280
0.525494 0.719240 0.071280
0.554745 0.719153 0.071280
0.583758 0.719062 0.071280
0.612466 0.718971 0.071280
0.640805 0.718878 0.071280
0.668713 0.718787 0.071280
0.696132 0.718697 0.071280
0.723009 0.718610 0.071280
0.749293 0.718526 0.071280
0.774938 0.718447 0.071280
0.799898 0.718371 0.071280
0.824133 0.718301 0.071280
0.847606 0.718235 0.071280
0.870282 0.718175 0.071280
0.892130 0.718120 0.071280
0.060000 0.745711 0.071280
0.076892 0.745711 0.071280
0.095723 0.745711 0.071280
0.116238 0.745711 0.071280
0.138233 0.745711 0.071280
0.161529 0.745711 0.071280
0.185969 0.745711 0.071280
0.211428 0.745704 0.071280
0.237792 0.745684 0.071280
0.264937 0.745651 0.071280
0.292743 0.745605 0.071280
0.321101 0.745548 0.071280
0.349902 0.745479 0.071280
0.379047 0.745400 0.071280
0.408438 0.745312 0.071280
0.437983 0.745216 0.071280
0.467595 0.745115 0.071280
0.497190 0.745008 0.071280
0.526688 0.744898 0.071280
0.556014 0.744787 0.071280
0.585096 0.744674 0.071280
0.613866 0.744562 0.071280
0.642261 0.744451 0.071280
0.670218 0.744343 0.071280
