v2/tools/blender-substrate/grade/luts/substrate-act1.cube
TITLE "Substrate Act 1 — Statement"
# GRADE.md steps 1-7 (point-wise). Halation/grain/vignette excluded.
LUT_3D_SIZE 33
DOMAIN_MIN 0.0 0.0 0.0
DOMAIN_MAX 1.0 1.0 1.0
0.070000 0.070001 0.097900
0.085000 0.070605 0.097900
0.101437 0.071234 0.101551
0.119153 0.071886 0.101551
0.138016 0.072557 0.101551
0.157911 0.073243 0.105211
0.178733 0.073943 0.105211
0.200387 0.074652 0.105211
0.222786 0.075368 0.108878
0.245847 0.076088 0.108878
0.269491 0.076810 0.112552
0.293646 0.077530 0.112552
0.318242 0.078246 0.112552
0.343213 0.078955 0.116232
0.368493 0.079656 0.116232
0.394022 0.080345 0.119919
0.419741 0.081021 0.119919
0.445591 0.081683 0.119919
0.471517 0.082328 0.123611
0.497464 0.082956 0.123611
0.523379 0.083566 0.123611
0.549210 0.084156 0.123611
0.574907 0.084727 0.127308
0.600421 0.085277 0.127308
0.625703 0.085808 0.127308
0.650706 0.086318 0.127308
0.675384 0.086809 0.131010
0.699693 0.087281 0.131010
0.723590 0.087734 0.131010
0.747031 0.088170 0.131010
0.769978 0.088590 0.131010
0.792391 0.088994 0.131010
0.814232 0.089384 0.131010
0.071720 0.086759 0.101551
0.086844 0.087404 0.101551
0.103396 0.088074 0.105211
0.121220 0.088765 0.105211
0.140186 0.089473 0.105211
0.160182 0.090195 0.108878
0.181103 0.090929 0.108878
0.202855 0.091671 0.108878
0.225352 0.092419 0.112552
0.248510 0.093169 0.112552
0.272253 0.093919 0.116232
0.296508 0.094666 0.116232
0.321204 0.095408 0.116232
0.346275 0.096142 0.119919
0.371656 0.096865 0.119919
0.397287 0.097577 0.119919
0.423106 0.098274 0.123611
0.449056 0.098956 0.123611
0.475081 0.099621 0.123611
0.501125 0.100268 0.127308
0.527136 0.100896 0.127308
0.553060 0.101504 0.127308
0.578847 0.102092 0.127308
0.604446 0.102661 0.131010
0.629810 0.103209 0.131010
0.654890 0.103738 0.131010
0.679640 0.104247 0.131010
0.704015 0.104738 0.131010
0.727972 0.105211 0.131010
0.751469 0.105667 0.131010
0.774464 0.106107 0.134716
0.796918 0.106533 0.134716
0.818794 0.106945 0.134716
0.073501 0.105212 0.105211
0.088753 0.105894 0.105211
0.105424 0.106598 0.108878
0.123362 0.107322 0.108878
0.142437 0.108062 0.108878
0.162540 0.108816 0.112552
0.183567 0.109579 0.112552
0.205426 0.110349 0.116232
0.228029 0.111123 0.116232
0.251294 0.111898 0.116232
0.275144 0.112671 0.119919
0.299506 0.113440 0.119919
0.324311 0.114203 0.119919
0.349491 0.114956 0.123611
0.374982 0.115697 0.123611
0.400722 0.116426 0.123611
0.426650 0.117139 0.127308
0.452708 0.117837 0.127308
0.478839 0.118516 0.127308
0.504988 0.119177 0.127308
0.531100 0.119819 0.131010
0.557122 0.120441 0.131010
0.583003 0.121043 0.131010
0.608692 0.121626 0.131010
0.634140 0.122188 0.131010
0.659299 0.122731 0.131010
0.684123 0.123255 0.134716
0.708566 0.123762 0.134716
0.732583 0.124251 0.134716
0.756134 0.124723 0.134716
0.779175 0.125181 0.134716
0.801669 0.125625 0.134716
0.823577 0.126057 0.134716
0.075321 0.125171 0.108878
0.090706 0.125884 0.112552
0.107502 0.126619 0.112552
0.125559 0.127373 0.112552
0.144752 0.128141 0.116232
0.164969 0.128921 0.116232
0.186110 0.129709 0.116232
0.208083 0.130503 0.119919
0.230800 0.131299 0.119919
0.254180 0.132095 0.119919
0.278146 0.132888 0.123611
0.302624 0.133674 0.123611
0.327546 0.134453 0.123611
0.352843 0.135221 0.123611
0.378451 0.135977 0.127308
0.404307 0.136719 0.127308
0.430351 0.137445 0.127308
0.456522 0.138154 0.127308
0.482765 0.138845 0.131010
0.509022 0.139517 0.131010
0.535238 0.140169 0.131010
0.561361 0.140802 0.131010
0.587339 0.141415 0.131010
0.613119 0.142008 0.134716
0.638652 0.142581 0.134716
0.663890 0.143136 0.134716
0.688786 0.143673 0.134716
0.713294 0.144192 0.134716
0.737369 0.144695 0.134716
0.760969 0.145182 0.134716
0.784053 0.145656 0.134716
0.806581 0.146117 0.134716
0.828516 0.146566 0.134716
0.077157 0.146482 0.112552
0.092681 0.147224 0.116232
0.109607 0.147986 0.116232
0.127791 0.148765 0.116232
0.147108 0.149558 0.119919
0.167448 0.150361 0.119919
0.188711 0.151171 0.119919
0.210806 0.151985 0.123611
0.233645 0.152799 0.123611
0.257148 0.153612 0.123611
0.281237 0.154420 0.123611
0.305839 0.155221 0.127308
0.330885 0.156013 0.127308
0.356306 0.156793 0.127308
0.382037 0.157560 0.127308
0.408014 0.158312 0.131010
0.434178 0.159047 0.131010
0.460467 0.159765 0.131010
0.486824 0.160464 0.131010
0.513192 0.161144 0.131010
0.539515 0.161805 0.134716
0.565739 0.162445 0.134716
0.591812 0.163067 0.134716
0.617682 0.163669 0.134716
0.643298 0.164251 0.134716
0.668612 0.164816 0.134716
0.693576 0.165363 0.134716
0.718143 0.165894 0.134716
0.742270 0.166409 0.134716
0.765914 0.166910 0.134716
0.789032 0.167398 0.134716
0.811587 0.167874 0.134716
0.833539 0.168340 0.134716
0.078984 0.169014 0.119919
0.094652 0.169781 0.119919
0.111716 0.170567 0.119919
0.130033 0.171369 0.119919
0.149482 0.172183 0.123611
0.169952 0.173006 0.123611
0.191346 0.173834 0.123611
0.213570 0.174664 0.123611
0.236539 0.175494 0.127308
0.260172 0.176321 0.127308
0.284392 0.177141 0.127308
0.309125 0.177953 0.131010
0.334300 0.178755 0.131010
0.359850 0.179544 0.131010
0.385708 0.180319 0.131010
0.411811 0.181078 0.131010
0.438098 0.181820 0.131010
0.464506 0.182544 0.134716
0.490979 0.183249 0.134716
0.517457 0.183935 0.134716
0.543885 0.184602 0.134716
0.570209 0.185249 0.134716
0.596375 0.185877 0.134716
0.622330 0.186486 0.134716
0.648023 0.187077 0.134716
0.673407 0.187650 0.134716
0.698431 0.188207 0.134716
0.723051 0.188748 0.134716
0.747221 0.189275 0.134716
0.770898 0.189788 0.134716
0.794041 0.190290 0.134716
0.816610 0.190781 0.134716
0.838568 0.191262 0.134716
0.080776 0.192651 0.123611
0.096594 0.193440 0.123611
0.113803 0.194247 0.123611
0.132261 0.195068 0.123611
0.151849 0.195900 0.127308
0.172457 0.196739 0.127308
0.193988 0.197582 0.127308
0.216349 0.198425 0.127308
0.239456 0.199267 0.131010
0.263226 0.200104 0.131010
0.287582 0.200934 0.131010
0.312450 0.201755 0.131010
0.337760 0.202563 0.131010
0.363442 0.203359 0.134716
0.389431 0.204139 0.134716
0.415662 0.204903 0.134716
0.442071 0.205649 0.134716
0.468599 0.206378 0.134716
0.495186 0.207087 0.134716
0.521772 0.207777 0.134716
0.548303 0.208448 0.134716
0.574721 0.209100 0.134716
0.600973 0.209733 0.134716
0.627006 0.210348 0.134716
0.652770 0.210946 0.134716
0.678214 0.211527 0.134716
0.703289 0.212092 0.134716
0.727950 0.212643 0.134716
0.752151 0.213181 0.134716
0.775849 0.213707 0.134716
0.799003 0.214222 0.134716
0.821573 0.214728 0.134716
0.843522 0.215225 0.134716
0.082508 0.217285 0.127308
0.098483 0.218092 0.127308
0.115843 0.218916 0.127308
0.134449 0.219754 0.127308
0.154183 0.220600 0.127308
0.174937 0.221452 0.131010
0.196612 0.222307 0.131010
0.219117 0.223161 0.131010
0.242366 0.224012 0.131010
0.266278 0.224856 0.131010
0.290776 0.225693 0.134716
0.315784 0.226519 0.134716
0.341231 0.227332 0.134716
0.367048 0.228131 0.134716
0.393168 0.228914 0.134716
0.419526 0.229681 0.134716
0.446058 0.230429 0.134716
0.472703 0.231160 0.134716
0.499399 0.231871 0.134716
0.526089 0.232564 0.134716
0.552715 0.233238 0.134716
0.579221 0.233894 0.134716
0.605551 0.234531 0.134716
0.631653 0.235151 0.134716
0.657475 0.235755 0.134716
0.682967 0.236343 0.134716
0.708081 0.236917 0.134716
0.732769 0.237477 0.134716
0.756986 0.238026 0.134716
0.780690 0.238564 0.134716
0.803838 0.239092 0.134716
0.826393 0.239613 0.134716
0.848316 0.240126 0.131010
0.084157 0.242814 0.127308
0.100294 0.243637 0.131010
0.117812 0.244476 0.131010
0.136574 0.245326 0.131010
0.156460 0.246183 0.131010
0.177365 0.247046 0.131010
0.199191 0.247909 0.131010
0.221846 0.248770 0.134716
0.245243 0.249626 0.134716
0.269302 0.250476 0.134716
0.293943 0.251316 0.134716
0.319093 0.252144 0.134716
0.344679 0.252959 0.134716
0.370631 0.253759 0.134716
0.396881 0.254543 0.134716
0.423364 0.255310 0.134716
0.450015 0.256059 0.134716
0.476772 0.256790 0.134716
0.503573 0.257502 0.134716
0.530358 0.258196 0.134716
0.557071 0.258872 0.134716
0.583654 0.259530 0.134716
0.610051 0.260171 0.134716
0.636209 0.260795 0.134716
0.662077 0.261404 0.134716
0.687603 0.261999 0.134716
0.712738 0.262581 0.134716
0.737437 0.263151 0.134716
0.761653 0.263710 0.131010
0.785344 0.264260 0.131010
0.808468 0.264802 0.131010
0.830988 0.265338 0.131010
0.852865 0.265867 0.131010
0.085702 0.269144 0.131010
0.102008 0.269979 0.131010
0.119690 0.270829 0.131010
0.138613 0.271688 0.134716
0.158659 0.272554 0.134716
0.179721 0.273422 0.134716
0.201702 0.274290 0.134716
0.224511 0.275156 0.134716
0.248060 0.276015 0.134716
0.272267 0.276866 0.134716
0.297055 0.277706 0.134716
0.322348 0.278534 0.134716
0.348072 0.279348 0.134716
0.374157 0.280147 0.134716
0.400534 0.280930 0.134716
0.427137 0.281695 0.134716
0.453901 0.282442 0.134716
0.480762 0.283171 0.134716
0.507659 0.283883 0.134716
0.534530 0.284576 0.134716
0.561318 0.285252 0.134716
0.587965 0.285912 0.134716
0.614416 0.286555 0.134716
0.640615 0.287183 0.134716
0.666511 0.287797 0.134716
0.692054 0.288399 0.131010
0.717193 0.288988 0.131010
0.741883 0.289567 0.131010
0.766078 0.290137 0.131010
0.789735 0.290700 0.131010
0.812815 0.291256 0.131010
0.835277 0.291806 0.131010
0.857087 0.292353 0.131010
0.087130 0.296181 0.134716
0.103610 0.297025 0.134716
0.121461 0.297881 0.134716
0.140551 0.298746 0.134716
0.160760 0.299616 0.134716
0.181985 0.300488 0.134716
0.204125 0.301358 0.134716
0.227090 0.302223 0.134716
0.250793 0.303082 0.134716
0.275151 0.303931 0.134716
0.300085 0.304769 0.134716
0.325519 0.305594 0.134716
0.351378 0.306404 0.134716
0.377592 0.307199 0.134716
0.404091 0.307977 0.134716
0.430808 0.308738 0.134716
0.457677 0.309482 0.134716
0.484633 0.310208 0.134716
0.511614 0.310917 0.134716
0.538559 0.311609 0.134716
0.565408 0.312284 0.134716
0.592104 0.312944 0.131010
0.618591 0.313588 0.131010
0.644813 0.314220 0.131010
0.670720 0.314838 0.131010
0.696258 0.315445 0.131010
0.721381 0.316042 0.131010
0.746040 0.316631 0.131010
0.770191 0.317212 0.131010
0.793792 0.317786 0.131010
0.816803 0.318356 0.131010
0.839184 0.318922 0.127308
0.860901 0.319486 0.127308
0.088430 0.323831 0.134716
0.105088 0.324680 0.134716
0.123115 0.325540 0.134716
0.142375 0.326408 0.134716
0.162753 0.327278 0.134716
0.184142 0.328149 0.134716
0.206445 0.329017 0.134716
0.229568 0.329879 0.134716
0.253425 0.330733 0.134716
0.277933 0.331577 0.134716
0.303011 0.332409 0.134716
0.328582 0.333228 0.134716
0.354573 0.334032 0.134716
0.380910 0.334820 0.134716
0.407523 0.335592 0.134716
0.434344 0.336346 0.134716
0.461307 0.337084 0.134716
0.488345 0.337805 0.134716
0.515397 0.338509 0.131010
0.542400 0.339198 0.131010
0.569295 0.339871 0.131010
0.596022 0.340530 0.131010
0.622526 0.341175 0.131010
0.648752 0.341808 0.131010
0.674646 0.342430 0.131010
0.700159 0.343043 0.131010
0.725241 0.343647 0.127308
0.749846 0.344245 0.127308
0.773929 0.344836 0.127308
0.797448 0.345423 0.127308
0.820363 0.346007 0.127308
0.842638 0.346589 0.127308
0.864236 0.347170 0.127308
0.089600 0.352003 0.134716
0.106441 0.352853 0.134716
0.124646 0.353713 0.134716
0.144081 0.354578 0.134716
0.164629 0.355445 0.134716
0.186186 0.356311 0.134716
0.208651 0.357173 0.134716
0.231933 0.358028 0.134716
0.255943 0.358874 0.134716
0.280598 0.359710 0.134716
0.305816 0.360533 0.134716
0.331520 0.361342 0.134716
0.357635 0.362136 0.134716
0.384086 0.362914 0.134716
0.410804 0.363677 0.134716
0.437718 0.364422 0.131010
0.464761 0.365152 0.131010
0.491868 0.365865 0.131010
0.518975 0.366564 0.131010
0.546019 0.367247 0.131010
0.572939 0.367916 0.131010
0.599677 0.368573 0.131010
0.626177 0.369218 0.131010
0.652383 0.369852 0.127308
0.678243 0.370477 0.127308
0.703705 0.371095 0.127308
0.728721 0.371706 0.127308
0.753244 0.372312 0.127308
0.777232 0.372914 0.127308
0.800642 0.373513 0.127308
0.823435 0.374111 0.127308
0.845574 0.374709 0.127308
0.867026 0.375307 0.127308
0.090644 0.380602 0.134716
0.107672 0.381449 0.134716
0.126058 0.382304 0.134716
0.145669 0.383163 0.134716
0.166390 0.384022 0.134716
0.188114 0.384879 0.134716
0.210742 0.385731 0.134716
0.234180 0.386575 0.134716
0.258340 0.387410 0.134716
0.283138 0.388233 0.134716
0.308490 0.389043 0.134716
0.334319 0.389839 0.134716
0.360549 0.390620 0.131010
0.387104 0.391385 0.131010
0.413914 0.392135 0.131010
0.440908 0.392869 0.131010
0.468017 0.393588 0.131010
0.495175 0.394292 0.131010
0.522318 0.394981 0.131010
0.549383 0.395658 0.127308
0.576308 0.396322 0.127308
0.603035 0.396975 0.127308
0.629507 0.397618 0.127308
0.655668 0.398252 0.127308
0.681467 0.398879 0.127308
0.706851 0.399501 0.127308
0.731774 0.400118 0.127308
0.756189 0.400732 0.127308
0.780052 0.401344 0.127308
0.803323 0.401955 0.127308
0.825964 0.402567 0.127308
0.847939 0.403180 0.127308
0.869215 0.403796 0.127308
0.091576 0.409532 0.134716
0.108792 0.410372 0.134716
0.127360 0.411218 0.134716
0.147149 0.412066 0.134716
0.168042 0.412913 0.134716
0.189932 0.413757 0.134716
0.212720 0.414594 0.134716
0.236312 0.415423 0.134716
0.260617 0.416241 0.131010
0.285551 0.417047 0.131010
0.311030 0.417841 0.131010
0.336975 0.418620 0.131010
0.363308 0.419384 0.131010
0.389955 0.420134 0.131010
0.416842 0.420868 0.131010
0.443899 0.421588 0.131010
0.471057 0.422293 0.127308
0.498247 0.422984 0.127308
0.525406 0.423663 0.127308
0.552470 0.424330 0.127308
0.579377 0.424987 0.127308
0.606068 0.425635 0.127308
0.632486 0.426274 0.127308
0.658576 0.426907 0.127308
0.684285 0.427535 0.127308
0.709564 0.428160 0.127308
0.734364 0.428782 0.127308
0.758640 0.429403 0.127308
0.782349 0.430025 0.127308
0.805451 0.430648 0.127308
0.827916 0.431273 0.127308
0.849738 0.431898 0.127308
0.870889 0.432523 0.127308
0.092415 0.438696 0.134716
0.109820 0.439524 0.134716
0.128571 0.440356 0.134716
0.148537 0.441189 0.131010
0.169600 0.442019 0.131010
0.191654 0.442845 0.131010
0.214599 0.443663 0.131010
0.238338 0.444471 0.131010
0.262781 0.445269 0.131010
0.287843 0.446055 0.131010
0.313438 0.446827 0.131010
0.339488 0.447585 0.131010
0.365912 0.448329 0.131010
0.392635 0.449059 0.127308
0.419584 0.449774 0.127308
0.446687 0.450476 0.127308
0.473873 0.451165 0.127308
0.501075 0.451842 0.127308
0.528227 0.452507 0.127308
0.555265 0.453163 0.127308
0.582128 0.453810 0.127308
0.608757 0.454450 0.127308
0.635094 0.455085 0.127308
0.661084 0.455715 0.127308
0.686675 0.456342 0.127308
0.711818 0.456969 0.127308
0.736468 0.457595 0.127308
0.760609 0.458221 0.127308
0.784210 0.458847 0.127308
0.807234 0.459474 0.127308
0.829647 0.460100 0.131010
0.851418 0.460726 0.131010
0.872516 0.461353 0.131010
0.093187 0.467994 0.131010
0.110782 0.468805 0.131010
0.129714 0.469618 0.131010
0.149855 0.470431 0.131010
0.171087 0.471239 0.131010
0.193300 0.472042 0.131010
0.216394 0.472836 0.131010
0.240274 0.473620 0.131010
0.264847 0.474392 0.131010
0.290027 0.475153 0.127308
0.315727 0.475900 0.127308
0.341867 0.476633 0.127308
0.368367 0.477352 0.127308
0.395151 0.478059 0.127308
0.422142 0.478752 0.127308
0.449270 0.479432 0.127308
0.476464 0.480101 0.127308
0.503654 0.480760 0.127308
0.530775 0.481409 0.127308
0.557763 0.482051 0.127308
0.584555 0.482686 0.127308
0.611093 0.483317 0.127308
0.637320 0.483944 0.127308
0.663198 0.484571 0.127308
0.688696 0.485197 0.127308
0.713769 0.485823 0.127308
0.738376 0.486449 0.131010
0.762476 0.487076 0.131010
0.786033 0.487702 0.131010
0.809010 0.488328 0.131010
0.831374 0.488954 0.131010
0.853093 0.489580 0.131010
0.874137 0.490206 0.131010
0.093928 0.497324 0.131010
0.111710 0.498113 0.131010
0.130823 0.498902 0.131010
0.151135 0.499689 0.131010
0.172529 0.500471 0.131010
0.194896 0.501245 0.127308
0.218133 0.502010 0.127308
0.242145 0.502765 0.127308
0.266837 0.503507 0.127308
0.292122 0.504237 0.127308
0.317914 0.504955 0.127308
0.344129 0.505659 0.127308
0.370688 0.506350 0.127308
0.397513 0.507028 0.127308
0.424528 0.507695 0.127308
0.451660 0.508351 0.127308
0.478837 0.508997 0.127308
0.505991 0.509634 0.127308
0.533055 0.510265 0.127308
0.559968 0.510890 0.127308
0.586689 0.511515 0.127308
0.613169 0.512140 0.127308
0.639358 0.512765 0.127308
0.665208 0.513389 0.131010
0.690674 0.514014 0.131010
0.715712 0.514639 0.131010
0.740280 0.515263 0.131010
0.764340 0.515888 0.131010
0.787853 0.516512 0.131010
0.810783 0.517137 0.131010
0.833098 0.517761 0.131010
0.854765 0.518385 0.131010
0.875755 0.519010 0.134716
0.094678 0.526583 0.127308
0.112644 0.527345 0.127308
0.131932 0.528105 0.127308
0.152411 0.528861 0.127308
0.173962 0.529610 0.127308
0.196475 0.530351 0.127308
0.219846 0.531082 0.127308
0.243979 0.531802 0.127308
0.268778 0.532510 0.127308
0.294155 0.533205 0.127308
0.320023 0.533887 0.127308
0.346297 0.534558 0.127308
0.372896 0.535216 0.127308
0.399742 0.535863 0.127308
0.426758 0.536499 0.127308
0.453870 0.537126 0.127308
0.481013 0.537749 0.127308
0.508132 0.538371 0.127308
0.535169 0.538993 0.127308
0.562066 0.539615 0.127308
0.588770 0.540237 0.131010
0.615229 0.540859 0.131010
0.641394 0.541481 0.131010
0.667216 0.542102 0.131010
0.692649 0.542724 0.131010
0.717652 0.543346 0.131010
0.742182 0.543967 0.131010
0.766200 0.544588 0.131010
0.789669 0.545210 0.134716
0.812552 0.545831 0.134716
0.834817 0.546452 0.134716
0.856432 0.547073 0.134716
0.877371 0.547693 0.134716
0.095480 0.555667 0.127308
0.113627 0.556396 0.127308
0.133086 0.557122 0.127308
0.153726 0.557842 0.127308
0.175425 0.558553 0.127308
0.198075 0.559256 0.127308
0.221570 0.559947 0.127308
0.245811 0.560627 0.127308
0.270704 0.561295 0.127308
0.296158 0.561950 0.127308
0.322084 0.562593 0.127308
0.348398 0.563225 0.127308
0.375018 0.563846 0.127308
0.401869 0.564465 0.127308
0.428883 0.565083 0.127308
0.455994 0.565701 0.127308
0.483137 0.566319 0.131010
0.510252 0.566937 0.131010
0.537280 0.567555 0.131010
0.564164 0.568172 0.131010
0.590851 0.568790 0.131010
0.617288 0.569407 0.131010
0.643427 0.570025 0.131010
0.669221 0.570642 0.131010
0.694622 0.571259 0.131010
0.719589 0.571876 0.134716
0.744081 0.572493 0.134716
0.768057 0.573110 0.134716
0.791486 0.573725 0.134716
0.814340 0.574336 0.134716
0.836581 0.574944 0.134716
0.858176 0.575550 0.134716
0.879094 0.576154 0.134716
0.096384 0.584472 0.127308
0.114707 0.585164 0.127308
0.134331 0.585849 0.127308
0.155122 0.586527 0.127308
0.176962 0.587196 0.127308
0.199738 0.587854 0.127308
0.223344 0.588501 0.127308
0.247681 0.589135 0.127308
0.272652 0.589758 0.127308
0.298165 0.590372 0.127308
0.324131 0.590985 0.127308
0.350472 0.591598 0.127308
0.377112 0.592211 0.127308
0.403978 0.592824 0.131010
0.431002 0.593436 0.131010
0.458118 0.594049 0.131010
0.485261 0.594661 0.131010
0.512371 0.595274 0.131010
0.539389 0.595886 0.131010
0.566260 0.596498 0.131010
0.592929 0.597110 0.131010
0.619345 0.597721 0.134716
0.645459 0.598333 0.134716
0.671223 0.598944 0.134716
0.696595 0.599555 0.134716
0.721547 0.600160 0.134716
0.746035 0.600759 0.134716
0.770018 0.601355 0.134716
0.793455 0.601947 0.134716
0.816308 0.602537 0.134716
0.838541 0.603125 0.138425
0.860122 0.603712 0.138425
0.881019 0.604299 0.138425
0.097441 0.612896 0.127308
0.115933 0.613544 0.127308
0.135714 0.614185 0.127308
0.156649 0.614816 0.127308
0.178618 0.615436 0.127308
0.201507 0.616045 0.127308
0.225204 0.616652 0.127308
0.249609 0.617259 0.127308
0.274630 0.617866 0.127308
0.300181 0.618472 0.131010
0.326180 0.619079 0.131010
0.352547 0.619685 0.131010
0.379207 0.620291 0.131010
0.406088 0.620897 0.131010
0.433122 0.621503 0.131010
0.460242 0.622109 0.131010
0.487385 0.622714 0.131010
0.514490 0.623320 0.131010
0.541498 0.623925 0.134716
0.568355 0.624530 0.134716
0.595006 0.625134 0.134716
0.621413 0.625735 0.134716
0.647539 0.626328 0.134716
0.673332 0.626914 0.134716
0.698744 0.627494 0.134716
0.723727 0.628070 0.134716
0.748238 0.628643 0.138425
0.772235 0.629214 0.138425
0.795677 0.629782 0.138425
0.818528 0.630350 0.138425
0.840751 0.630918 0.138425
0.862316 0.631486 0.138425
0.883190 0.632055 0.138425
0.098702 0.640838 0.127308
0.117355 0.641439 0.127308
0.137272 0.642039 0.127308
0.158318 0.642639 0.127308
0.180376 0.643238 0.127308
0.203334 0.643838 0.127308
0.227089 0.644437 0.131010
0.251546 0.645036 0.131010
0.276612 0.645635 0.131010
0.302201 0.646233 0.131010
0.328231 0.646832 0.131010
0.354624 0.647430 0.131010
0.381304 0.648028 0.131010
0.408199 0.648626 0.131010
0.435242 0.649223 0.131010
0.462366 0.649821 0.134716
0.489508 0.650418 0.134716
0.516609 0.651015 0.134716
0.543633 0.651604 0.134716
0.570532 0.652183 0.134716
0.597247 0.652754 0.134716
0.623723 0.653318 0.134716
0.649907 0.653876 0.134716
0.675747 0.654430 0.138425
0.701196 0.654980 0.138425
0.726207 0.655527 0.138425
0.750736 0.656073 0.138425
0.774742 0.656618 0.138425
0.798186 0.657163 0.138425
0.821031 0.657709 0.138425
0.843242 0.658256 0.138425
0.864787 0.658805 0.142137
0.885636 0.659356 0.142137
0.100112 0.668285 0.127308
0.118870 0.668876 0.127308
0.138880 0.669467 0.127308
0.160010 0.670058 0.131010
0.182142 0.670648 0.131010
0.205165 0.671238 0.131010
0.228979 0.671828 0.131010
0.253486 0.672418 0.131010
0.278596 0.673008 0.131010
0.304223 0.673597 0.131010
0.330284 0.674186 0.131010
0.356702 0.674775 0.134716
0.383402 0.675364 0.134716
0.410311 0.675953 0.134716
0.437367 0.676540 0.134716
0.464534 0.677116 0.134716
0.491749 0.677681 0.134716
0.518948 0.678236 0.134716
0.546070 0.678782 0.134716
0.573053 0.679321 0.134716
0.599841 0.679854 0.138425
0.626379 0.680382 0.138425
0.652614 0.680906 0.138425
0.678495 0.681428 0.138425
0.703975 0.681948 0.138425
0.729007 0.682467 0.138425
0.753549 0.682987 0.138425
0.777560 0.683507 0.142137
0.801000 0.684029 0.142137
0.823835 0.684553 0.142137
0.846028 0.685080 0.142137
0.867550 0.685609 0.142137
0.888370 0.686141 0.142137
0.101532 0.695290 0.131010
0.120393 0.695871 0.131010
0.140494 0.696452 0.131010
0.161707 0.697033 0.131010
0.183913 0.697613 0.131010
0.207002 0.698193 0.131010
0.230873 0.698773 0.131010
0.255431 0.699352 0.131010
0.280584 0.699932 0.134716
0.306248 0.700511 0.134716
0.332340 0.701089 0.134716
0.358793 0.701665 0.134716
0.385564 0.702227 0.134716
0.412578 0.702777 0.134716
0.439765 0.703316 0.134716
0.467056 0.703844 0.134716
0.494382 0.704364 0.138425
0.521681 0.704876 0.138425
0.548890 0.705381 0.138425
0.575949 0.705881 0.138425
0.602801 0.706377 0.138425
0.629393 0.706871 0.138425
0.655670 0.707362 0.138425
0.681585 0.707853 0.138425
0.707088 0.708345 0.142137
0.732135 0.708837 0.142137
0.756683 0.709331 0.142137
0.780692 0.709827 0.142137
0.804123 0.710326 0.142137
0.826941 0.710829 0.142137
0.849112 0.711335 0.142137
0.870606 0.711845 0.145852
0.891392 0.712359 0.145852
0.102960 0.721804 0.131010
0.121923 0.722373 0.131010
0.142116 0.722943 0.131010
0.163410 0.723512 0.131010
0.185689 0.724081 0.134716
0.208843 0.724650 0.134716
0.232772 0.725218 0.134716
0.257379 0.725786 0.134716
0.282597 0.726347 0.134716
0.308363 0.726895 0.134716
0.334593 0.727429 0.134716
0.361206 0.727952 0.134716
0.388126 0.728462 0.134716
0.415278 0.728963 0.138425
0.442590 0.729454 0.138425
0.469993 0.729936 0.138425
0.497420 0.730413 0.138425
0.524808 0.730883 0.138425
0.552093 0.731350 0.138425
0.579218 0.731813 0.138425
0.606125 0.732274 0.138425
0.632761 0.732734 0.142137
0.659072 0.733195 0.142137
0.685011 0.733657 0.142137
0.710529 0.734121 0.142137
0.735583 0.734587 0.142137
0.760130 0.735057 0.142137
0.784130 0.735530 0.142137
0.807545 0.736008 0.145852
0.830341 0.736490 0.145852
0.852483 0.736976 0.145852
0.873943 0.737468 0.145852
0.894690 0.737965 0.145852
0.104396 0.747775 0.131010
0.123460 0.748332 0.134716
0.143744 0.748890 0.134716
0.165120 0.749446 0.134716
0.187475 0.750002 0.134716
0.210733 0.750546 0.134716
0.234799 0.751077 0.134716
0.259579 0.751595 0.134716
0.284982 0.752101 0.134716
0.310921 0.752594 0.138425
0.337311 0.753075 0.138425
0.364074 0.753547 0.138425
0.391131 0.754008 0.138425
0.418408 0.754461 0.138425
0.445832 0.754907 0.138425
0.473336 0.755347 0.138425
0.500852 0.755782 0.138425
0.528316 0.756214 0.142137
0.555667 0.756644 0.142137
0.582847 0.757072 0.142137
0.609798 0.757501 0.142137
0.636467 0.757930 0.142137
0.662803 0.758362 0.142137
0.688757 0.758796 0.142137
