v2/tools/blender-substrate/grade/luts/substrate-act5.cube
TITLE "Substrate Act 5 — Contact"
# GRADE.md steps 1-7 (point-wise). Halation/grain/vignette excluded.
LUT_3D_SIZE 33
DOMAIN_MIN 0.0 0.0 0.0
DOMAIN_MAX 1.0 1.0 1.0
0.050000 0.050001 0.069000
0.066683 0.050288 0.069000
0.085262 0.050609 0.069000
0.105508 0.050957 0.072353
0.127231 0.051328 0.072353
0.150266 0.051718 0.072353
0.174465 0.052123 0.075706
0.199692 0.052538 0.075706
0.225821 0.052959 0.075706
0.252735 0.053383 0.079059
0.280323 0.053806 0.079059
0.308482 0.054223 0.079059
0.337111 0.054631 0.082412
0.366118 0.055027 0.082412
0.395410 0.055408 0.082412
0.424902 0.055771 0.082412
0.454508 0.056114 0.085765
0.484147 0.056436 0.085765
0.513739 0.056734 0.085765
0.543208 0.057007 0.085765
0.572479 0.057255 0.089118
0.601479 0.057477 0.089118
0.630137 0.057673 0.089118
0.658384 0.057844 0.089118
0.686153 0.057990 0.089118
0.713380 0.058111 0.089118
0.740003 0.058210 0.089118
0.765961 0.058287 0.089118
0.791197 0.058344 0.089118
0.815656 0.058382 0.089118
0.839286 0.058404 0.089118
0.862038 0.058410 0.089118
0.883866 0.058403 0.089118
0.050615 0.067177 0.072353
0.067302 0.067465 0.072353
0.085890 0.067784 0.072353
0.106149 0.068130 0.072353
0.127892 0.068498 0.075706
0.150955 0.068883 0.075706
0.175189 0.069282 0.075706
0.200458 0.069690 0.079059
0.226637 0.070102 0.079059
0.253608 0.070516 0.079059
0.281262 0.070926 0.082412
0.309492 0.071330 0.082412
0.338201 0.071724 0.082412
0.367293 0.072105 0.082412
0.396677 0.072470 0.085765
0.426264 0.072816 0.085765
0.455970 0.073141 0.085765
0.485711 0.073445 0.085765
0.515409 0.073724 0.085765
0.544985 0.073978 0.089118
0.574364 0.074207 0.089118
0.603471 0.074410 0.089118
0.632235 0.074588 0.089118
0.660587 0.074741 0.089118
0.688460 0.074869 0.089118
0.715787 0.074973 0.089118
0.742506 0.075056 0.089118
0.768557 0.075117 0.089118
0.793882 0.075159 0.089118
0.818425 0.075184 0.089118
0.842134 0.075192 0.089118
0.864961 0.075187 0.089118
0.886859 0.075169 0.089118
0.051288 0.086287 0.075706
0.067985 0.086574 0.075706
0.086587 0.086892 0.075706
0.106867 0.087236 0.075706
0.128639 0.087600 0.075706
0.151737 0.087980 0.079059
0.176014 0.088372 0.079059
0.201335 0.088772 0.079059
0.227574 0.089175 0.082412
0.254613 0.089578 0.082412
0.282342 0.089976 0.082412
0.310657 0.090366 0.082412
0.339456 0.090745 0.085765
0.368644 0.091109 0.085765
0.398130 0.091457 0.085765
0.427824 0.091785 0.085765
0.457640 0.092092 0.089118
0.487495 0.092376 0.089118
0.517308 0.092635 0.089118
0.547000 0.092870 0.089118
0.576495 0.093080 0.089118
0.605718 0.093263 0.089118
0.634597 0.093422 0.089118
0.663061 0.093556 0.089118
0.691042 0.093666 0.089118
0.718475 0.093754 0.089118
0.745296 0.093819 0.089118
0.771443 0.093865 0.089118
0.796860 0.093893 0.089118
0.821490 0.093904 0.089118
0.845280 0.093900 0.089118
0.868182 0.093883 0.089118
0.890150 0.093854 0.089118
0.051994 0.107109 0.075706
0.068706 0.107395 0.079059
0.087331 0.107712 0.079059
0.107640 0.108052 0.079059
0.129448 0.108412 0.079059
0.152591 0.108787 0.079059
0.176921 0.109172 0.082412
0.202303 0.109563 0.082412
0.228612 0.109956 0.082412
0.255730 0.110347 0.085765
0.283546 0.110732 0.085765
0.311954 0.111108 0.085765
0.340853 0.111471 0.085765
0.370148 0.111819 0.085765
0.399745 0.112148 0.089118
0.429555 0.112458 0.089118
0.459490 0.112746 0.089118
0.489466 0.113010 0.089118
0.519402 0.113250 0.089118
0.549218 0.113465 0.089118
0.578835 0.113655 0.089118
0.608179 0.113819 0.089118
0.637176 0.113959 0.089118
0.665756 0.114075 0.089118
0.693849 0.114167 0.089118
0.721389 0.114238 0.089118
0.748312 0.114288 0.089118
0.774557 0.114319 0.089118
0.800065 0.114333 0.089118
0.824780 0.114331 0.089118
0.848650 0.114315 0.089118
0.871625 0.114288 0.089118
0.893660 0.114250 0.089118
0.052705 0.129463 0.079059
0.069441 0.129749 0.079059
0.088095 0.130063 0.082412
0.108442 0.130401 0.082412
0.130295 0.130756 0.082412
0.153492 0.131125 0.082412
0.177885 0.131502 0.082412
0.203339 0.131884 0.085765
0.229728 0.132267 0.085765
0.256934 0.132645 0.085765
0.284846 0.133017 0.085765
0.313357 0.133378 0.085765
0.342366 0.133725 0.089118
0.371776 0.134055 0.089118
0.401492 0.134367 0.089118
0.431425 0.134658 0.089118
0.461486 0.134926 0.089118
0.491589 0.135171 0.089118
0.521653 0.135391 0.089118
0.551595 0.135587 0.089118
0.581338 0.135757 0.089118
0.610805 0.135903 0.089118
0.639923 0.136024 0.089118
0.668618 0.136122 0.089118
0.696822 0.136198 0.089118
0.724468 0.136253 0.089118
0.751491 0.136288 0.089118
0.777830 0.136306 0.089118
0.803425 0.136307 0.089118
0.828221 0.136294 0.089118
0.852165 0.136268 0.089118
0.875207 0.136232 0.089118
0.897303 0.136187 0.089118
0.053392 0.153197 0.082412
0.070158 0.153481 0.082412
0.088851 0.153793 0.082412
0.109245 0.154127 0.085765
0.131153 0.154477 0.085765
0.154413 0.154839 0.085765
0.178879 0.155208 0.085765
0.204414 0.155581 0.085765
0.230892 0.155952 0.085765
0.258196 0.156318 0.089118
0.286212 0.156675 0.089118
0.314835 0.157021 0.089118
0.343961 0.157352 0.089118
0.373492 0.157665 0.089118
0.403334 0.157958 0.089118
0.433395 0.158231 0.089118
0.463586 0.158480 0.089118
0.493820 0.158705 0.089118
0.524014 0.158907 0.089118
0.554084 0.159083 0.089118
0.583953 0.159235 0.089118
0.613542 0.159362 0.089118
0.642778 0.159466 0.089118
0.671586 0.159548 0.089118
0.699897 0.159608 0.089118
0.727644 0.159649 0.089118
0.754761 0.159671 0.089118
0.781186 0.159677 0.089118
0.806861 0.159667 0.089118
0.831730 0.159645 0.085765
0.855739 0.159611 0.085765
0.878840 0.159568 0.085765
0.900987 0.159516 0.085765
0.054022 0.178174 0.085765
0.070828 0.178456 0.085765
0.089568 0.178764 0.085765
0.110017 0.179093 0.085765
0.131990 0.179437 0.085765
0.155323 0.179792 0.085765
0.179871 0.180152 0.089118
0.205496 0.180514 0.089118
0.232073 0.180874 0.089118
0.259482 0.181227 0.089118
0.287611 0.181570 0.089118
0.316351 0.181899 0.089118
0.345600 0.182213 0.089118
0.375259 0.182509 0.089118
0.405231 0.182785 0.089118
0.435423 0.183038 0.089118
0.465746 0.183269 0.089118
0.496111 0.183476 0.089118
0.526434 0.183658 0.089118
0.556631 0.183816 0.089118
0.586623 0.183950 0.089118
0.616330 0.184061 0.089118
0.645678 0.184149 0.089118
0.674593 0.184216 0.089118
0.703003 0.184262 0.089118
0.730842 0.184290 0.089118
0.758044 0.184301 0.085765
0.784547 0.184297 0.085765
0.810291 0.184278 0.085765
0.835221 0.184249 0.085765
0.859283 0.184209 0.085765
0.882430 0.184161 0.085765
0.904615 0.184106 0.082412
0.054566 0.204267 0.085765
0.071419 0.204546 0.085765
0.090215 0.204850 0.089118
0.110728 0.205174 0.089118
0.132774 0.205511 0.089118
0.156190 0.205857 0.089118
0.180828 0.206208 0.089118
0.206552 0.206559 0.089118
0.233235 0.206906 0.089118
0.260757 0.207245 0.089118
0.289004 0.207572 0.089118
0.317868 0.207886 0.089118
0.347245 0.208183 0.089118
0.377033 0.208461 0.089118
0.407137 0.208719 0.089118
0.437461 0.208954 0.089118
0.467915 0.209166 0.089118
0.498409 0.209355 0.089118
0.528858 0.209519 0.089118
0.559177 0.209660 0.089118
0.589286 0.209778 0.089118
0.619104 0.209873 0.089118
0.648556 0.209946 0.089118
0.677568 0.209999 0.085765
0.706067 0.210034 0.085765
0.733987 0.210051 0.085765
0.761261 0.210053 0.085765
0.787827 0.210040 0.085765
0.813626 0.210016 0.082412
0.838601 0.209981 0.082412
0.862702 0.209938 0.082412
0.885879 0.209888 0.082412
0.908087 0.209832 0.082412
0.054996 0.231361 0.089118
0.071903 0.231635 0.089118
0.090763 0.231934 0.089118
0.111350 0.232251 0.089118
0.133478 0.232580 0.089118
0.156984 0.232917 0.089118
0.181720 0.233257 0.089118
0.207550 0.233595 0.089118
0.234345 0.233929 0.089118
0.261985 0.234253 0.089118
0.290356 0.234565 0.089118
0.319347 0.234862 0.089118
0.348853 0.235142 0.089118
0.378772 0.235402 0.089118
0.409007 0.235641 0.089118
0.439461 0.235858 0.089118
0.470043 0.236052 0.089118
0.500662 0.236223 0.089118
0.531230 0.236370 0.089118
0.561664 0.236495 0.089118
0.591880 0.236597 0.085765
0.621799 0.236678 0.085765
0.651343 0.236738 0.085765
0.680438 0.236780 0.085765
0.709013 0.236804 0.085765
0.736998 0.236813 0.082412
0.764328 0.236807 0.082412
0.790940 0.236789 0.082412
0.816776 0.236761 0.082412
0.841780 0.236724 0.082412
0.865900 0.236680 0.079059
0.889088 0.236630 0.079059
0.911300 0.236576 0.079059
0.055289 0.259342 0.089118
0.072258 0.259611 0.089118
0.091189 0.259903 0.089118
0.111856 0.260211 0.089118
0.134073 0.260531 0.089118
0.157677 0.260857 0.089118
0.182518 0.261185 0.089118
0.208459 0.261510 0.089118
0.235372 0.261829 0.089118
0.263134 0.262137 0.089118
0.291630 0.262433 0.089118
0.320749 0.262712 0.089118
0.350385 0.262974 0.089118
0.380434 0.263216 0.089118
0.410796 0.263437 0.089118
0.441376 0.263636 0.089118
0.472080 0.263812 0.089118
0.502815 0.263965 0.085765
0.533494 0.264096 0.085765
0.564031 0.264205 0.085765
0.594343 0.264293 0.085765
0.624349 0.264361 0.085765
0.653970 0.264410 0.082412
0.683133 0.264442 0.082412
0.711765 0.264458 0.082412
0.739797 0.264460 0.082412
0.767163 0.264450 0.079059
0.793802 0.264429 0.079059
0.819654 0.264399 0.079059
0.844665 0.264362 0.079059
0.868783 0.264319 0.079059
0.891961 0.264273 0.075706
0.914154 0.264223 0.075706
0.055426 0.288101 0.089118
0.072464 0.288363 0.089118
0.091473 0.288647 0.089118
0.112228 0.288946 0.089118
0.134540 0.289255 0.089118
0.158247 0.289568 0.089118
0.183198 0.289882 0.089118
0.209254 0.290192 0.089118
0.236287 0.290495 0.089118
0.264173 0.290786 0.089118
0.292796 0.291064 0.089118
0.322042 0.291325 0.089118
0.351805 0.291568 0.089118
0.381979 0.291791 0.089118
0.412465 0.291993 0.085765
0.443163 0.292174 0.085765
0.473979 0.292332 0.085765
0.504820 0.292469 0.085765
0.535598 0.292584 0.082412
0.566225 0.292678 0.082412
0.596616 0.292753 0.082412
0.626692 0.292809 0.082412
0.656372 0.292848 0.082412
0.685583 0.292872 0.079059
0.714251 0.292881 0.079059
0.742309 0.292879 0.079059
0.769689 0.292866 0.079059
0.796331 0.292844 0.075706
0.822176 0.292816 0.075706
0.847170 0.292781 0.075706
0.871262 0.292743 0.075706
0.894404 0.292702 0.075706
0.916555 0.292660 0.072353
0.055399 0.317531 0.089118
0.072511 0.317784 0.089118
0.091604 0.318058 0.089118
0.112451 0.318345 0.089118
0.134864 0.318641 0.089118
0.158677 0.318940 0.089118
0.183741 0.319238 0.089118
0.209916 0.319531 0.089118
0.237071 0.319816 0.089118
0.265080 0.320089 0.089118
0.293828 0.320347 0.085765
0.323198 0.320589 0.085765
0.353083 0.320812 0.085765
0.383376 0.321016 0.085765
0.413975 0.321199 0.085765
0.444782 0.321360 0.082412
0.475699 0.321501 0.082412
0.506633 0.321621 0.082412
0.537493 0.321721 0.082412
0.568192 0.321801 0.079059
0.598646 0.321864 0.079059
0.628771 0.321909 0.079059
0.658490 0.321940 0.079059
0.687726 0.321957 0.075706
0.716407 0.321962 0.075706
0.744465 0.321957 0.075706
0.771834 0.321943 0.075706
0.798453 0.321923 0.075706
0.824264 0.321897 0.072353
0.849214 0.321868 0.072353
0.873251 0.321837 0.072353
0.896332 0.321805 0.072353
0.918413 0.321772 0.072353
0.055205 0.347522 0.089118
0.072395 0.347765 0.089118
0.091576 0.348027 0.089118
0.112520 0.348300 0.089118
0.135036 0.348580 0.089118
0.158960 0.348863 0.089118
0.184139 0.349143 0.089118
0.210432 0.349417 0.085765
0.237707 0.349682 0.085765
0.265838 0.349934 0.085765
0.294706 0.350172 0.085765
0.324195 0.350393 0.085765
0.354194 0.350595 0.082412
0.384597 0.350778 0.082412
0.415300 0.350941 0.082412
0.446201 0.351083 0.082412
0.477204 0.351206 0.079059
0.508214 0.351309 0.079059
0.539140 0.351393 0.079059
0.569892 0.351460 0.079059
0.600385 0.351511 0.075706
0.630538 0.351547 0.075706
0.660270 0.351570 0.075706
0.689506 0.351582 0.075706
0.718174 0.351584 0.072353
0.746205 0.351578 0.072353
0.773534 0.351566 0.072353
0.800102 0.351549 0.072353
0.825849 0.351529 0.072353
0.850725 0.351508 0.072353
0.874679 0.351486 0.069000
0.897667 0.351464 0.069000
0.919650 0.351444 0.069000
0.054851 0.377966 0.089118
0.072124 0.378196 0.089118
0.091396 0.378442 0.089118
0.112438 0.378700 0.085765
0.135061 0.378962 0.085765
0.159095 0.379225 0.085765
0.184388 0.379485 0.085765
0.210798 0.379738 0.085765
0.238190 0.379981 0.085765
0.266438 0.380211 0.082412
0.295420 0.380425 0.082412
0.325019 0.380623 0.082412
0.355124 0.380803 0.082412
0.385624 0.380963 0.079059
0.416416 0.381105 0.079059
0.447397 0.381228 0.079059
0.478469 0.381332 0.079059
0.509536 0.381418 0.075706
0.540505 0.381487 0.075706
0.571288 0.381541 0.075706
0.601797 0.381580 0.075706
0.631951 0.381607 0.072353
0.661670 0.381624 0.072353
0.690877 0.381631 0.072353
0.719503 0.381631 0.072353
0.747477 0.381626 0.072353
0.774736 0.381617 0.069000
0.801220 0.381606 0.069000
0.826872 0.381594 0.069000
0.851642 0.381582 0.069000
0.875481 0.381571 0.069000
0.898346 0.381563 0.069000
0.920199 0.381557 0.069000
0.054356 0.408748 0.085765
0.071712 0.408963 0.085765
0.091077 0.409193 0.085765
0.112219 0.409431 0.085765
0.134947 0.409673 0.085765
0.159091 0.409914 0.082412
0.184497 0.410151 0.082412
0.211019 0.410380 0.082412
0.238524 0.410598 0.082412
0.266881 0.410802 0.079059
0.295968 0.410992 0.079059
0.325667 0.411165 0.079059
0.355864 0.411320 0.079059
0.386448 0.411457 0.075706
0.417313 0.411576 0.075706
0.448356 0.411678 0.075706
0.479476 0.411762 0.075706
0.510578 0.411831 0.072353
0.541568 0.411884 0.072353
0.572355 0.411924 0.072353
0.602854 0.411953 0.072353
0.632981 0.411971 0.072353
0.662657 0.411982 0.072353
0.691806 0.411986 0.069000
0.720356 0.411986 0.069000
0.748241 0.411983 0.069000
0.775397 0.411978 0.069000
0.801764 0.411974 0.069000
0.827288 0.411971 0.069000
0.851920 0.411971 0.069000
0.875643 0.411971 0.069000
0.898423 0.411971 0.069000
0.920221 0.411971 0.069000
0.053744 0.439756 0.082412
0.071185 0.439953 0.082412
0.090643 0.440162 0.082412
0.111884 0.440379 0.082412
0.134716 0.440597 0.082412
0.158967 0.440814 0.082412
0.184480 0.441024 0.079059
0.211110 0.441226 0.079059
0.238719 0.441417 0.079059
0.267176 0.441594 0.079059
0.296358 0.441755 0.075706
0.326144 0.441901 0.075706
0.356418 0.442030 0.075706
0.387069 0.442141 0.075706
0.417988 0.442236 0.072353
0.449072 0.442315 0.072353
0.480219 0.442379 0.072353
0.511331 0.442428 0.072353
0.542315 0.442465 0.072353
0.573080 0.442492 0.069000
0.603539 0.442509 0.069000
0.633608 0.442519 0.069000
0.663210 0.442524 0.069000
0.692267 0.442526 0.069000
0.720710 0.442526 0.069000
0.748473 0.442526 0.069000
0.775522 0.442526 0.069000
0.801814 0.442526 0.069000
0.827295 0.442526 0.069000
0.851920 0.442526 0.069000
0.875643 0.442526 0.069000
0.898423 0.442526 0.069000
0.920221 0.442526 0.069000
0.053051 0.470872 0.082412
0.070576 0.471048 0.079059
0.090126 0.471235 0.079059
0.111464 0.471426 0.079059
0.134396 0.471617 0.079059
0.158749 0.471806 0.079059
0.184363 0.471987 0.075706
0.211092 0.472159 0.075706
0.238796 0.472319 0.075706
0.267343 0.472465 0.075706
0.296606 0.472596 0.075706
0.326463 0.472712 0.072353
0.356798 0.472811 0.072353
0.387496 0.472895 0.072353
0.418449 0.472964 0.072353
0.449551 0.473018 0.072353
0.480699 0.473060 0.069000
0.511796 0.473090 0.069000
0.542746 0.473110 0.069000
0.573459 0.473122 0.069000
0.603847 0.473127 0.069000
0.633827 0.473129 0.069000
0.663334 0.473129 0.069000
0.692319 0.473129 0.069000
0.720719 0.473129 0.069000
0.748473 0.473129 0.069000
0.775522 0.473129 0.069000
0.801814 0.473129 0.069000
0.827295 0.473129 0.069000
0.851920 0.473129 0.069000
0.875643 0.473129 0.069000
0.898423 0.473129 0.069000
0.920221 0.473129 0.069000
0.052321 0.501977 0.079059
0.069928 0.502130 0.079059
0.089566 0.502290 0.075706
0.110997 0.502453 0.075706
0.134024 0.502614 0.075706
0.158472 0.502771 0.075706
0.184180 0.502919 0.075706
0.210998 0.503058 0.072353
0.238786 0.503184 0.072353
0.267408 0.503296 0.072353
0.296737 0.503394 0.072353
0.326648 0.503476 0.072353
0.357024 0.503544 0.069000
0.387749 0.503598 0.069000
0.418713 0.503638 0.069000
0.449808 0.503666 0.069000
0.480931 0.503684 0.069000
0.511984 0.503692 0.069000
0.542871 0.503694 0.069000
0.573523 0.503694 0.069000
0.603866 0.503694 0.069000
0.633827 0.503694 0.069000
0.663334 0.503694 0.069000
0.692319 0.503694 0.069000
0.720719 0.503694 0.069000
0.748473 0.503694 0.069000
0.775522 0.503694 0.069000
0.801814 0.503694 0.069000
0.827295 0.503694 0.069000
0.851920 0.503694 0.069000
0.875643 0.503694 0.069000
0.898423 0.503694 0.069000
0.920221 0.503694 0.069000
0.051602 0.532952 0.075706
0.069288 0.533078 0.075706
0.089011 0.533209 0.075706
0.110529 0.533340 0.072353
0.133645 0.533468 0.072353
0.158179 0.533589 0.072353
0.183971 0.533701 0.072353
0.210866 0.533802 0.072353
0.238724 0.533890 0.072353
0.267407 0.533965 0.069000
0.296784 0.534026 0.069000
0.326731 0.534073 0.069000
0.357127 0.534106 0.069000
0.387856 0.534127 0.069000
0.418805 0.534136 0.069000
0.449869 0.534137 0.069000
0.480961 0.534137 0.069000
0.511990 0.534137 0.069000
0.542871 0.534137 0.069000
0.573523 0.534137 0.069000
0.603866 0.534137 0.069000
0.633827 0.534137 0.069000
0.663334 0.534137 0.069000
0.692319 0.534137 0.069000
0.720719 0.534137 0.069000
0.748473 0.534137 0.069000
0.775522 0.534137 0.069000
0.801814 0.534137 0.069000
0.827295 0.534137 0.069000
0.851920 0.534137 0.069000
0.875643 0.534137 0.069000
0.898425 0.534136 0.069000
0.920231 0.534134 0.069000
0.050952 0.563676 0.072353
0.068712 0.563772 0.072353
0.088513 0.563871 0.072353
0.110112 0.563966 0.072353
0.133307 0.564056 0.072353
0.157919 0.564139 0.069000
0.183782 0.564211 0.069000
0.210742 0.564271 0.069000
0.238654 0.564318 0.069000
0.267381 0.564352 0.069000
0.296788 0.564372 0.069000
0.326750 0.564380 0.069000
0.357145 0.564380 0.069000
0.387865 0.564380 0.069000
0.418806 0.564380 0.069000
0.449869 0.564380 0.069000
0.480961 0.564380 0.069000
0.511990 0.564380 0.069000
0.542871 0.564380 0.069000
0.573523 0.564380 0.069000
0.603866 0.564380 0.069000
0.633827 0.564380 0.069000
0.663334 0.564380 0.069000
0.692319 0.564380 0.069000
0.720719 0.564380 0.069000
0.748473 0.564380 0.069000
0.775522 0.564380 0.069000
0.801819 0.564378 0.069000
0.827318 0.564373 0.069000
0.851967 0.564364 0.069000
0.875719 0.564354 0.069000
0.898530 0.564343 0.069000
0.920361 0.564331 0.069000
0.050429 0.594030 0.072353
0.068257 0.594094 0.069000
0.088130 0.594156 0.069000
0.109801 0.594212 0.069000
0.133066 0.594261 0.069000
0.157743 0.594301 0.069000
0.183665 0.594329 0.069000
0.210675 0.594344 0.069000
0.238625 0.594347 0.069000
0.267372 0.594347 0.069000
0.296787 0.594347 0.069000
0.326750 0.594347 0.069000
0.357145 0.594347 0.069000
0.387865 0.594347 0.069000
0.418806 0.594347 0.069000
0.449869 0.594347 0.069000
0.480961 0.594347 0.069000
0.511990 0.594347 0.069000
0.542871 0.594347 0.069000
0.573523 0.594347 0.069000
0.603866 0.594347 0.069000
0.633827 0.594347 0.069000
0.663334 0.594347 0.069000
0.692323 0.594346 0.069000
0.720745 0.594339 0.069000
0.748536 0.594326 0.069000
0.775635 0.594310 0.069000
0.801984 0.594290 0.069000
0.827527 0.594269 0.069000
0.852215 0.594247 0.069000
0.876001 0.594225 0.069000
0.898841 0.594204 0.069000
0.920696 0.594183 0.069000
0.050093 0.623897 0.069000
0.067983 0.623925 0.069000
0.087920 0.623947 0.069000
0.109653 0.623961 0.069000
0.132977 0.623965 0.069000
0.157700 0.623965 0.069000
0.183650 0.623965 0.069000
0.210673 0.623965 0.069000
0.238625 0.623965 0.069000
0.267372 0.623965 0.069000
0.296787 0.623965 0.069000
0.326750 0.623965 0.069000
0.357145 0.623965 0.069000
0.387865 0.623965 0.069000
0.418806 0.623965 0.069000
0.449869 0.623965 0.069000
0.480961 0.623965 0.069000
0.511990 0.623965 0.069000
0.542871 0.623965 0.069000
0.573523 0.623965 0.069000
0.603879 0.623961 0.069000
0.633879 0.623948 0.069000
0.663449 0.623928 0.069000
0.692514 0.623902 0.069000
0.721007 0.623872 0.069000
0.748861 0.623839 0.069000
0.776016 0.623804 0.069000
0.802413 0.623768 0.069000
0.828000 0.623732 0.069000
0.852725 0.623697 0.069000
0.876542 0.623664 0.069000
0.899410 0.623632 0.069000
0.921288 0.623603 0.069000
0.050000 0.653167 0.069000
0.067931 0.653167 0.069000
0.087897 0.653167 0.069000
0.109648 0.653167 0.069000
0.132977 0.653167 0.069000
0.157700 0.653167 0.069000
0.183650 0.653167 0.069000
0.210673 0.653167 0.069000
0.238625 0.653167 0.069000
0.267372 0.653167 0.069000
0.296787 0.653167 0.069000
0.326750 0.653167 0.069000
0.357145 0.653167 0.069000
0.387865 0.653167 0.069000
0.418806 0.653167 0.069000
0.449869 0.653167 0.069000
0.480961 0.653166 0.069000
0.512013 0.653159 0.069000
0.542952 0.653141 0.069000
0.573691 0.653113 0.069000
0.604146 0.653077 0.069000
0.634238 0.653035 0.069000
0.663889 0.652988 0.069000
0.693028 0.652938 0.069000
0.721586 0.652887 0.069000
0.749498 0.652834 0.069000
0.776704 0.652781 0.069000
0.803147 0.652730 0.069000
0.828772 0.652681 0.069000
0.853531 0.652634 0.069000
0.877378 0.652591 0.069000
0.900270 0.652550 0.069000
0.922168 0.652513 0.069000
0.050000 0.681885 0.069000
0.067931 0.681885 0.069000
0.087897 0.681885 0.069000
0.109648 0.681885 0.069000
0.132977 0.681885 0.069000
0.157700 0.681885 0.069000
0.183650 0.681885 0.069000
0.210673 0.681885 0.069000
0.238625 0.681885 0.069000
0.267372 0.681885 0.069000
0.296787 0.681885 0.069000
0.326750 0.681885 0.069000
0.357145 0.681885 0.069000
0.387866 0.681885 0.069000
0.418839 0.681875 0.069000
0.449975 0.681852 0.069000
0.481177 0.681817 0.069000
0.512348 0.681772 0.069000
0.543397 0.681719 0.069000
0.574236 0.681659 0.069000
0.604783 0.681594 0.069000
0.634957 0.681525 0.069000
0.664683 0.681454 0.069000
0.693888 0.681382 0.069000
0.722505 0.681310 0.069000
0.750470 0.681240 0.069000
0.777722 0.681172 0.069000
0.804204 0.681107 0.069000
0.829864 0.681046 0.069000
0.854653 0.680989 0.069000
0.878524 0.680936 0.069000
0.901437 0.680888 0.069000
0.923354 0.680844 0.069000
0.050000 0.710058 0.069000
0.067931 0.710058 0.069000
0.087897 0.710058 0.069000
0.109648 0.710058 0.069000
0.132977 0.710058 0.069000
0.157700 0.710058 0.069000
0.183650 0.710058 0.069000
0.210673 0.710058 0.069000
0.238625 0.710058 0.069000
0.267372 0.710058 0.069000
0.296790 0.710057 0.069000
0.326792 0.710045 0.069000
0.357274 0.710018 0.069000
0.388123 0.709978 0.069000
0.419230 0.709926 0.069000
0.450493 0.709863 0.069000
0.481812 0.709791 0.069000
0.513091 0.709712 0.069000
0.544240 0.709626 0.069000
0.575170 0.709537 0.069000
0.605799 0.709445 0.069000
0.636047 0.709352 0.069000
0.665839 0.709259 0.069000
0.695103 0.709168 0.069000
0.723773 0.709079 0.069000
0.751783 0.708993 0.069000
0.779074 0.708912 0.069000
0.805590 0.708835 0.069000
0.831279 0.708763 0.069000
0.856092 0.708697 0.069000
0.879984 0.708637 0.069000
0.902913 0.708582 0.069000
0.924843 0.708534 0.069000
0.050000 0.737627 0.069000
0.067931 0.737627 0.069000
0.087897 0.737627 0.069000
0.109648 0.737627 0.069000
0.132977 0.737627 0.069000
0.157700 0.737627 0.069000
0.183650 0.737627 0.069000
0.210681 0.737625 0.069000
0.238684 0.737609 0.069000
0.267530 0.737578 0.069000
0.297088 0.737534 0.069000
0.327235 0.737476 0.069000
0.357855 0.737406 0.069000
0.388834 0.737325 0.069000
0.420064 0.737234 0.069000
0.451441 0.737135 0.069000
0.482865 0.737030 0.069000
0.514241 0.736919 0.069000
0.545478 0.736806 0.069000
0.576489 0.736691 0.069000
0.607190 0.736575 0.069000
0.637502 0.736461 0.069000
0.667351 0.736349 0.069000
0.696666 0.736241 0.069000
0.725379 0.736137 0.069000
0.753427 0.736038 0.069000
0.780750 0.735946 0.069000
0.807293 0.735859 0.069000
0.833005 0.735779 0.069000
0.857836 0.735706 0.069000
0.881743 0.735640 0.069000
0.904684 0.735581 0.069000
0.926623 0.735528 0.072353
0.050000 0.764536 0.069000
0.067931 0.764536 0.069000
0.087897 0.764536 0.069000
0.109650 0.764535 0.069000
0.133006 0.764527 0.069000
0.157797 0.764506 0.069000
0.183857 0.764472 0.069000
0.211035 0.764424 0.069000
0.239185 0.764362 0.069000
0.268173 0.764287 0.069000
0.297868 0.764200 0.069000
0.328147 0.764101 0.069000
0.358891 0.763992 0.069000
0.389987 0.763874 0.069000
0.421326 0.763749 0.069000
0.452803 0.763618 0.069000
0.484320 0.763483 0.069000
0.515781 0.763345 0.069000
0.547094 0.763207 0.069000
0.578174 0.763069 0.069000
0.608936 0.762934 0.069000
0.639303 0.762801 0.069000
0.669199 0.762674 0.069000
0.698554 0.762551 0.069000
