v2/tools/blender-substrate/grade/luts/substrate-act3.cube
TITLE "Substrate Act 3 — Evidence"
# GRADE.md steps 1-7 (point-wise). Halation/grain/vignette excluded.
LUT_3D_SIZE 33
DOMAIN_MIN 0.0 0.0 0.0
DOMAIN_MAX 1.0 1.0 1.0
0.055000 0.055001 0.064450
0.070502 0.055268 0.064450
0.087865 0.055568 0.064450
0.106907 0.055895 0.067971
0.127472 0.056247 0.067971
0.149419 0.056620 0.067971
0.172613 0.057009 0.071494
0.196931 0.057411 0.071494
0.222256 0.057822 0.071494
0.248475 0.058238 0.071494
0.275481 0.058655 0.075018
0.303172 0.059069 0.075018
0.331447 0.059478 0.075018
0.360209 0.059876 0.078543
0.389366 0.060261 0.078543
0.418824 0.060631 0.078543
0.448494 0.060981 0.082069
0.478286 0.061311 0.082069
0.508113 0.061618 0.082069
0.537889 0.061901 0.082069
0.567528 0.062158 0.082069
0.596946 0.062389 0.085597
0.626060 0.062594 0.085597
0.654787 0.062772 0.085597
0.683046 0.062924 0.085597
0.710758 0.063052 0.085597
0.737842 0.063155 0.085597
0.764224 0.063236 0.085597
0.789825 0.063295 0.085597
0.814575 0.063336 0.085597
0.838401 0.063358 0.085597
0.861234 0.063366 0.085597
0.883008 0.063360 0.085597
0.055563 0.070709 0.067971
0.070500 0.070791 0.067971
0.087802 0.070913 0.067971
0.106794 0.071063 0.067971
0.127319 0.071237 0.071494
0.149234 0.071430 0.071494
0.172408 0.071640 0.071494
0.196715 0.071861 0.071494
0.222038 0.072091 0.075018
0.248265 0.072325 0.075018
0.275287 0.072560 0.075018
0.303002 0.072792 0.078543
0.331309 0.073017 0.078543
0.360111 0.073231 0.078543
0.389313 0.073433 0.078543
0.418822 0.073618 0.082069
0.448547 0.073785 0.082069
0.478399 0.073930 0.082069
0.508288 0.074054 0.082069
0.538129 0.074153 0.085597
0.567835 0.074228 0.085597
0.597320 0.074277 0.085597
0.626502 0.074300 0.085597
0.655297 0.074298 0.085597
0.683623 0.074271 0.085597
0.711400 0.074219 0.085597
0.738550 0.074145 0.085597
0.764993 0.074049 0.085597
0.790655 0.073933 0.085597
0.815463 0.073798 0.085597
0.839344 0.073648 0.085597
0.862231 0.073482 0.085597
0.884056 0.073305 0.085597
0.056183 0.088259 0.067971
0.070566 0.088312 0.071494
0.087818 0.088414 0.071494
0.106771 0.088543 0.071494
0.127268 0.088694 0.071494
0.149166 0.088864 0.075018
0.172333 0.089049 0.075018
0.196646 0.089245 0.075018
0.221985 0.089448 0.075018
0.248240 0.089654 0.078543
0.275300 0.089859 0.078543
0.303064 0.090060 0.078543
0.331430 0.090253 0.078543
0.360300 0.090435 0.082069
0.389579 0.090603 0.082069
0.419172 0.090754 0.082069
0.448989 0.090886 0.082069
0.478938 0.090996 0.085597
0.508931 0.091083 0.085597
0.538879 0.091147 0.085597
0.568696 0.091185 0.085597
0.598295 0.091198 0.085597
0.627593 0.091185 0.085597
0.656504 0.091148 0.085597
0.684947 0.091085 0.085597
0.712841 0.091000 0.085597
0.740105 0.090891 0.085597
0.766662 0.090762 0.085597
0.792436 0.090614 0.085597
0.817353 0.090448 0.085597
0.841341 0.090267 0.085597
0.864330 0.090073 0.085597
0.886256 0.089866 0.085597
0.056840 0.107484 0.071494
0.070677 0.107511 0.071494
0.087884 0.107594 0.075018
0.106804 0.107702 0.075018
0.127279 0.107832 0.075018
0.149167 0.107980 0.075018
0.172336 0.108142 0.075018
0.196662 0.108314 0.078543
0.222027 0.108491 0.078543
0.248317 0.108670 0.078543
0.275426 0.108847 0.078543
0.303248 0.109018 0.082069
0.331682 0.109181 0.082069
0.360629 0.109331 0.082069
0.389994 0.109466 0.082069
0.419681 0.109583 0.085597
0.449599 0.109681 0.085597
0.479655 0.109757 0.085597
0.509759 0.109809 0.085597
0.539823 0.109838 0.085597
0.569758 0.109841 0.085597
0.599478 0.109819 0.085597
0.628898 0.109772 0.085597
0.657931 0.109700 0.085597
0.686496 0.109604 0.085597
0.714511 0.109486 0.085597
0.741894 0.109346 0.085597
0.768568 0.109185 0.085597
0.794456 0.109007 0.085597
0.819484 0.108812 0.085597
0.843579 0.108602 0.085597
0.866673 0.108380 0.085597
0.888699 0.108147 0.085597
0.057512 0.128244 0.075018
0.070808 0.128245 0.075018
0.087978 0.128309 0.075018
0.106872 0.128399 0.075018
0.127332 0.128510 0.078543
0.149218 0.128637 0.078543
0.172397 0.128776 0.078543
0.196745 0.128924 0.078543
0.222144 0.129077 0.082069
0.248479 0.129229 0.082069
0.275644 0.129379 0.082069
0.303533 0.129522 0.082069
0.332044 0.129655 0.082069
0.361078 0.129774 0.085597
0.390537 0.129878 0.085597
0.420326 0.129963 0.085597
0.450352 0.130027 0.085597
0.480521 0.130070 0.085597
0.510744 0.130088 0.085597
0.540929 0.130083 0.085597
0.570988 0.130053 0.085597
0.600834 0.129998 0.085597
0.630379 0.129918 0.085597
0.659538 0.129813 0.085597
0.688227 0.129686 0.085597
0.716364 0.129536 0.085597
0.743867 0.129366 0.085597
0.770659 0.129177 0.085597
0.796660 0.128970 0.085597
0.821798 0.128748 0.085597
0.846000 0.128512 0.085597
0.869196 0.128265 0.085597
0.891320 0.128008 0.085597
0.058173 0.150411 0.078543
0.070935 0.150387 0.078543
0.088074 0.150435 0.078543
0.106948 0.150506 0.078543
0.127403 0.150598 0.078543
0.149295 0.150705 0.082069
0.172492 0.150823 0.082069
0.196871 0.150948 0.082069
0.222311 0.151077 0.082069
0.248701 0.151204 0.082069
0.275931 0.151327 0.085597
0.303895 0.151443 0.085597
0.332491 0.151547 0.085597
0.361619 0.151636 0.085597
0.391179 0.151709 0.085597
0.421077 0.151763 0.085597
0.451217 0.151796 0.085597
0.481505 0.151806 0.085597
0.511850 0.151793 0.085597
0.542161 0.151755 0.085597
0.572347 0.151693 0.085597
0.602319 0.151606 0.085597
0.631991 0.151495 0.085597
0.661276 0.151360 0.085597
0.690089 0.151203 0.085597
0.718347 0.151025 0.085597
0.745969 0.150827 0.085597
0.772875 0.150611 0.085597
0.798987 0.150379 0.085597
0.824231 0.150132 0.085597
0.848534 0.149873 0.085597
0.871827 0.149603 0.085597
0.894044 0.149325 0.082069
0.058794 0.173869 0.078543
0.071029 0.173821 0.082069
0.088144 0.173853 0.082069
0.107007 0.173907 0.082069
0.127464 0.173980 0.082069
0.149370 0.174067 0.082069
0.172594 0.174165 0.082069
0.197011 0.174268 0.085597
0.222503 0.174373 0.085597
0.248955 0.174476 0.085597
0.276257 0.174574 0.085597
0.304304 0.174662 0.085597
0.332992 0.174738 0.085597
0.362219 0.174799 0.085597
0.391887 0.174843 0.085597
0.421898 0.174866 0.085597
0.452156 0.174869 0.085597
0.482566 0.174848 0.085597
0.513036 0.174804 0.085597
0.543473 0.174736 0.085597
0.573787 0.174644 0.085597
0.603886 0.174527 0.085597
0.633684 0.174387 0.085597
0.663092 0.174224 0.085597
0.692026 0.174040 0.085597
0.720401 0.173836 0.085597
0.748136 0.173612 0.085597
0.775150 0.173372 0.085597
0.801366 0.173117 0.082069
0.826709 0.172849 0.082069
0.851107 0.172569 0.082069
0.874489 0.172280 0.082069
0.896790 0.171984 0.082069
0.059349 0.198509 0.082069
0.071062 0.198439 0.082069
0.088159 0.198454 0.082069
0.107019 0.198491 0.082069
0.127485 0.198547 0.085597
0.149414 0.198615 0.085597
0.172673 0.198692 0.085597
0.197137 0.198774 0.085597
0.222687 0.198856 0.085597
0.249208 0.198936 0.085597
0.276590 0.199008 0.085597
0.304726 0.199070 0.085597
0.333511 0.199119 0.085597
0.362844 0.199152 0.085597
0.392622 0.199167 0.085597
0.422750 0.199162 0.085597
0.453128 0.199135 0.085597
0.483662 0.199085 0.085597
0.514257 0.199012 0.085597
0.544819 0.198916 0.085597
0.575258 0.198795 0.085597
0.605481 0.198651 0.085597
0.635400 0.198484 0.085597
0.664926 0.198295 0.085597
0.693974 0.198086 0.085597
0.722459 0.197858 0.082069
0.750298 0.197612 0.082069
0.777412 0.197351 0.082069
0.803723 0.197076 0.082069
0.829155 0.196789 0.082069
0.853636 0.196492 0.082069
0.877097 0.196186 0.078543
0.899472 0.195875 0.078543
0.059809 0.224228 0.085597
0.071005 0.224136 0.085597
0.088092 0.224135 0.085597
0.106956 0.224156 0.085597
0.127439 0.224193 0.085597
0.149398 0.224243 0.085597
0.172699 0.224300 0.085597
0.197218 0.224360 0.085597
0.222833 0.224420 0.085597
0.249430 0.224476 0.085597
0.276897 0.224524 0.085597
0.305127 0.224560 0.085597
0.334014 0.224583 0.085597
0.363454 0.224589 0.085597
0.393346 0.224576 0.085597
0.423591 0.224543 0.085597
0.454089 0.224489 0.085597
0.484745 0.224411 0.085597
0.515462 0.224311 0.085597
0.546147 0.224187 0.085597
0.576705 0.224040 0.085597
0.607046 0.223870 0.085597
0.637078 0.223679 0.082069
0.666715 0.223467 0.082069
0.695867 0.223235 0.082069
0.724452 0.222986 0.082069
0.752385 0.222721 0.082069
0.779586 0.222442 0.082069
0.805979 0.222150 0.078543
0.831487 0.221847 0.078543
0.856038 0.221536 0.078543
0.879564 0.221218 0.078543
0.901998 0.220895 0.078543
0.060151 0.250926 0.085597
0.070833 0.250811 0.085597
0.087917 0.250795 0.085597
0.106792 0.250799 0.085597
0.127299 0.250819 0.085597
0.149295 0.250849 0.085597
0.172645 0.250886 0.085597
0.197224 0.250925 0.085597
0.222910 0.250963 0.085597
0.249588 0.250995 0.085597
0.277145 0.251018 0.085597
0.305472 0.251030 0.085597
0.334462 0.251026 0.085597
0.364012 0.251006 0.085597
0.394017 0.250967 0.085597
0.424378 0.250907 0.085597
0.454994 0.250826 0.085597
0.485768 0.250722 0.085597
0.516603 0.250596 0.085597
0.547402 0.250447 0.082069
0.578073 0.250275 0.082069
0.608522 0.250082 0.082069
0.638659 0.249869 0.082069
0.668393 0.249636 0.082069
0.697638 0.249385 0.078543
0.726308 0.249118 0.078543
0.754321 0.248836 0.078543
0.781595 0.248542 0.078543
0.808053 0.248236 0.078543
0.833620 0.247922 0.075018
0.858225 0.247600 0.075018
0.881798 0.247272 0.075018
0.904275 0.246941 0.075018
0.060354 0.278502 0.085597
0.070525 0.278367 0.085597
0.087611 0.278334 0.085597
0.106503 0.278321 0.085597
0.127041 0.278323 0.085597
0.149079 0.278334 0.085597
0.172484 0.278351 0.085597
0.197128 0.278368 0.085597
0.222890 0.278383 0.085597
0.249652 0.278392 0.085597
0.277302 0.278391 0.085597
0.305728 0.278377 0.085597
0.334822 0.278349 0.085597
0.364480 0.278302 0.085597
0.394596 0.278237 0.085597
0.425070 0.278151 0.085597
0.455799 0.278044 0.082069
0.486684 0.277916 0.082069
0.517628 0.277765 0.082069
0.548534 0.277592 0.082069
0.579307 0.277398 0.082069
0.609852 0.277184 0.078543
0.640079 0.276950 0.078543
0.669897 0.276699 0.078543
0.699219 0.276432 0.078543
0.727958 0.276149 0.078543
0.756032 0.275854 0.075018
0.783361 0.275548 0.075018
0.809866 0.275232 0.075018
0.835473 0.274909 0.075018
0.860111 0.274580 0.071494
0.883713 0.274247 0.071494
0.906212 0.273910 0.071494
0.060404 0.306857 0.085597
0.070066 0.306701 0.085597
0.087160 0.306653 0.085597
0.106074 0.306622 0.085597
0.126647 0.306605 0.085597
0.148733 0.306597 0.085597
0.172197 0.306592 0.085597
0.196910 0.306588 0.085597
0.222750 0.306580 0.085597
0.249598 0.306565 0.085597
0.277341 0.306539 0.085597
0.305865 0.306501 0.085597
0.335062 0.306446 0.085597
0.364825 0.306375 0.082069
0.395048 0.306284 0.082069
0.425628 0.306173 0.082069
0.456462 0.306041 0.082069
0.487451 0.305888 0.082069
0.518494 0.305714 0.078543
0.549493 0.305520 0.078543
0.580354 0.305305 0.078543
0.610981 0.305072 0.078543
0.641281 0.304821 0.075018
0.671166 0.304554 0.075018
0.700545 0.304272 0.075018
0.729334 0.303977 0.075018
0.757449 0.303672 0.075018
0.784810 0.303357 0.071494
0.811340 0.303034 0.071494
0.836965 0.302706 0.071494
0.861614 0.302373 0.071494
0.885220 0.302037 0.071494
0.907720 0.301700 0.067971
0.060295 0.335891 0.085597
0.069448 0.335715 0.085597
0.086554 0.335649 0.085597
0.105493 0.335601 0.085597
0.126105 0.335564 0.085597
0.148242 0.335535 0.085597
0.171768 0.335509 0.085597
0.196552 0.335482 0.085597
0.222472 0.335451 0.085597
0.249407 0.335411 0.085597
0.277241 0.335360 0.082069
0.305861 0.335296 0.082069
0.335157 0.335217 0.082069
0.365019 0.335119 0.082069
0.395342 0.335003 0.082069
0.426020 0.334867 0.078543
0.456949 0.334712 0.078543
0.488028 0.334536 0.078543
0.519157 0.334340 0.078543
0.550235 0.334124 0.075018
0.581167 0.333891 0.075018
0.611857 0.333640 0.075018
0.642213 0.333374 0.075018
0.672143 0.333093 0.071494
0.701558 0.332799 0.071494
0.730373 0.332495 0.071494
0.758506 0.332182 0.071494
0.785875 0.331861 0.071494
0.812405 0.331535 0.067971
0.838022 0.331205 0.067971
0.862657 0.330872 0.067971
0.886242 0.330537 0.067971
0.908717 0.330203 0.067971
0.060027 0.365498 0.085597
0.068671 0.365303 0.085597
0.085791 0.365220 0.085597
0.104760 0.365152 0.085597
0.125413 0.365095 0.085597
0.147603 0.365044 0.085597
0.171192 0.364996 0.082069
0.196047 0.364945 0.082069
0.222045 0.364889 0.082069
0.249064 0.364824 0.082069
0.276987 0.364748 0.082069
0.305698 0.364658 0.082069
0.335086 0.364552 0.078543
0.365041 0.364429 0.078543
0.395454 0.364288 0.078543
0.426219 0.364127 0.078543
0.457230 0.363948 0.075018
0.488385 0.363750 0.075018
0.519583 0.363533 0.075018
0.550723 0.363298 0.075018
0.581707 0.363047 0.071494
0.612439 0.362780 0.071494
0.642827 0.362500 0.071494
0.672779 0.362208 0.071494
0.702205 0.361906 0.067971
0.731022 0.361594 0.067971
0.759145 0.361276 0.067971
0.786495 0.360953 0.067971
0.812997 0.360626 0.067971
0.838578 0.360297 0.067971
0.863170 0.359967 0.064450
0.886707 0.359637 0.064450
0.909128 0.359309 0.064450
0.059611 0.395572 0.082069
0.067745 0.395358 0.082069
0.084881 0.395256 0.082069
0.103879 0.395168 0.082069
0.124575 0.395090 0.082069
0.146818 0.395016 0.082069
0.170469 0.394944 0.082069
0.195395 0.394868 0.082069
0.221469 0.394786 0.078543
0.248568 0.394695 0.078543
0.276573 0.394592 0.078543
0.305369 0.394476 0.078543
0.334841 0.394343 0.078543
0.364877 0.394194 0.075018
0.395368 0.394027 0.075018
0.426206 0.393842 0.075018
0.457284 0.393639 0.075018
0.488499 0.393419 0.071494
0.519746 0.393182 0.071494
0.550926 0.392929 0.071494
0.581940 0.392661 0.071494
0.612692 0.392381 0.067971
0.643087 0.392089 0.067971
0.673034 0.391787 0.067971
0.702444 0.391477 0.067971
0.731233 0.391161 0.067971
0.759317 0.390841 0.064450
0.786619 0.390518 0.064450
0.813063 0.390194 0.064450
0.838577 0.389869 0.064450
0.863095 0.389545 0.064450
0.886553 0.389223 0.064450
0.908891 0.388904 0.064450
0.059066 0.426001 0.082069
0.066687 0.425770 0.082069
0.083839 0.425648 0.082069
0.102868 0.425539 0.078543
0.123606 0.425438 0.078543
0.145901 0.425340 0.078543
0.169611 0.425241 0.078543
0.194603 0.425139 0.078543
0.220748 0.425030 0.078543
0.247922 0.424912 0.075018
0.276003 0.424781 0.075018
0.304873 0.424636 0.075018
0.334418 0.424476 0.075018
0.364523 0.424300 0.071494
0.395078 0.424107 0.071494
0.425973 0.423897 0.071494
0.457100 0.423671 0.071494
0.488353 0.423429 0.067971
0.519630 0.423172 0.067971
0.550827 0.422901 0.067971
0.581846 0.422618 0.067971
0.612590 0.422325 0.067971
0.642965 0.422022 0.064450
0.672878 0.421713 0.064450
0.702242 0.421398 0.064450
0.730972 0.421080 0.064450
0.758986 0.420760 0.064450
0.786207 0.420439 0.064450
0.812559 0.420120 0.064450
0.837977 0.419802 0.064450
0.862422 0.419485 0.064450
0.885838 0.419168 0.064450
0.908166 0.418851 0.064450
0.058421 0.456670 0.078543
0.065526 0.456423 0.078543
0.082694 0.456280 0.078543
0.101751 0.456148 0.078543
0.122528 0.456022 0.078543
0.144872 0.455898 0.075018
0.168638 0.455773 0.075018
0.193691 0.455643 0.075018
0.219901 0.455505 0.075018
0.247140 0.455357 0.075018
0.275287 0.455197 0.071494
0.304221 0.455023 0.071494
0.333825 0.454834 0.071494
0.363984 0.454630 0.071494
0.394586 0.454410 0.067971
0.425519 0.454175 0.067971
0.456674 0.453925 0.067971
0.487945 0.453661 0.067971
0.519226 0.453384 0.067971
0.550415 0.453096 0.064450
0.581413 0.452798 0.064450
0.612120 0.452492 0.064450
0.642444 0.452181 0.064450
0.672293 0.451865 0.064450
0.701579 0.451547 0.064450
0.730219 0.451228 0.064450
0.758159 0.450909 0.064450
0.785336 0.450590 0.064450
0.811680 0.450272 0.064450
0.837124 0.449953 0.064450
0.861603 0.449634 0.064450
0.885055 0.449315 0.064450
0.907422 0.448997 0.064450
0.057713 0.487460 0.075018
0.064299 0.487198 0.075018
0.081480 0.487033 0.075018
0.100563 0.486877 0.075018
0.121376 0.486725 0.075018
0.143763 0.486573 0.075018
0.167579 0.486419 0.071494
0.192686 0.486258 0.071494
0.218951 0.486090 0.071494
0.246246 0.485911 0.071494
0.274446 0.485719 0.067971
0.303430 0.485515 0.067971
0.333079 0.485296 0.067971
0.363275 0.485062 0.067971
0.393905 0.484815 0.067971
0.424856 0.484553 0.067971
0.456017 0.484278 0.064450
0.487280 0.483992 0.064450
0.518540 0.483695 0.064450
0.549693 0.483390 0.064450
0.580639 0.483078 0.064450
0.611280 0.482761 0.064450
0.641533 0.482442 0.064450
0.671333 0.482122 0.064450
0.700598 0.481803 0.064450
0.729251 0.481484 0.064450
0.757216 0.481164 0.064450
0.784421 0.480845 0.064450
0.810794 0.480526 0.064450
0.836270 0.480206 0.064450
0.860783 0.479887 0.064450
0.884271 0.479568 0.064450
0.906676 0.479248 0.064450
0.056988 0.518249 0.071494
0.063051 0.517975 0.071494
0.080240 0.517786 0.071494
0.099344 0.517603 0.071494
0.120188 0.517423 0.071494
0.142612 0.517242 0.071494
0.166471 0.517056 0.071494
0.191622 0.516864 0.067971
0.217932 0.516662 0.067971
0.245271 0.516450 0.067971
0.273511 0.516226 0.067971
0.302530 0.515988 0.067971
0.332206 0.515737 0.064450
0.362420 0.515473 0.064450
0.393057 0.515196 0.064450
0.424003 0.514907 0.064450
0.455145 0.514607 0.064450
0.486375 0.514298 0.064450
0.517586 0.513981 0.064450
0.548692 0.513662 0.064450
0.579606 0.513343 0.064450
0.610239 0.513024 0.064450
0.640506 0.512705 0.064450
0.670322 0.512386 0.064450
0.699607 0.512068 0.064450
0.728282 0.511749 0.064450
0.756272 0.511430 0.064450
0.783504 0.511111 0.064450
0.809907 0.510792 0.064450
0.835415 0.510473 0.064450
0.859961 0.510154 0.064450
0.883485 0.509835 0.064450
0.905928 0.509516 0.064450
0.056297 0.548913 0.071494
0.061833 0.548627 0.067971
0.079027 0.548413 0.067971
0.098146 0.548203 0.067971
0.119013 0.547993 0.067971
0.141467 0.547779 0.067971
0.165358 0.547561 0.067971
0.190543 0.547334 0.067971
0.216886 0.547097 0.067971
0.244255 0.546850 0.064450
0.272520 0.546590 0.064450
0.301556 0.546318 0.064450
0.331240 0.546033 0.064450
0.361452 0.545737 0.064450
0.392073 0.545429 0.064450
0.422991 0.545112 0.064450
0.454104 0.544795 0.064450
0.485313 0.544477 0.064450
0.516521 0.544160 0.064450
0.547631 0.543842 0.064450
0.578553 0.543524 0.064450
0.609198 0.543207 0.064450
0.639478 0.542889 0.064450
0.669311 0.542572 0.064450
0.698616 0.542254 0.064450
0.727313 0.541936 0.064450
0.755327 0.541618 0.064450
0.782586 0.541301 0.064450
0.809019 0.540983 0.064450
0.834558 0.540665 0.064450
0.859139 0.540347 0.064450
0.882700 0.540029 0.064450
0.905187 0.539709 0.064450
0.055699 0.579326 0.067971
0.060703 0.579031 0.067971
0.077894 0.578790 0.067971
0.097021 0.578550 0.067971
0.117904 0.578308 0.064450
0.140378 0.578061 0.064450
0.164291 0.577806 0.064450
0.189498 0.577543 0.064450
0.215861 0.577269 0.064450
0.243244 0.576984 0.064450
0.271516 0.576686 0.064450
0.300551 0.576377 0.064450
0.330223 0.576062 0.064450
0.360417 0.575747 0.064450
0.391022 0.575432 0.064450
0.421930 0.575116 0.064450
0.453039 0.574801 0.064450
0.484246 0.574486 0.064450
0.515455 0.574170 0.064450
0.546570 0.573855 0.064450
0.577500 0.573540 0.064450
0.608156 0.573224 0.064450
0.638450 0.572909 0.064450
0.668300 0.572593 0.064450
0.697623 0.572278 0.064450
0.726343 0.571962 0.064450
0.754382 0.571647 0.064450
0.781671 0.571330 0.064450
0.808149 0.571009 0.064450
0.833744 0.570685 0.064450
0.858387 0.570359 0.064450
0.882015 0.570032 0.064450
0.904566 0.569705 0.064450
0.055252 0.609361 0.064450
0.059720 0.609060 0.064450
0.076903 0.608791 0.064450
0.096030 0.608520 0.064450
0.116918 0.608243 0.064450
0.139402 0.607960 0.064450
0.163325 0.607667 0.064450
0.188541 0.607365 0.064450
0.214906 0.607054 0.064450
0.242280 0.606742 0.064450
0.270534 0.606430 0.064450
0.299547 0.606117 0.064450
0.329200 0.605805 0.064450
0.359378 0.605493 0.064450
0.389970 0.605181 0.064450
0.420870 0.604869 0.064450
0.451973 0.604557 0.064450
0.483179 0.604244 0.064450
0.514389 0.603932 0.064450
0.545509 0.603620 0.064450
0.576447 0.603307 0.064450
0.607113 0.602995 0.064450
0.637421 0.602682 0.064450
0.667289 0.602370 0.064450
0.696650 0.602051 0.064450
0.725427 0.601727 0.064450
0.753539 0.601398 0.064450
0.780910 0.601066 0.064450
0.807465 0.600732 0.064450
0.833132 0.600397 0.064450
0.857845 0.600062 0.064450
0.881539 0.599727 0.064450
0.904153 0.599393 0.064450
0.055020 0.638896 0.064450
0.058948 0.638590 0.064450
0.076113 0.638292 0.064450
0.095232 0.637987 0.064450
0.116110 0.637679 0.064450
0.138577 0.637371 0.064450
0.162475 0.637064 0.064450
0.187658 0.636756 0.064450
0.213987 0.636448 0.064450
0.241329 0.636140 0.064450
0.269555 0.635832 0.064450
0.298544 0.635523 0.064450
0.328177 0.635215 0.064450
0.358339 0.634907 0.064450
0.388919 0.634599 0.064450
0.419810 0.634291 0.064450
0.450907 0.633982 0.064450
0.482111 0.633674 0.064450
0.513323 0.633365 0.064450
0.544448 0.633057 0.064450
0.575400 0.632746 0.064450
0.606111 0.632427 0.064450
0.636492 0.632099 0.064450
0.666453 0.631765 0.064450
0.695908 0.631426 0.064450
0.724774 0.631084 0.064450
0.752970 0.630739 0.064450
0.780419 0.630394 0.064450
0.807048 0.630048 0.064450
0.832786 0.629703 0.064450
0.857566 0.629360 0.064450
0.881324 0.629019 0.064450
0.903999 0.628681 0.064450
0.055000 0.667853 0.064450
0.058382 0.667550 0.064450
0.075489 0.667247 0.064450
0.094548 0.666944 0.064450
0.115369 0.666641 0.064450
0.137784 0.666338 0.064450
0.161636 0.666035 0.064450
0.186777 0.665732 0.064450
0.213069 0.665429 0.064450
0.240379 0.665125 0.064450
0.268577 0.664822 0.064450
0.297542 0.664519 0.064450
0.327154 0.664215 0.064450
0.357300 0.663912 0.064450
0.387867 0.663608 0.064450
0.418749 0.663305 0.064450
0.449842 0.663001 0.064450
0.481058 0.662693 0.064450
0.512322 0.662373 0.064450
0.543533 0.662043 0.064450
0.574595 0.661705 0.064450
0.605411 0.661359 0.064450
0.635892 0.661009 0.064450
0.665947 0.660654 0.064450
0.695490 0.660297 0.064450
0.724438 0.659939 0.064450
0.752713 0.659581 0.064450
0.780236 0.659224 0.064450
0.806935 0.658869 0.064450
0.832740 0.658517 0.064450
0.857584 0.658167 0.064450
0.881402 0.657822 0.064450
0.904136 0.657480 0.064450
0.055000 0.696302 0.064450
0.057834 0.696005 0.064450
0.074870 0.695708 0.064450
0.093866 0.695410 0.064450
0.114630 0.695113 0.064450
0.136993 0.694815 0.064450
0.160798 0.694518 0.064450
0.185898 0.694220 0.064450
0.212153 0.693923 0.064450
0.239430 0.693625 0.064450
0.267600 0.693327 0.064450
0.296540 0.693029 0.064450
0.326133 0.692731 0.064450
0.356262 0.692433 0.064450
0.386840 0.692128 0.064450
0.417778 0.691809 0.064450
0.448968 0.691479 0.064450
0.480303 0.691138 0.064450
0.511681 0.690788 0.064450
0.543000 0.690430 0.064450
0.574165 0.690067 0.064450
0.605079 0.689699 0.064450
0.635651 0.689328 0.064450
0.665792 0.688956 0.064450
0.695417 0.688584 0.064450
0.724442 0.688213 0.064450
0.752789 0.687844 0.064450
0.780382 0.687478 0.064450
0.807146 0.687115 0.064450
0.833013 0.686757 0.064450
0.857915 0.686404 0.064450
0.881791 0.686056 0.064450
0.904579 0.685713 0.064450
0.055000 0.724187 0.064450
0.057289 0.723896 0.064450
0.074255 0.723605 0.064450
0.093187 0.723314 0.064450
0.113893 0.723023 0.064450
0.136204 0.722732 0.064450
0.159962 0.722440 0.064450
0.185020 0.722149 0.064450
0.211238 0.721857 0.064450
0.238482 0.721566 0.064450
0.266625 0.721274 0.064450
0.295577 0.720971 0.064450
0.325228 0.720655 0.064450
0.355460 0.720326 0.064450
0.386161 0.719984 0.064450
0.417216 0.719632 0.064450
0.448519 0.719270 0.064450
0.479963 0.718901 0.064450
0.511444 0.718524 0.064450
0.542863 0.718143 0.064450
0.574120 0.717758 0.064450
0.605122 0.717371 0.064450
0.635777 0.716983 0.064450
0.665997 0.716597 0.064450
0.695695 0.716213 0.064450
0.724791 0.715831 0.064450
0.753203 0.715454 0.064450
0.780858 0.715082 0.064450
0.807682 0.714715 0.064450
0.833605 0.714354 0.064450
0.858562 0.713999 0.064450
0.882490 0.713651 0.064450
0.905329 0.713308 0.064450
0.055000 0.751437 0.064450
0.056746 0.751153 0.064450
0.073641 0.750869 0.064450
0.092509 0.750585 0.064450
0.113158 0.750301 0.064450
0.135417 0.750017 0.064450
0.159128 0.749733 0.064450
0.184158 0.749444 0.064450
0.210391 0.749143 0.064450
0.237696 0.748830 0.064450
0.265944 0.748503 0.064450
0.295011 0.748164 0.064450
0.324776 0.747813 0.064450
0.355120 0.747450 0.064450
0.385929 0.747078 0.064450
0.417090 0.746696 0.064450
0.448494 0.746307 0.064450
0.480035 0.745913 0.064450
0.511608 0.745514 0.064450
0.543114 0.745113 0.064450
0.574454 0.744710 0.064450
0.605534 0.744308 0.064450
0.636263 0.743908 0.064450
0.666552 0.743510 0.064450
