v2/tools/blender-substrate/grade/luts/substrate-act3.cube
TITLE "Substrate Act 3 — Evidence"
# GRADE.md steps 1-7 (point-wise). Halation/grain/vignette excluded.
LUT_3D_SIZE 5
DOMAIN_MIN 0.0 0.0 0.0
DOMAIN_MAX 1.0 1.0 1.0
0.055000 0.055001 0.064450
0.222256 0.057822 0.071494
0.448494 0.060981 0.082069
0.683046 0.062924 0.085597
0.883008 0.063360 0.085597
0.059809 0.224228 0.085597
0.222833 0.224420 0.085597
0.454089 0.224489 0.085597
0.695867 0.223235 0.082069
0.901998 0.220895 0.078543
0.058421 0.456670 0.078543
0.219901 0.455505 0.075018
0.456674 0.453925 0.067971
0.701579 0.451547 0.064450
0.907422 0.448997 0.064450
0.055000 0.696302 0.064450
0.212153 0.693923 0.064450
0.448968 0.691479 0.064450
0.695417 0.688584 0.064450
0.904579 0.685713 0.064450
0.060789 0.896266 0.064450
0.214288 0.893308 0.064450
0.455385 0.889670 0.067971
0.705241 0.886362 0.067971
0.916633 0.883864 0.067971
0.055626 0.055969 0.223050
0.222353 0.058684 0.230044
0.449096 0.061576 0.237027
0.684518 0.063160 0.240515
0.885314 0.063286 0.240515
0.060035 0.224359 0.237027
0.222716 0.224337 0.237027
0.454432 0.224090 0.237027
0.696733 0.222538 0.233537
0.903211 0.220013 0.226548
0.058061 0.456356 0.230044
0.219161 0.454967 0.223050
0.456053 0.453156 0.216046
0.700795 0.450693 0.212541
0.906824 0.448143 0.212541
0.055000 0.695506 0.212541
0.211420 0.693125 0.209034
0.448376 0.690608 0.209034
0.695217 0.687663 0.205524
0.904682 0.684830 0.205524
0.062293 0.895285 0.205524
0.215276 0.892317 0.202013
0.456410 0.888732 0.202013
0.706278 0.885552 0.198500
0.917702 0.883195 0.198500
0.056447 0.057238 0.428122
0.222768 0.059772 0.435079
0.450274 0.062264 0.442068
0.686867 0.063340 0.449091
0.888721 0.063043 0.449091
0.060263 0.224725 0.445575
0.222781 0.224401 0.445575
0.455207 0.223709 0.449091
0.698206 0.221752 0.445575
0.905045 0.218997 0.438570
0.057515 0.456154 0.442068
0.218377 0.454471 0.438570
0.455443 0.452369 0.431597
0.700001 0.449839 0.428122
0.906226 0.447290 0.428122
0.055000 0.694710 0.428122
0.210687 0.692327 0.428122
0.448178 0.689656 0.424654
0.695580 0.686673 0.421194
0.905403 0.683926 0.417740
0.065035 0.894058 0.417740
0.217617 0.891091 0.414293
0.458854 0.887619 0.410851
0.708674 0.884666 0.407416
0.920005 0.882552 0.403986
0.057240 0.058466 0.660819
0.223219 0.060761 0.668971
0.451524 0.062799 0.681189
0.689268 0.063347 0.693383
0.892116 0.062635 0.693383
0.060386 0.224977 0.685257
0.222771 0.224331 0.689322
0.455905 0.223189 0.693383
0.699536 0.220854 0.693383
0.906622 0.217920 0.689322
0.056949 0.455815 0.693383
0.217556 0.453864 0.689322
0.454718 0.451535 0.685257
0.699207 0.448986 0.681189
0.905626 0.446437 0.677119
0.055000 0.693912 0.681189
0.210094 0.691496 0.677119
0.448335 0.688663 0.673046
0.696270 0.685698 0.668971
0.906425 0.683074 0.660819
0.068333 0.892789 0.664895
0.220463 0.889858 0.660819
0.461714 0.886547 0.652667
0.711387 0.883860 0.648591
0.922537 0.882010 0.640446
0.057858 0.059423 0.860425
0.223474 0.061481 0.867157
0.452440 0.063114 0.880444
0.691120 0.063218 0.890281
0.894765 0.062178 0.893540
0.060404 0.224956 0.883734
0.222567 0.224036 0.890281
0.456251 0.222528 0.893540
0.700349 0.219912 0.896790
0.907575 0.216880 0.893540
0.056487 0.455281 0.896790
0.216736 0.453136 0.893540
0.453886 0.450682 0.893540
0.698413 0.448133 0.890281
0.905026 0.445584 0.890281
0.055000 0.693115 0.890281
0.209796 0.690607 0.887013
0.448609 0.687689 0.883734
0.696964 0.684780 0.877143
0.907402 0.682285 0.873828
0.071484 0.891622 0.877143
0.223064 0.888749 0.870500
0.464223 0.885605 0.863799
0.713697 0.883165 0.857033
0.924657 0.881545 0.853624
