v2/tools/blender-substrate/grade/luts/substrate-act5.cube
TITLE "Substrate Act 5 — Contact"
# GRADE.md steps 1-7 (point-wise). Halation/grain/vignette excluded.
LUT_3D_SIZE 9
DOMAIN_MIN 0.0 0.0 0.0
DOMAIN_MAX 1.0 1.0 1.0
0.050000 0.050001 0.069000
0.127231 0.051328 0.072353
0.225821 0.052959 0.075706
0.337111 0.054631 0.082412
0.454508 0.056114 0.085765
0.572479 0.057255 0.089118
0.686153 0.057990 0.089118
0.791197 0.058344 0.089118
0.883866 0.058403 0.089118
0.052705 0.129463 0.079059
0.130295 0.130756 0.082412
0.229728 0.132267 0.085765
0.342366 0.133725 0.089118
0.461486 0.134926 0.089118
0.581338 0.135757 0.089118
0.696822 0.136198 0.089118
0.803425 0.136307 0.089118
0.897303 0.136187 0.089118
0.054996 0.231361 0.089118
0.133478 0.232580 0.089118
0.234345 0.233929 0.089118
0.348853 0.235142 0.089118
0.470043 0.236052 0.089118
0.591880 0.236597 0.085765
0.709013 0.236804 0.085765
0.816776 0.236761 0.082412
0.911300 0.236576 0.079059
0.055205 0.347522 0.089118
0.135036 0.348580 0.089118
0.237707 0.349682 0.085765
0.354194 0.350595 0.082412
0.477204 0.351206 0.079059
0.600385 0.351511 0.075706
0.718174 0.351584 0.072353
0.825849 0.351529 0.072353
0.919650 0.351444 0.069000
0.053051 0.470872 0.082412
0.134396 0.471617 0.079059
0.238796 0.472319 0.075706
0.356798 0.472811 0.072353
0.480699 0.473060 0.069000
0.603847 0.473127 0.069000
0.720719 0.473129 0.069000
0.827295 0.473129 0.069000
0.920221 0.473129 0.069000
0.050429 0.594030 0.072353
0.133066 0.594261 0.069000
0.238625 0.594347 0.069000
0.357145 0.594347 0.069000
0.480961 0.594347 0.069000
0.603866 0.594347 0.069000
0.720745 0.594339 0.069000
0.827527 0.594269 0.069000
0.920696 0.594183 0.069000
0.050000 0.710058 0.069000
0.132977 0.710058 0.069000
0.238625 0.710058 0.069000
0.357274 0.710018 0.069000
0.481812 0.709791 0.069000
0.605799 0.709445 0.069000
0.723773 0.709079 0.069000
0.831279 0.708763 0.069000
0.924843 0.708534 0.069000
0.050538 0.815997 0.069000
0.134406 0.815722 0.069000
0.241609 0.815239 0.069000
0.362208 0.814588 0.069000
0.488310 0.813863 0.069000
0.613363 0.813169 0.069000
0.731963 0.812589 0.072353
0.839761 0.812164 0.072353
0.933396 0.811896 0.072353
0.057049 0.907194 0.069000
0.142262 0.906500 0.069000
0.250818 0.905591 0.069000
0.372498 0.904594 0.072353
0.499292 0.903639 0.072353
0.624649 0.902835 0.072353
0.743237 0.902243 0.072353
0.850811 0.901875 0.072353
0.944117 0.901699 0.075706
0.050281 0.050435 0.136059
0.127530 0.051754 0.139412
0.226189 0.053358 0.142765
0.337603 0.054980 0.149471
0.455168 0.056396 0.152824
0.573333 0.057456 0.156176
0.687201 0.058109 0.156176
0.792420 0.058385 0.159529
0.885232 0.058378 0.159529
0.052941 0.129893 0.146118
0.130585 0.131159 0.149471
0.230117 0.132623 0.152824
0.342896 0.134017 0.156176
0.462185 0.135141 0.156176
0.582211 0.135890 0.159529
0.697851 0.136252 0.159529
0.804580 0.136292 0.156176
0.898546 0.136117 0.156176
0.055095 0.231772 0.156176
0.133661 0.232948 0.156176
0.234650 0.234234 0.159529
0.349303 0.235372 0.159529
0.470640 0.236202 0.156176
0.592604 0.236671 0.156176
0.709827 0.236813 0.152824
0.817635 0.236720 0.152824
0.912162 0.236502 0.149471
0.055125 0.347886 0.159529
0.135057 0.348889 0.156176
0.237851 0.349920 0.156176
0.354461 0.350757 0.152824
0.477567 0.351297 0.149471
0.600796 0.351544 0.146118
0.718573 0.351578 0.146118
0.826180 0.351506 0.142765
0.919866 0.351420 0.142765
0.052861 0.471134 0.149471
0.134302 0.471822 0.149471
0.238801 0.472457 0.146118
0.356871 0.472886 0.142765
0.480783 0.473086 0.142765
0.603865 0.473129 0.139412
0.720719 0.473129 0.139412
0.827295 0.473129 0.139412
0.920221 0.473129 0.139412
0.050317 0.594123 0.142765
0.133025 0.594304 0.139412
0.238625 0.594347 0.139412
0.357145 0.594347 0.139412
0.480961 0.594347 0.139412
0.603866 0.594347 0.139412
0.720786 0.594327 0.139412
0.827627 0.594245 0.139412
0.920829 0.594158 0.139412
0.050000 0.710058 0.139412
0.132977 0.710058 0.139412
0.238625 0.710058 0.139412
0.357394 0.709983 0.139412
0.482074 0.709722 0.139412
0.606163 0.709361 0.139412
0.724203 0.708996 0.139412
0.831747 0.708691 0.139412
0.925329 0.708478 0.142765
0.050810 0.815919 0.139412
0.134815 0.815610 0.139412
0.242161 0.815098 0.139412
0.362881 0.814431 0.139412
0.489071 0.813706 0.139412
0.614177 0.813026 0.142765
0.732799 0.812471 0.142765
0.840598 0.812076 0.142765
0.934221 0.811838 0.142765
0.057947 0.906972 0.139412
0.143247 0.906268 0.139412
0.251886 0.905359 0.142765
0.373623 0.904376 0.142765
0.500441 0.903448 0.142765
0.625791 0.902682 0.142765
0.744347 0.902134 0.142765
0.851875 0.901809 0.142765
0.945131 0.901674 0.142765
0.050636 0.050984 0.219882
0.127915 0.052288 0.223235
0.226665 0.053850 0.229941
0.338239 0.055404 0.233294
0.456020 0.056728 0.236647
0.574429 0.057685 0.240000
0.688539 0.058231 0.243350
0.793973 0.058409 0.243350
0.886960 0.058318 0.246693
0.053229 0.130427 0.233294
0.130945 0.131654 0.236647
0.230607 0.133056 0.240000
0.343567 0.134364 0.240000
0.463068 0.135388 0.243350
0.583310 0.136031 0.246693
0.699144 0.136294 0.246693
0.806023 0.136249 0.246693
0.900093 0.136006 0.243350
0.055203 0.232275 0.243350
0.133878 0.233392 0.243350
0.235023 0.234597 0.246693
0.349859 0.235639 0.246693
0.471379 0.236368 0.246693
0.593498 0.236741 0.243350
0.710827 0.236804 0.243350
0.818682 0.236652 0.240000
0.913201 0.236396 0.236647
0.055009 0.348321 0.246693
0.135068 0.349254 0.243350
0.238018 0.350196 0.243350
0.354779 0.350939 0.240000
0.478000 0.351392 0.240000
0.601281 0.351571 0.236647
0.719033 0.351562 0.233294
0.826539 0.351473 0.233294
0.920068 0.351395 0.233294
0.052617 0.471440 0.240000
0.134178 0.472057 0.236647
0.238798 0.472609 0.236647
0.356949 0.472963 0.233294
0.480866 0.473109 0.233294
0.603866 0.473129 0.229941
0.720719 0.473129 0.229941
0.827295 0.473129 0.229941
0.920221 0.473129 0.229941
0.050196 0.594216 0.233294
0.132990 0.594336 0.229941
0.238625 0.594347 0.229941
0.357145 0.594347 0.229941
0.480961 0.594347 0.229941
0.603866 0.594347 0.229941
0.720870 0.594305 0.229941
0.827783 0.594213 0.229941
0.921027 0.594129 0.229941
0.050000 0.710058 0.229941
0.132977 0.710058 0.229941
0.238630 0.710057 0.229941
0.357605 0.709926 0.229941
0.482460 0.709628 0.229941
0.606674 0.709254 0.229941
0.724794 0.708892 0.229941
0.832382 0.708606 0.229941
0.925984 0.708416 0.229941
0.051234 0.815804 0.229941
0.135408 0.815456 0.229941
0.242929 0.814912 0.229941
0.363796 0.814230 0.229941
0.490090 0.813509 0.229941
0.615256 0.812852 0.229941
0.733901 0.812331 0.229941
0.841695 0.811976 0.229941
0.935300 0.811778 0.229941
0.059159 0.906684 0.229941
0.144565 0.905973 0.229941
0.253300 0.905068 0.229941
0.375100 0.904106 0.229941
0.501940 0.903217 0.229941
0.627271 0.902501 0.229941
0.745779 0.902010 0.229941
0.853243 0.901743 0.229941
0.946429 0.901660 0.229941
0.051031 0.051596 0.315917
0.128351 0.052874 0.319187
0.227210 0.054383 0.322458
0.338969 0.055852 0.328998
0.456993 0.057069 0.332269
0.575672 0.057905 0.335540
0.690048 0.058331 0.338812
0.795717 0.058399 0.342085
0.888890 0.058214 0.342085
0.053535 0.131009 0.325728
0.131338 0.132189 0.328998
0.231150 0.133514 0.332269
0.344316 0.134722 0.335540
0.464054 0.135630 0.338812
0.584533 0.136155 0.342085
0.700575 0.136308 0.342085
0.807613 0.136170 0.342085
0.901787 0.135855 0.342085
0.055300 0.232812 0.338812
0.134101 0.233862 0.338812
0.235423 0.234973 0.342085
0.350462 0.235905 0.342085
0.472183 0.236521 0.342085
0.594468 0.236792 0.342085
0.711902 0.236770 0.338812
0.819796 0.236558 0.338812
0.914293 0.236266 0.335540
0.054858 0.348776 0.342085
0.135061 0.349629 0.342085
0.238184 0.350473 0.342085
0.355110 0.351113 0.338812
0.478451 0.351474 0.338812
0.601777 0.351584 0.335540
0.719485 0.351535 0.335540
0.826861 0.351438 0.332269
0.920195 0.351377 0.332269
0.052341 0.471748 0.338812
0.134035 0.472287 0.335540
0.238787 0.472752 0.335540
0.357020 0.473029 0.332269
0.480928 0.473123 0.332269
0.603866 0.473129 0.332269
0.720719 0.473129 0.332269
0.827295 0.473129 0.332269
0.920221 0.473129 0.332269
0.050092 0.594290 0.332269
0.132977 0.594347 0.332269
0.238625 0.594347 0.332269
0.357145 0.594347 0.332269
0.480961 0.594347 0.332269
0.603879 0.594344 0.332269
0.721008 0.594275 0.332269
0.828001 0.594177 0.332269
0.921290 0.594100 0.332269
0.050000 0.710058 0.332269
0.132977 0.710058 0.332269
0.238705 0.710036 0.332269
0.357920 0.709847 0.332269
0.482965 0.709515 0.332269
0.607314 0.709132 0.332269
0.725518 0.708782 0.332269
0.833152 0.708519 0.328998
0.926774 0.708359 0.328998
0.051817 0.815653 0.332269
0.136173 0.815268 0.332269
0.243882 0.814695 0.332269
0.364904 0.814003 0.332269
0.491305 0.813294 0.328998
0.616529 0.812667 0.328998
0.735192 0.812188 0.328998
0.842975 0.811880 0.328998
0.936552 0.811729 0.328998
0.060617 0.906355 0.332269
0.146132 0.905640 0.328998
0.254965 0.904746 0.328998
0.376824 0.903814 0.328998
0.503674 0.902973 0.328998
0.628973 0.902318 0.328998
0.747418 0.901893 0.328998
0.854800 0.901691 0.328998
0.947900 0.901667 0.328998
0.051439 0.052227 0.414904
0.128809 0.053470 0.418274
0.227791 0.054914 0.421652
0.339747 0.056289 0.428429
0.458027 0.057387 0.431829
0.576986 0.058094 0.438656
0.691634 0.058392 0.442082
0.797538 0.058346 0.442082
0.890895 0.058066 0.445517
0.053836 0.131598 0.428429
0.131736 0.132722 0.431829
0.231709 0.133962 0.435238
0.345093 0.135060 0.438656
0.465077 0.135845 0.442082
0.585798 0.136246 0.445517
0.702047 0.136286 0.445517
0.809240 0.136054 0.445517
0.903509 0.135668 0.445517
0.055374 0.233343 0.438656
0.134311 0.234318 0.442082
0.235818 0.235329 0.442082
0.351070 0.236146 0.445517
0.472995 0.236646 0.445517
0.595442 0.236812 0.445517
0.712974 0.236708 0.445517
0.820893 0.236440 0.442082
0.915348 0.236119 0.442082
0.054678 0.349213 0.445517
0.135033 0.349984 0.445517
0.238334 0.350727 0.445517
0.355428 0.351263 0.445517
0.478883 0.351534 0.442082
0.602242 0.351579 0.442082
0.719885 0.351499 0.438656
0.827104 0.351405 0.438656
0.920221 0.351373 0.438656
0.052053 0.472031 0.442082
0.133884 0.472493 0.442082
0.238767 0.472873 0.442082
0.357074 0.473077 0.438656
0.480958 0.473129 0.438656
0.603866 0.473129 0.438656
0.720719 0.473129 0.438656
0.827295 0.473129 0.438656
0.920221 0.473129 0.438656
0.050023 0.594334 0.438656
0.132977 0.594347 0.438656
0.238625 0.594347 0.438656
0.357145 0.594347 0.438656
0.480961 0.594347 0.438656
0.603946 0.594328 0.438656
0.721206 0.594239 0.438656
0.828281 0.594140 0.438656
0.921615 0.594076 0.438656
0.050000 0.710058 0.438656
0.132977 0.710058 0.438656
0.238884 0.709991 0.438656
0.358342 0.709749 0.438656
0.483578 0.709391 0.438656
0.608060 0.709006 0.435238
0.726347 0.708674 0.435238
0.834024 0.708440 0.435238
0.927661 0.708314 0.435238
0.052549 0.815474 0.438656
0.137088 0.815057 0.438656
0.244982 0.814461 0.435238
0.366156 0.813766 0.435238
0.492658 0.813076 0.435238
0.617933 0.812486 0.435238
0.736604 0.812055 0.431829
0.844367 0.811800 0.431829
0.937908 0.811700 0.431829
0.062253 0.906007 0.435238
0.147872 0.905294 0.435238
0.256794 0.904417 0.435238
0.378700 0.903521 0.431829
0.505548 0.902735 0.431829
0.630799 0.902147 0.431829
0.749164 0.901795 0.431829
0.856450 0.901663 0.428429
0.949451 0.901701 0.428429
0.051837 0.052842 0.520272
0.129265 0.054044 0.523989
0.228376 0.055415 0.531467
0.340535 0.056688 0.535228
0.459069 0.057663 0.542788
0.578304 0.058239 0.546586
0.693215 0.058410 0.550397
0.799343 0.058251 0.554220
0.892873 0.057879 0.558053
0.054113 0.132161 0.535228
0.132116 0.133224 0.539001
0.232256 0.134373 0.542788
0.345857 0.135358 0.546586
0.466084 0.136018 0.554220
0.587039 0.136296 0.554220
0.703485 0.136226 0.558053
0.810819 0.135905 0.558053
0.905169 0.135455 0.558053
0.055419 0.233837 0.550397
0.134494 0.234736 0.554220
0.236189 0.235646 0.554220
0.351650 0.236348 0.558053
0.473771 0.236736 0.558053
0.596369 0.236802 0.558053
0.713984 0.236623 0.558053
0.821910 0.236308 0.558053
0.916308 0.235965 0.558053
0.054478 0.349610 0.558053
0.134984 0.350300 0.558053
0.238461 0.350944 0.558053
0.355714 0.351381 0.558053
0.479273 0.351569 0.558053
0.602648 0.351560 0.554220
0.720207 0.351461 0.554220
0.827249 0.351382 0.554220
0.920221 0.351373 0.554220
0.051770 0.472276 0.558053
0.133734 0.472664 0.558053
0.238741 0.472965 0.554220
0.357112 0.473107 0.554220
0.480961 0.473129 0.554220
0.603866 0.473129 0.554220
0.720719 0.473129 0.554220
0.827295 0.473129 0.554220
0.920223 0.473129 0.554220
0.050000 0.594347 0.554220
0.132977 0.594347 0.554220
0.238625 0.594347 0.554220
0.357145 0.594347 0.554220
0.480961 0.594347 0.554220
0.604074 0.594303 0.554220
0.721460 0.594201 0.554220
0.828614 0.594108 0.554220
0.921993 0.594060 0.550397
0.050000 0.710058 0.554220
0.133002 0.710052 0.554220
0.239165 0.709924 0.554220
0.358857 0.709640 0.554220
0.484275 0.709264 0.550397
0.608883 0.708885 0.550397
0.727245 0.708575 0.550397
0.834959 0.708375 0.546586
0.928607 0.708286 0.546586
0.053403 0.815278 0.554220
0.138115 0.814835 0.550397
0.246183 0.814224 0.550397
0.367496 0.813534 0.550397
0.494088 0.812869 0.546586
0.619401 0.812320 0.546586
0.738070 0.811942 0.542788
0.845805 0.811742 0.542788
0.939304 0.811693 0.542788
0.063993 0.905658 0.550397
0.149705 0.904952 0.546586
0.258701 0.904099 0.546586
0.380639 0.903246 0.546586
0.507470 0.902519 0.542788
0.632660 0.902002 0.542788
0.750932 0.901723 0.539001
0.858110 0.901662 0.539001
0.951003 0.901762 0.539001
0.052208 0.053416 0.632385
0.129699 0.054570 0.636344
0.228939 0.055865 0.644265
0.341295 0.057034 0.648227
0.460073 0.057888 0.656150
0.579569 0.058337 0.664070
0.694724 0.058386 0.668028
0.801057 0.058121 0.671983
0.894740 0.057665 0.671983
0.054357 0.132674 0.648227
0.132463 0.133674 0.652189
0.232766 0.134732 0.656150
0.346577 0.135606 0.664070
0.467034 0.136146 0.668028
0.588206 0.136308 0.671983
0.704830 0.136136 0.675936
0.812285 0.135735 0.675936
0.906699 0.135227 0.675936
0.055435 0.234277 0.664070
0.134646 0.235101 0.668028
0.236522 0.235912 0.671983
0.352180 0.236507 0.675936
0.474482 0.236789 0.675936
0.597213 0.236766 0.675936
0.714894 0.236521 0.675936
0.822810 0.236170 0.675936
0.917136 0.235816 0.675936
0.054269 0.349953 0.675936
0.134919 0.350566 0.675936
0.238562 0.351118 0.675936
0.355961 0.351467 0.675936
0.479607 0.351583 0.675936
0.602983 0.351532 0.675936
0.720444 0.351426 0.675936
0.827295 0.351373 0.675936
0.920221 0.351373 0.675936
0.051506 0.472475 0.675936
0.133594 0.472797 0.675936
0.238714 0.473031 0.675936
0.357134 0.473122 0.675936
0.480961 0.473129 0.675936
0.603866 0.473129 0.675936
0.720719 0.473129 0.675936
0.827295 0.473129 0.675936
0.920239 0.473130 0.675936
0.050000 0.594347 0.675936
0.132977 0.594347 0.675936
0.238625 0.594347 0.675936
0.357145 0.594347 0.675936
0.480973 0.594344 0.675936
0.604256 0.594273 0.671983
0.721761 0.594164 0.671983
0.828988 0.594083 0.671983
0.922406 0.594056 0.671983
0.050000 0.710058 0.675936
0.133124 0.710023 0.675936
0.239532 0.709844 0.671983
0.359440 0.709528 0.671983
0.485024 0.709142 0.671983
0.609746 0.708774 0.668028
0.728173 0.708492 0.668028
0.835916 0.708327 0.664070
0.929570 0.708276 0.664070
0.054336 0.815077 0.671983
0.139205 0.814614 0.671983
0.247430 0.813996 0.668028
0.368864 0.813317 0.668028
0.495530 0.812682 0.664070
0.620870 0.812178 0.664070
0.739527 0.811852 0.660111
0.847225 0.811707 0.660111
0.940677 0.811709 0.656150
0.065757 0.905326 0.668028
0.151547 0.904631 0.664070
0.260602 0.903805 0.664070
0.382557 0.902998 0.660111
0.509356 0.902332 0.660111
0.634473 0.901885 0.656150
0.752644 0.901679 0.656150
0.859707 0.901687 0.652189
0.952488 0.901846 0.652189
0.052538 0.053927 0.734594
0.130093 0.055033 0.742279
0.229458 0.056252 0.746105
0.341999 0.057321 0.753722
0.461002 0.058061 0.761291
0.580733 0.058390 0.768807
0.696106 0.058329 0.772544
0.802619 0.057969 0.776266
0.896433 0.057438 0.779973
0.054561 0.133122 0.753722
0.132767 0.134060 0.757513
0.233224 0.135032 0.765056
0.347229 0.135802 0.768807
0.467894 0.136231 0.776266
0.589260 0.136288 0.779973
0.706038 0.136025 0.779973
0.813594 0.135555 0.783665
0.908054 0.135000 0.783665
0.055428 0.234652 0.772544
0.134765 0.235406 0.776266
0.236807 0.236127 0.776266
0.352645 0.236622 0.779973
0.475108 0.236811 0.783665
0.597952 0.236711 0.783665
0.715680 0.236414 0.783665
0.823574 0.236035 0.783665
0.917818 0.235679 0.783665
0.054061 0.350237 0.783665
0.134844 0.350780 0.783665
0.238638 0.351252 0.783665
0.356165 0.351523 0.783665
0.479882 0.351581 0.783665
0.603244 0.351501 0.783665
0.720597 0.351399 0.783665
0.827295 0.351373 0.783665
0.920221 0.351373 0.783665
0.051270 0.472631 0.783665
0.133470 0.472897 0.783665
0.238688 0.473074 0.783665
0.357143 0.473128 0.783665
0.480961 0.473129 0.783665
0.603866 0.473129 0.783665
0.720719 0.473129 0.783665
0.827295 0.473129 0.783665
0.920273 0.473133 0.783665
0.050000 0.594347 0.783665
0.132977 0.594347 0.783665
0.238625 0.594347 0.783665
0.357145 0.594347 0.783665
0.481039 0.594332 0.783665
0.604478 0.594241 0.783665
0.722089 0.594133 0.779973
0.829381 0.594066 0.779973
0.922834 0.594061 0.779973
0.050012 0.710055 0.783665
0.133331 0.709977 0.783665
0.239956 0.709758 0.783665
0.360055 0.709419 0.779973
0.485786 0.709031 0.779973
0.610604 0.708678 0.776266
0.729086 0.708425 0.776266
0.836851 0.708297 0.772544
0.930506 0.708282 0.768807
0.055295 0.814882 0.779973
0.140302 0.814406 0.779973
0.248660 0.813787 0.776266
0.370197 0.813123 0.776266
0.496920 0.812520 0.772544
0.622274 0.812061 0.768807
0.740912 0.811786 0.768807
0.848569 0.811693 0.765056
0.941970 0.811742 0.761291
0.067466 0.905022 0.776266
0.153318 0.904342 0.772544
0.262414 0.903546 0.772544
0.384372 0.902785 0.768807
0.511129 0.902179 0.765056
0.636167 0.901799 0.761291
0.754233 0.901661 0.761291
0.861181 0.901731 0.757513
0.953850 0.901945 0.757513
0.052820 0.054363 0.822996
0.130436 0.055423 0.829899
0.229916 0.056571 0.833327
0.342622 0.057549 0.840137
0.461824 0.058185 0.846893
0.581760 0.058410 0.853599
0.697321 0.058251 0.856935
0.803985 0.057809 0.863577
0.897906 0.057216 0.863577
0.054725 0.133498 0.840137
0.133022 0.134379 0.843522
0.233617 0.135272 0.850252
0.347794 0.135948 0.853599
0.468641 0.136280 0.860261
0.590173 0.136245 0.863577
0.707079 0.135906 0.866885
0.814715 0.135379 0.866885
0.909206 0.134788 0.870184
0.055403 0.234960 0.856935
0.134854 0.235650 0.860261
0.237044 0.236291 0.863577
0.353037 0.236701 0.866885
0.475637 0.236810 0.866885
0.598574 0.236647 0.870184
0.716332 0.236309 0.870184
0.824194 0.235914 0.870184
0.918354 0.235562 0.870184
0.053867 0.350464 0.866885
0.134768 0.350947 0.870184
0.238691 0.351349 0.870184
0.356327 0.351557 0.870184
0.480098 0.351570 0.870184
0.603438 0.351471 0.870184
0.720682 0.351382 0.870184
0.827295 0.351373 0.870184
0.920221 0.351373 0.870184
0.051071 0.472748 0.870184
0.133368 0.472967 0.870184
0.238666 0.473100 0.870184
0.357145 0.473129 0.870184
0.480961 0.473129 0.870184
0.603866 0.473129 0.870184
0.720719 0.473129 0.870184
0.827303 0.473129 0.870184
0.920321 0.473140 0.870184
0.050000 0.594347 0.870184
0.132977 0.594347 0.870184
0.238625 0.594347 0.870184
0.357145 0.594347 0.870184
0.481145 0.594315 0.870184
0.604720 0.594211 0.870184
0.722422 0.594108 0.866885
0.829769 0.594058 0.866885
0.923252 0.594075 0.863577
0.050093 0.710037 0.870184
0.133589 0.709923 0.870184
0.240401 0.709674 0.870184
0.360663 0.709320 0.866885
0.486517 0.708934 0.866885
0.611415 0.708600 0.863577
0.729939 0.708375 0.860261
0.837719 0.708281 0.856935
0.931372 0.708300 0.856935
0.056222 0.814703 0.866885
0.141344 0.814220 0.863577
0.249813 0.813604 0.863577
0.371432 0.812957 0.860261
0.498197 0.812386 0.856935
0.623556 0.811969 0.856935
0.742170 0.811742 0.853599
0.849784 0.811696 0.850252
0.943135 0.811787 0.846893
0.069042 0.904758 0.860261
0.154941 0.904094 0.860261
0.264065 0.903327 0.856935
0.386014 0.902610 0.853599
0.512724 0.902058 0.850252
0.637681 0.901739 0.846893
0.755645 0.901662 0.846893
0.862483 0.901788 0.843522
0.955046 0.902050 0.843522
